Assets/LUTs/Neutral-125.CUBE
#Created by: Adobe Photoshop Export Color Lookup Plugin
TITLE "Untitled-1"
#LUT size
LUT_3D_SIZE 8
#data domain
#LUT data points
DOMAIN_MIN 0.000000 0.000000 0.000000
DOMAIN_MAX 0.903226 0.903226 0.903226
0.000000 0.000000 0.000000
0.197510 0.000000 0.000000
0.373108 0.000000 0.000000
0.556732 0.000000 0.000000
0.704163 0.000000 0.000000
0.807709 0.000000 0.000000
0.878082 0.000000 0.000000
0.924347 0.000000 0.000000
0.000000 0.177765 0.000000
0.197510 0.175049 0.000000
0.373108 0.172546 0.000000
0.556732 0.167389 0.000000
0.701263 0.160950 0.000000
0.792419 0.160950 0.000000
0.862183 0.160950 0.000000
0.913055 0.160950 0.000000
0.000000 0.326721 0.000000
0.197510 0.317719 0.000000
0.372223 0.304077 0.000000
0.510193 0.304077 0.000000
0.653107 0.304077 0.000000
0.768646 0.304077 0.000000
0.851837 0.304077 0.000000
0.907867 0.304077 0.000000
0.000000 0.456085 0.000000
0.180298 0.456085 0.000000
0.320801 0.456085 0.000000
0.462799 0.456085 0.000000
0.641968 0.461090 0.000000
0.773956 0.472748 0.000000
0.860748 0.482208 0.000000
0.915436 0.488586 0.000000
0.000000 0.636963 0.000000
0.163483 0.636963 0.000000
0.308685 0.639832 0.000000
0.486816 0.651520 0.000000
0.681946 0.665833 0.000000
0.803528 0.673981 0.000000
0.877869 0.676422 0.000000
0.924347 0.676117 0.000000
0.000000 0.764069 0.000000
0.166046 0.768585 0.000000
0.333252 0.776672 0.000000
0.537476 0.786041 0.000000
0.704163 0.789673 0.000000
0.806152 0.786743 0.000000
0.874847 0.782867 0.000000
0.921204 0.779816 0.000000
0.000000 0.852570 0.000000
0.176025 0.858215 0.000000
0.357910 0.863922 0.000000
0.556732 0.866669 0.000000
0.699310 0.863617 0.000000
0.798340 0.859528 0.000000
0.871063 0.858459 0.000000
0.919586 0.857788 0.000000
0.000000 0.910400 0.000000
0.184570 0.914337 0.000000
0.369843 0.917023 0.000000
0.554901 0.916473 0.000000
0.690857 0.913147 0.000000
0.796204 0.912018 0.000000
0.869720 0.911377 0.000000
0.918762 0.910950 0.000000
0.000000 0.000000 0.192383
0.197510 0.000000 0.192383
0.373108 0.000000 0.192383
0.556732 0.000000 0.192383
0.704163 0.000000 0.192383
0.807709 0.000000 0.192383
0.878082 0.000000 0.192383
0.924347 0.000000 0.192383
0.000000 0.176605 0.192383
0.197510 0.173828 0.192383
0.373108 0.171326 0.192383
0.556732 0.163086 0.192383
0.688263 0.160950 0.201477
0.782654 0.160950 0.214417
0.858673 0.160950 0.219269
0.911041 0.160950 0.222107
0.000000 0.324402 0.192383
0.197510 0.309357 0.192383
0.360474 0.304077 0.199402
0.493286 0.304077 0.216553
0.646454 0.304077 0.225311
0.766357 0.304077 0.228729
0.851563 0.304779 0.229126
0.908356 0.307159 0.228027
0.000000 0.456085 0.198486
0.174286 0.456085 0.216766
0.313995 0.456085 0.225220
0.460083 0.456085 0.229218
0.648193 0.468567 0.223999
0.780396 0.482208 0.215607
0.865448 0.492310 0.208832
0.918701 0.499451 0.203857
0.000000 0.636963 0.224548
0.162415 0.636963 0.229187
0.314697 0.644684 0.224518
0.502716 0.657990 0.212067
0.693359 0.671875 0.197479
0.807404 0.676422 0.192474
0.878082 0.675354 0.193420
0.923981 0.673004 0.195587
0.000000 0.764893 0.228912
0.170624 0.772369 0.220032
0.345795 0.781250 0.206451
0.550842 0.788849 0.193909
0.703400 0.788086 0.194702
0.802643 0.782867 0.202118
0.872070 0.778381 0.208496
0.920227 0.777313 0.210022
0.000000 0.854828 0.221832
0.182526 0.861084 0.207001
0.367737 0.865875 0.194550
0.556152 0.865845 0.194244
0.692963 0.860870 0.205353
0.796661 0.858459 0.210754
0.870026 0.857422 0.213074
0.918945 0.856750 0.214600
0.000000 0.912048 0.214020
0.190979 0.915955 0.198151
0.373108 0.917267 0.192505
0.547791 0.915100 0.200317
0.687592 0.912323 0.210327
0.794556 0.911377 0.213745
0.868652 0.910736 0.216064
0.918121 0.910309 0.217529
0.000000 0.000000 0.340210
0.197510 0.000000 0.340210
0.373108 0.000000 0.340210
0.556732 0.000000 0.340210
0.704163 0.000000 0.340210
0.807709 0.000000 0.340210
0.877747 0.000000 0.341003
0.922485 0.000000 0.347656
0.000000 0.175690 0.340210
0.197510 0.172882 0.340210
0.373108 0.169159 0.340210
0.556335 0.160950 0.340485
0.675415 0.160950 0.369232
0.778381 0.160950 0.385773
0.856293 0.160950 0.393585
0.909760 0.160950 0.397858
0.000000 0.322632 0.340210
0.197510 0.304688 0.340210
0.347839 0.304077 0.365051
0.483887 0.304077 0.389313
0.642700 0.304077 0.402252
0.765778 0.304138 0.405334
0.852509 0.307648 0.402679
0.909454 0.310883 0.398590
0.000000 0.456085 0.363281
0.170868 0.456085 0.389618
0.310028 0.456085 0.402161
0.461700 0.459167 0.404144
0.654938 0.475433 0.388916
0.785889 0.489746 0.372406
0.869507 0.500488 0.359192
0.921021 0.506622 0.351471
0.000000 0.636963 0.401276
0.162903 0.638794 0.404358
0.321411 0.649170 0.390076
0.517334 0.663605 0.364838
0.700012 0.675049 0.343079
0.807709 0.675903 0.341156
0.877289 0.672455 0.346741
0.923065 0.668854 0.352661
0.000000 0.766907 0.401611
0.174866 0.775574 0.380829
0.355591 0.784637 0.355408
0.556366 0.789734 0.340271
0.700348 0.785675 0.350372
0.799133 0.779266 0.366516
0.871277 0.777130 0.371857
0.919708 0.776062 0.374573
0.000000 0.856812 0.384399
0.187836 0.863281 0.356140
0.372314 0.866608 0.340515
0.551941 0.864380 0.349243
0.688934 0.859192 0.369781
0.795410 0.857666 0.375854
0.869202 0.856628 0.379944
0.918427 0.855957 0.382629
0.000000 0.913391 0.369019
0.194794 0.916809 0.343811
0.372894 0.916840 0.343109
0.540283 0.913757 0.362762
0.685638 0.911804 0.375122
0.793274 0.910858 0.381165
0.867889 0.910248 0.385132
0.917633 0.909851 0.387634
0.000000 0.000000 0.496918
0.197510 0.000000 0.496918
0.373108 0.000000 0.496918
0.556732 0.000000 0.496918
0.704163 0.000000 0.496918
0.807709 0.000000 0.496918
0.874420 0.000000 0.507660
0.919617 0.000000 0.519470
0.000000 0.174744 0.496918
0.197510 0.171936 0.496918
0.373108 0.165497 0.496918
0.544922 0.160950 0.506500
0.664948 0.160950 0.544617
0.774445 0.160950 0.559204
0.854279 0.160950 0.567169
0.908752 0.160950 0.571136
0.000000 0.315460 0.496918
0.194366 0.304077 0.503906
0.334961 0.304077 0.542084
0.475525 0.304077 0.562836
0.640350 0.304077 0.574554
0.766785 0.306671 0.573395
0.854401 0.311523 0.566193
0.911041 0.315369 0.559326
0.000000 0.456085 0.540833
0.167877 0.456085 0.563171
0.307556 0.456085 0.574493
0.467133 0.464203 0.569275
0.662872 0.482910 0.545410
0.792358 0.498169 0.523285
0.873169 0.507538 0.509033
0.922882 0.511993 0.502106
0.000000 0.636963 0.573883
0.164795 0.642151 0.569672
0.329346 0.654053 0.547089
0.531555 0.668762 0.514923
0.703827 0.676453 0.497009
0.807007 0.673492 0.502777
0.875732 0.668213 0.513153
0.921844 0.663757 0.521912
0.000000 0.769470 0.564270
0.179535 0.778870 0.535004
0.363983 0.787354 0.505554
0.556732 0.789246 0.498413
0.695862 0.782532 0.518616
0.797363 0.777496 0.533905
0.870453 0.775848 0.538879
0.919220 0.774780 0.542114
0.000000 0.858887 0.539673
0.192352 0.865051 0.506226
0.373108 0.866486 0.497742
0.545502 0.862457 0.516968
0.687012 0.858398 0.536346
0.794128 0.856873 0.543671
0.868408 0.855865 0.548492
0.917969 0.855194 0.551636
0.000000 0.914795 0.519470
0.197144 0.917267 0.497192
0.370209 0.915985 0.506927
0.534058 0.912659 0.532379
0.683685 0.911316 0.542786
0.792023 0.910400 0.549927
0.867126 0.909790 0.554565
0.917175 0.909424 0.557465
0.000000 0.000000 0.668243
0.197510 0.000000 0.668243
0.373108 0.000000 0.668243
0.556732 0.000000 0.668243
0.704163 0.000000 0.668243
0.804138 0.000000 0.672668
0.869934 0.000000 0.684082
0.916473 0.000000 0.693024
0.000000 0.173859 0.668243
0.197510 0.171051 0.668243
0.373108 0.162659 0.668243
0.528961 0.160950 0.683136
0.658752 0.160950 0.704651
0.771240 0.160950 0.713287
0.852783 0.160950 0.717438
0.908112 0.160950 0.719177
0.000000 0.309509 0.668243
0.188934 0.304077 0.680878
0.328522 0.304077 0.703064
0.468933 0.304077 0.715271
0.639648 0.304199 0.720001
0.769196 0.310059 0.715515
0.856873 0.315826 0.708832
0.912842 0.320038 0.703461
0.000000 0.456085 0.702362
0.165497 0.456085 0.715454
0.306793 0.456207 0.720001
0.475037 0.470093 0.711456
0.670959 0.490082 0.693481
0.798035 0.505188 0.678619
0.875916 0.512390 0.671265
0.924042 0.514862 0.668701
0.000000 0.636963 0.719971
0.167603 0.646027 0.711823
0.337585 0.658875 0.694641
0.543152 0.672729 0.674103
0.704163 0.675873 0.669037
0.804993 0.669830 0.676849
0.873810 0.663330 0.685303
0.920624 0.658936 0.690979
0.000000 0.772278 0.707275
0.184631 0.782318 0.685638
0.369904 0.789093 0.669830
0.554840 0.787659 0.672394
0.690765 0.779144 0.689331
0.796173 0.776306 0.695038
0.869690 0.774689 0.698303
0.918732 0.773621 0.700409
0.000000 0.861023 0.689026
0.195587 0.866180 0.670105
0.372345 0.865631 0.671509
0.538055 0.860352 0.688141
0.685150 0.857635 0.696625
0.792938 0.856140 0.701416
0.867676 0.855133 0.704529
0.917511 0.854492 0.706543
0.000000 0.915924 0.676483
0.197510 0.917175 0.668762
0.366211 0.914886 0.680420
0.531311 0.912201 0.694000
0.681854 0.910858 0.700867
0.790894 0.909943 0.705444
0.866455 0.909363 0.708374
0.916779 0.909027 0.710205
0.000000 0.000000 0.785980
0.197510 0.000000 0.785980
0.373108 0.000000 0.785980
0.556732 0.000000 0.785980
0.704163 0.000000 0.785980
0.799927 0.000000 0.792206
0.866455 0.000000 0.800568
0.914642 0.000000 0.805634
0.000000 0.173248 0.785980
0.197510 0.169373 0.785980
0.373108 0.161194 0.785980
0.516388 0.160950 0.799927
0.654816 0.160950 0.811523
0.769379 0.160950 0.816528
0.852081 0.160950 0.818634
0.907898 0.160950 0.819305
0.000000 0.306213 0.785980
0.184418 0.304077 0.798431
0.324310 0.304077 0.810547
0.465240 0.304077 0.817596
0.640381 0.305725 0.818970
0.771515 0.312805 0.814514
0.858826 0.319031 0.809540
0.914215 0.323456 0.805756
0.000000 0.456085 0.810120
0.164215 0.456085 0.817657
0.307495 0.458374 0.819000
0.481659 0.474548 0.811432
0.677460 0.495636 0.798828
0.801514 0.509277 0.790009
0.877258 0.514465 0.786560
0.924347 0.515259 0.786011
0.000000 0.637878 0.819214
0.169983 0.648987 0.811707
0.344147 0.662537 0.799591
0.549500 0.674744 0.787750
0.703735 0.674408 0.787689
0.803162 0.666748 0.794128
0.872314 0.659576 0.800110
0.920288 0.657684 0.801697
0.000000 0.774323 0.808472
0.188019 0.784515 0.793976
0.372406 0.789673 0.786102
0.551697 0.786011 0.790741
0.688873 0.777924 0.801208
0.795349 0.775482 0.804321
0.869171 0.773865 0.806427
0.918427 0.772797 0.807770
0.000000 0.862488 0.795990
0.197021 0.866608 0.786163
0.370483 0.864685 0.789978
0.534302 0.859283 0.800934
0.683838 0.857117 0.805359
0.792145 0.855621 0.808411
0.867188 0.854645 0.810394
0.917236 0.854034 0.811615
0.000000 0.916534 0.788940
0.197418 0.916870 0.787354
0.362885 0.914001 0.796692
0.529419 0.911896 0.803650
0.680603 0.910553 0.808044
0.790131 0.909668 0.810944
0.865997 0.909088 0.812775
0.916504 0.908752 0.813904
0.000000 0.000000 0.864899
0.197510 0.000000 0.864899
0.373108 0.000000 0.864899
0.556732 0.000000 0.864899
0.704163 0.000000 0.864899
0.796631 0.000000 0.870483
0.864075 0.000000 0.876007
0.913910 0.000000 0.878296
0.000000 0.172821 0.864899
0.197510 0.167664 0.864899
0.371399 0.160950 0.865448
0.507477 0.160950 0.875641
0.652344 0.160950 0.881836
0.768341 0.160950 0.884705
0.851746 0.160950 0.885773
0.907867 0.160980 0.885986
0.000000 0.304443 0.864899
0.181274 0.304077 0.874634
0.321594 0.304077 0.881287
0.463318 0.304077 0.885284
0.641510 0.307068 0.885315
0.773315 0.314789 0.881958
0.860260 0.321228 0.878601
0.915131 0.325684 0.876160
0.000000 0.456085 0.881012
0.163513 0.456085 0.885315
0.308624 0.460266 0.885376
0.486511 0.477692 0.879852
0.681671 0.499115 0.871613
0.803467 0.511475 0.866547
0.877838 0.515167 0.864960
0.924347 0.514771 0.865082
0.000000 0.639008 0.885620
0.171722 0.651062 0.880035
0.348541 0.664917 0.872070
0.552795 0.675690 0.865417
0.702728 0.673096 0.866699
0.801697 0.664429 0.871277
0.871857 0.658508 0.874420
0.920074 0.656830 0.875275
0.000000 0.775787 0.877869
0.190094 0.785797 0.868744
0.373108 0.789734 0.864929
0.549133 0.784760 0.868927
0.687988 0.777344 0.874969
0.794800 0.774933 0.876923
0.868835 0.773346 0.878235
0.918213 0.772278 0.879089
0.000000 0.863373 0.869904
0.197510 0.866669 0.864899
0.368866 0.863953 0.868378
0.533051 0.858948 0.874786
0.683014 0.856781 0.877594
0.791595 0.855286 0.879486
0.866882 0.854340 0.880707
0.917023 0.853729 0.881470
0.000000 0.916870 0.865997
0.196930 0.916534 0.866425
0.360382 0.913391 0.872986
0.528107 0.911652 0.876526
0.679810 0.910339 0.879242
0.789612 0.909485 0.881073
0.865692 0.908936 0.882202
0.916351 0.908600 0.882904
0.000000 0.000000 0.916443
0.197510 0.000000 0.916443
0.373108 0.000000 0.916443
0.556732 0.000000 0.916443
0.702820 0.000000 0.916718
0.794342 0.000000 0.920593
0.862823 0.000000 0.923920
0.913422 0.000000 0.925079
0.000000 0.172546 0.916443
0.197510 0.166626 0.916443
0.369202 0.160950 0.917206
0.502075 0.160950 0.923798
0.650787 0.160950 0.927216
0.767731 0.160950 0.928864
0.851593 0.160950 0.929413
0.907898 0.161285 0.929443
0.000000 0.304077 0.916626
0.179230 0.304077 0.923218
0.319946 0.304077 0.926880
0.462280 0.304077 0.929169
0.642517 0.308014 0.928833
0.774597 0.316162 0.926544
0.861237 0.322754 0.924408
0.915771 0.327148 0.922882
0.000000 0.456085 0.926727
0.163147 0.456085 0.929199
0.309601 0.461639 0.928894
0.489838 0.479767 0.925201
0.684357 0.501312 0.920013
0.804596 0.512665 0.917114
0.878082 0.515289 0.916443
0.924347 0.514160 0.916687
0.000000 0.639832 0.929077
0.172913 0.652466 0.925323
0.351349 0.666412 0.920319
0.554504 0.676117 0.916595
0.701904 0.672058 0.917877
0.800720 0.662872 0.920868
0.871643 0.657959 0.922485
0.919952 0.656281 0.923035
0.000000 0.776703 0.923950
0.191345 0.786560 0.918335
0.373108 0.789612 0.916473
0.547241 0.783875 0.919373
0.687439 0.776978 0.922821
0.794434 0.774597 0.924042
0.868591 0.772980 0.924866
0.918060 0.771942 0.925385
0.000000 0.863922 0.919006
0.197510 0.866638 0.916473
0.367645 0.863403 0.919006
0.532227 0.858734 0.922729
0.682465 0.856537 0.924438
0.791260 0.855072 0.925629
0.866669 0.854126 0.926361
0.916901 0.853546 0.926849
0.000000 0.917023 0.916840
0.196533 0.916290 0.917694
0.358734 0.912964 0.921936
0.527283 0.911530 0.923798
0.679260 0.910217 0.925476
0.789307 0.909332 0.926575
0.865509 0.908813 0.927277
0.916229 0.908478 0.927704
