Assets/LUTs/Neutral-125.CUBE
#Created by: Adobe Photoshop Export Color Lookup Plugin
TITLE "Untitled-1"
#LUT size
LUT_3D_SIZE 5
#data domain
#LUT data points
DOMAIN_MIN 0.000000 0.000000 0.000000
DOMAIN_MAX 0.903226 0.903226 0.903226
0.000000 0.000000 0.000000
0.330841 0.000000 0.000000
0.635193 0.000000 0.000000
0.827942 0.000000 0.000000
0.924347 0.000000 0.000000
0.000000 0.291687 0.000000
0.330841 0.277252 0.000000
0.593781 0.269623 0.000000
0.795105 0.269623 0.000000
0.908295 0.269623 0.000000
0.000000 0.552368 0.000000
0.275177 0.552368 0.000000
0.568390 0.564178 0.000000
0.813721 0.586456 0.000000
0.922089 0.596558 0.000000
0.000000 0.788910 0.000000
0.296326 0.800476 0.000000
0.634583 0.811829 0.000000
0.823914 0.806274 0.000000
0.920502 0.801392 0.000000
0.000000 0.910400 0.000000
0.324615 0.916595 0.000000
0.626984 0.914886 0.000000
0.817200 0.911835 0.000000
0.918762 0.910950 0.000000
0.000000 0.000000 0.305481
0.330841 0.000000 0.305481
0.635193 0.000000 0.305481
0.827942 0.000000 0.305481
0.923035 0.000000 0.310150
0.000000 0.288422 0.305481
0.328979 0.269623 0.307312
0.575562 0.269623 0.349304
0.791046 0.269623 0.362976
0.908051 0.271057 0.363251
0.000000 0.552368 0.347839
0.272064 0.552521 0.363953
0.587769 0.576508 0.338959
0.823975 0.597778 0.310181
0.924347 0.601044 0.305511
0.000000 0.792511 0.358337
0.314178 0.806915 0.320221
0.633606 0.809967 0.310211
0.818848 0.801056 0.332642
0.919464 0.799042 0.337738
0.000000 0.913055 0.333588
0.330841 0.917236 0.305756
0.616028 0.912567 0.332489
0.814850 0.910797 0.342590
0.917755 0.909973 0.347443
0.000000 0.000000 0.588745
0.330841 0.000000 0.588745
0.635193 0.000000 0.588745
0.825073 0.000000 0.593658
0.917938 0.000000 0.613739
0.000000 0.284424 0.588745
0.312866 0.269623 0.608368
0.564148 0.269623 0.646057
0.790802 0.270966 0.652222
0.909821 0.276642 0.644745
0.000000 0.552368 0.644775
0.276062 0.558716 0.648224
0.608124 0.588135 0.608612
0.827942 0.601074 0.588776
0.923981 0.596710 0.594421
0.000000 0.797058 0.634796
0.326385 0.810822 0.592224
0.625153 0.805511 0.606262
0.816864 0.799103 0.624023
0.918610 0.797089 0.629547
0.000000 0.915436 0.602539
0.328674 0.916107 0.596069
0.611816 0.911713 0.623871
0.812958 0.909973 0.634674
0.916962 0.909210 0.639618
0.000000 0.000000 0.808746
0.330841 0.000000 0.808746
0.635193 0.000000 0.808746
0.817535 0.000000 0.817017
0.914429 0.000000 0.826721
0.000000 0.276947 0.808746
0.298248 0.269623 0.825287
0.558685 0.269623 0.837463
0.793152 0.274567 0.836243
0.911896 0.281677 0.830811
0.000000 0.552368 0.837067
0.282349 0.565002 0.833008
0.621368 0.595123 0.813080
0.827789 0.598846 0.810089
0.922821 0.590393 0.815216
0.000000 0.800598 0.825409
0.330688 0.811859 0.808746
0.617310 0.801727 0.821777
0.815491 0.797729 0.826904
0.917999 0.795776 0.829407
0.000000 0.916656 0.811005
0.324127 0.914703 0.816284
0.608887 0.911102 0.826843
0.811676 0.909454 0.831696
0.916473 0.908691 0.833862
0.000000 0.000000 0.916443
0.330841 0.000000 0.916443
0.635193 0.000000 0.916443
0.813110 0.000000 0.921570
0.913422 0.000000 0.925079
0.000000 0.273834 0.916443
0.294373 0.269623 0.924530
0.556946 0.269623 0.929260
0.794983 0.276733 0.927765
0.913086 0.284332 0.925079
0.000000 0.552368 0.929138
0.286163 0.568451 0.926147
0.626678 0.597748 0.917511
0.827026 0.596588 0.917603
0.922089 0.586639 0.920258
0.000000 0.802399 0.922577
0.330841 0.811707 0.916504
0.615906 0.801056 0.922485
0.814819 0.797058 0.924744
0.917725 0.795166 0.925812
0.000000 0.917023 0.916840
0.321381 0.913910 0.920746
0.607483 0.910797 0.924713
0.811096 0.909180 0.926788
0.916229 0.908478 0.927704
