Assets/LUTs/Neutral-125.CUBE
#Created by: Adobe Photoshop Export Color Lookup Plugin
TITLE "Untitled-1"
#LUT size
LUT_3D_SIZE 32
#data domain
DOMAIN_MIN 0.0 0.0 0.0
DOMAIN_MAX 1.0 1.0 1.0
#LUT data points
0.000000 0.000000 0.000000
0.040497 0.000000 0.000000
0.094666 0.000000 0.000000
0.147369 0.000000 0.000000
0.197510 0.000000 0.000000
0.244263 0.000000 0.000000
0.288300 0.000000 0.000000
0.330841 0.000000 0.000000
0.373108 0.000000 0.000000
0.416534 0.000000 0.000000
0.462128 0.000000 0.000000
0.509399 0.000000 0.000000
0.556732 0.000000 0.000000
0.596649 0.000000 0.000000
0.635193 0.000000 0.000000
0.671173 0.000000 0.000000
0.704163 0.000000 0.000000
0.733978 0.000000 0.000000
0.760986 0.000000 0.000000
0.785492 0.000000 0.000000
0.807709 0.000000 0.000000
0.827942 0.000000 0.000000
0.846283 0.000000 0.000000
0.862946 0.000000 0.000000
0.878082 0.000000 0.000000
0.891724 0.000000 0.000000
0.903931 0.000000 0.000000
0.914825 0.000000 0.000000
0.924347 0.000000 0.000000
0.932465 0.000000 0.000000
0.939301 0.000000 0.000000
0.944702 0.000000 0.000000
0.000000 0.037231 0.000000
0.040497 0.037140 0.000000
0.094666 0.037018 0.000000
0.147369 0.036865 0.000000
0.197510 0.036743 0.000000
0.244263 0.036621 0.000000
0.288300 0.036499 0.000000
0.330841 0.036377 0.000000
0.373108 0.036255 0.000000
0.416534 0.036133 0.000000
0.462128 0.036011 0.000000
0.509399 0.035889 0.000000
0.556732 0.035736 0.000000
0.596649 0.035583 0.000000
0.635193 0.035461 0.000000
0.671173 0.035339 0.000000
0.704163 0.035217 0.000000
0.733978 0.035095 0.000000
0.760986 0.035004 0.000000
0.785492 0.034637 0.000000
0.807709 0.034332 0.000000
0.827942 0.034058 0.000000
0.846283 0.033813 0.000000
0.862946 0.033600 0.000000
0.878082 0.033447 0.000000
0.891724 0.033325 0.000000
0.903931 0.033203 0.000000
0.914825 0.033112 0.000000
0.924347 0.033051 0.000000
0.932434 0.032990 0.000000
0.939117 0.032990 0.000000
0.944427 0.032990 0.000000
0.000000 0.086456 0.000000
0.040497 0.086212 0.000000
0.094666 0.085876 0.000000
0.147369 0.085571 0.000000
0.197510 0.085236 0.000000
0.244263 0.084930 0.000000
0.288300 0.084656 0.000000
0.330841 0.084351 0.000000
0.373108 0.084076 0.000000
0.416534 0.083801 0.000000
0.462128 0.083466 0.000000
0.509399 0.083160 0.000000
0.556732 0.082825 0.000000
0.596649 0.082489 0.000000
0.635193 0.082184 0.000000
0.671173 0.081879 0.000000
0.704163 0.080780 0.000000
0.733978 0.079834 0.000000
0.760986 0.079010 0.000000
0.785492 0.078339 0.000000
0.807709 0.077820 0.000000
0.827942 0.077393 0.000000
0.846130 0.077148 0.000000
0.861969 0.077148 0.000000
0.876312 0.077148 0.000000
0.889404 0.077148 0.000000
0.901154 0.077148 0.000000
0.911743 0.077148 0.000000
0.921143 0.077148 0.000000
0.929199 0.077148 0.000000
0.936066 0.077148 0.000000
0.941498 0.077148 0.000000
0.000000 0.133606 0.000000
0.040497 0.133209 0.000000
0.094666 0.132690 0.000000
0.147369 0.132141 0.000000
0.197510 0.131653 0.000000
0.244263 0.131165 0.000000
0.288300 0.130676 0.000000
0.330841 0.130249 0.000000
0.373108 0.129791 0.000000
0.416534 0.129333 0.000000
0.462128 0.128845 0.000000
0.509399 0.128357 0.000000
0.556732 0.127838 0.000000
0.596649 0.127014 0.000000
0.635193 0.124969 0.000000
0.671173 0.123230 0.000000
0.704163 0.121826 0.000000
0.733978 0.120789 0.000000
0.760834 0.120087 0.000000
0.783325 0.120087 0.000000
0.803497 0.120087 0.000000
0.821991 0.120087 0.000000
0.839020 0.120087 0.000000
0.854828 0.120087 0.000000
0.869385 0.120087 0.000000
0.882782 0.120087 0.000000
0.895020 0.120087 0.000000
0.906189 0.120087 0.000000
0.916107 0.120087 0.000000
0.924591 0.120087 0.000000
0.931885 0.120087 0.000000
0.937805 0.120087 0.000000
0.000000 0.177765 0.000000
0.040497 0.177246 0.000000
0.094666 0.176483 0.000000
0.147369 0.175751 0.000000
0.197510 0.175049 0.000000
0.244263 0.174377 0.000000
0.288300 0.173767 0.000000
0.330841 0.173157 0.000000
0.373108 0.172546 0.000000
0.416534 0.171936 0.000000
0.462128 0.171295 0.000000
0.509399 0.170166 0.000000
0.556732 0.167389 0.000000
0.596649 0.164795 0.000000
0.635193 0.162689 0.000000
0.671173 0.161194 0.000000
0.701263 0.160950 0.000000
0.727112 0.160950 0.000000
0.750580 0.160950 0.000000
0.772278 0.160950 0.000000
0.792419 0.160950 0.000000
0.811462 0.160950 0.000000
0.829102 0.160950 0.000000
0.845947 0.160950 0.000000
0.862183 0.160950 0.000000
0.876984 0.160950 0.000000
0.890381 0.160950 0.000000
0.902435 0.160950 0.000000
0.913055 0.160950 0.000000
0.922150 0.160950 0.000000
0.929871 0.160950 0.000000
0.935974 0.160950 0.000000
0.000000 0.218292 0.000000
0.040497 0.217621 0.000000
0.094666 0.216675 0.000000
0.147369 0.215759 0.000000
0.197510 0.214874 0.000000
0.244263 0.214050 0.000000
0.288300 0.213257 0.000000
0.330841 0.212524 0.000000
0.373108 0.211761 0.000000
0.416534 0.210510 0.000000
0.462128 0.207245 0.000000
0.509399 0.204132 0.000000
0.556732 0.201416 0.000000
0.596649 0.199310 0.000000
0.630646 0.199036 0.000000
0.660126 0.199036 0.000000
0.687286 0.199036 0.000000
0.712646 0.199036 0.000000
0.736481 0.199036 0.000000
0.759125 0.199036 0.000000
0.782288 0.199036 0.000000
0.803741 0.199036 0.000000
0.823517 0.199036 0.000000
0.841736 0.199036 0.000000
0.858459 0.199036 0.000000
0.873779 0.199036 0.000000
0.887604 0.199036 0.000000
0.899994 0.199036 0.000000
0.910950 0.199036 0.000000
0.920319 0.199036 0.000000
0.928223 0.199036 0.000000
0.934509 0.199036 0.000000
0.000000 0.255920 0.000000
0.040497 0.255096 0.000000
0.094666 0.253967 0.000000
0.147369 0.252869 0.000000
0.197510 0.251801 0.000000
0.244263 0.250854 0.000000
0.288300 0.249939 0.000000
0.330841 0.248413 0.000000
0.373108 0.244843 0.000000
0.416534 0.241394 0.000000
0.462128 0.238281 0.000000
0.509399 0.235779 0.000000
0.552704 0.234955 0.000000
0.584229 0.234955 0.000000
0.613983 0.234955 0.000000
0.642639 0.234955 0.000000
0.670380 0.234955 0.000000
0.699127 0.234955 0.000000
0.726990 0.234955 0.000000
0.752838 0.234955 0.000000
0.776794 0.234955 0.000000
0.798981 0.234955 0.000000
0.819397 0.234955 0.000000
0.838196 0.234955 0.000000
0.855469 0.234955 0.000000
0.871185 0.234955 0.000000
0.885376 0.234955 0.000000
0.898132 0.234955 0.000000
0.909332 0.234955 0.000000
0.918915 0.234955 0.000000
0.927032 0.234955 0.000000
0.933441 0.234955 0.000000
0.000000 0.291687 0.000000
0.040497 0.290741 0.000000
0.094666 0.289429 0.000000
0.147369 0.288177 0.000000
0.197510 0.286987 0.000000
0.244263 0.285339 0.000000
0.288300 0.281036 0.000000
0.330841 0.277252 0.000000
0.373108 0.273834 0.000000
0.416534 0.271057 0.000000
0.460327 0.269623 0.000000
0.499451 0.269623 0.000000
0.534363 0.269623 0.000000
0.563812 0.269623 0.000000
0.593781 0.269623 0.000000
0.627380 0.269623 0.000000
0.660675 0.269623 0.000000
0.691803 0.269623 0.000000
0.720673 0.269623 0.000000
0.747437 0.269623 0.000000
0.772217 0.269623 0.000000
0.795105 0.269623 0.000000
0.816162 0.269623 0.000000
0.835480 0.269623 0.000000
0.853210 0.269623 0.000000
0.869324 0.269623 0.000000
0.883850 0.269623 0.000000
0.896851 0.269623 0.000000
0.908295 0.269623 0.000000
0.918060 0.269623 0.000000
0.926270 0.269623 0.000000
0.932800 0.269623 0.000000
0.000000 0.326721 0.000000
0.040497 0.325653 0.000000
0.094666 0.324188 0.000000
0.147369 0.322754 0.000000
0.197510 0.317719 0.000000
0.244263 0.312927 0.000000
0.288300 0.308960 0.000000
0.330841 0.305847 0.000000
0.372223 0.304077 0.000000
0.409943 0.304077 0.000000
0.445892 0.304077 0.000000
0.479553 0.304077 0.000000
0.510193 0.304077 0.000000
0.544037 0.304077 0.000000
0.581787 0.304077 0.000000
0.618408 0.304077 0.000000
0.653107 0.304077 0.000000
0.685364 0.304077 0.000000
0.715332 0.304077 0.000000
0.743042 0.304077 0.000000
0.768646 0.304077 0.000000
0.792236 0.304077 0.000000
0.813873 0.304077 0.000000
0.833679 0.304077 0.000000
0.851837 0.304077 0.000000
0.868286 0.304077 0.000000
0.883057 0.304077 0.000000
0.896271 0.304077 0.000000
0.907867 0.304077 0.000000
0.917755 0.304138 0.000000
0.926056 0.304382 0.000000
0.932648 0.304596 0.000000
0.000000 0.362183 0.000000
0.040497 0.360962 0.000000
0.094666 0.356873 0.000000
0.147369 0.350616 0.000000
0.197510 0.345428 0.000000
0.244263 0.341522 0.000000
0.287567 0.339447 0.000000
0.325714 0.339447 0.000000
0.360626 0.339447 0.000000
0.393707 0.339447 0.000000
0.425323 0.339447 0.000000
0.456940 0.339447 0.000000
0.493408 0.339447 0.000000
0.532684 0.339447 0.000000
0.572144 0.339447 0.000000
0.610413 0.339447 0.000000
0.646576 0.339447 0.000000
0.680176 0.339447 0.000000
0.711273 0.339447 0.000000
0.739960 0.339447 0.000000
0.766357 0.339447 0.000000
0.790619 0.339447 0.000000
0.812805 0.339447 0.000000
0.833069 0.339539 0.000000
0.851532 0.340149 0.000000
0.868286 0.340851 0.000000
0.883301 0.341553 0.000000
0.896667 0.342224 0.000000
0.908356 0.342834 0.000000
0.918304 0.343414 0.000000
0.926636 0.343872 0.000000
0.933258 0.344299 0.000000
0.000000 0.396576 0.000000
0.040497 0.391174 0.000000
0.094666 0.384674 0.000000
0.147369 0.379486 0.000000
0.197052 0.376617 0.000000
0.240143 0.376617 0.000000
0.278046 0.376617 0.000000
0.312073 0.376617 0.000000
0.343231 0.376617 0.000000
0.374054 0.376617 0.000000
0.409119 0.376617 0.000000
0.444550 0.376617 0.000000
0.480927 0.376617 0.000000
0.522278 0.376617 0.000000
0.563782 0.376617 0.000000
0.603912 0.376617 0.000000
0.641754 0.376617 0.000000
0.676758 0.376617 0.000000
0.709045 0.376617 0.000000
0.738708 0.376617 0.000000
0.765900 0.377563 0.000000
0.790894 0.378754 0.000000
0.813599 0.380005 0.000000
0.834290 0.381287 0.000000
0.853027 0.382477 0.000000
0.869904 0.383698 0.000000
0.884949 0.384857 0.000000
0.898315 0.385925 0.000000
0.909943 0.386841 0.000000
0.919800 0.387665 0.000000
0.928070 0.388336 0.000000
0.934601 0.388977 0.000000
0.000000 0.424255 0.000000
0.040497 0.419708 0.000000
0.094635 0.415161 0.000000
0.145081 0.415161 0.000000
0.190308 0.415161 0.000000
0.229462 0.415161 0.000000
0.263916 0.415161 0.000000
0.296448 0.415161 0.000000
0.329956 0.415161 0.000000
0.363495 0.415161 0.000000
0.398010 0.415161 0.000000
0.433350 0.415161 0.000000
0.470306 0.415161 0.000000
0.514008 0.415161 0.000000
0.557831 0.415161 0.000000
0.600067 0.415161 0.000000
0.639648 0.415161 0.000000
0.676178 0.416321 0.000000
0.709808 0.418152 0.000000
0.740540 0.420105 0.000000
0.768524 0.422180 0.000000
0.793945 0.424225 0.000000
0.816864 0.426178 0.000000
0.837555 0.428009 0.000000
0.856262 0.429779 0.000000
0.872986 0.431458 0.000000
0.887878 0.432983 0.000000
0.900970 0.434265 0.000000
0.912415 0.435455 0.000000
0.922089 0.436584 0.000000
0.930145 0.437439 0.000000
0.936493 0.438080 0.000000
0.000000 0.456085 0.000000
0.040039 0.456085 0.000000
0.091553 0.456085 0.000000
0.138580 0.456085 0.000000
0.180298 0.456085 0.000000
0.218231 0.456085 0.000000
0.254120 0.456085 0.000000
0.287872 0.456085 0.000000
0.320801 0.456085 0.000000
0.354095 0.456085 0.000000
0.388702 0.456085 0.000000
0.424500 0.456085 0.000000
0.462799 0.456085 0.000000
0.509277 0.456085 0.000000
0.555634 0.456116 0.000000
0.600220 0.458374 0.000000
0.641968 0.461090 0.000000
0.680084 0.464050 0.000000
0.714661 0.467010 0.000000
0.745819 0.469910 0.000000
0.773956 0.472748 0.000000
0.799255 0.475342 0.000000
0.821991 0.477783 0.000000
0.842407 0.480072 0.000000
0.860748 0.482208 0.000000
0.877075 0.484009 0.000000
0.891571 0.485748 0.000000
0.904327 0.487274 0.000000
0.915436 0.488586 0.000000
0.924805 0.489746 0.000000
0.932678 0.490906 0.000000
0.938843 0.491730 0.000000
0.000000 0.505035 0.000000
0.038300 0.505035 0.000000
0.086761 0.505035 0.000000
0.131653 0.505035 0.000000
0.173798 0.505035 0.000000
0.211914 0.505035 0.000000
0.247101 0.505035 0.000000
0.280518 0.505035 0.000000
0.313354 0.505035 0.000000
0.346893 0.505035 0.000000
0.382263 0.505035 0.000000
0.419525 0.505035 0.000000
0.460083 0.505066 0.000000
0.509796 0.507385 0.000000
0.559296 0.510437 0.000000
0.606110 0.513794 0.000000
0.649109 0.517303 0.000000
0.687775 0.520721 0.000000
0.722443 0.523987 0.000000
0.753418 0.526978 0.000000
0.781189 0.529816 0.000000
0.806030 0.532410 0.000000
0.828186 0.534698 0.000000
0.848145 0.536957 0.000000
0.866058 0.539154 0.000000
0.881989 0.541138 0.000000
0.896057 0.542847 0.000000
0.908356 0.544220 0.000000
0.919067 0.545563 0.000000
0.928070 0.546570 0.000000
0.935577 0.547394 0.000000
0.941467 0.548035 0.000000
0.000000 0.552368 0.000000
0.036346 0.552368 0.000000
0.083527 0.552368 0.000000
0.128021 0.552368 0.000000
0.169189 0.552368 0.000000
0.206787 0.552368 0.000000
0.241699 0.552368 0.000000
0.275177 0.552368 0.000000
0.308502 0.552368 0.000000
0.343048 0.552368 0.000000
0.380005 0.552368 0.000000
0.419830 0.554260 0.000000
0.464203 0.557007 0.000000
0.517029 0.560425 0.000000
0.568390 0.564178 0.000000
0.616028 0.567963 0.000000
0.659180 0.571625 0.000000
0.697571 0.575012 0.000000
0.731689 0.578094 0.000000
0.762115 0.581024 0.000000
0.789490 0.583984 0.000000
0.813721 0.586456 0.000000
0.835266 0.588654 0.000000
0.854462 0.590576 0.000000
0.871582 0.592255 0.000000
0.886780 0.593658 0.000000
0.900116 0.594788 0.000000
0.911896 0.595764 0.000000
0.922089 0.596558 0.000000
0.930695 0.597198 0.000000
0.937866 0.597748 0.000000
0.943512 0.598083 0.000000
0.000000 0.596527 0.000000
0.035370 0.596527 0.000000
0.081451 0.596527 0.000000
0.125061 0.596527 0.000000
0.165710 0.596527 0.000000
0.203156 0.596527 0.000000
0.238342 0.596527 0.000000
0.272430 0.596527 0.000000
0.306793 0.596527 0.000000
0.343079 0.597961 0.000000
0.382904 0.600189 0.000000
0.426300 0.603058 0.000000
0.474121 0.606445 0.000000
0.528320 0.610229 0.000000
0.580017 0.614014 0.000000
0.627563 0.617767 0.000000
0.670044 0.621155 0.000000
0.708282 0.624664 0.000000
0.741882 0.627747 0.000000
0.771423 0.630310 0.000000
0.797577 0.632538 0.000000
0.820648 0.634308 0.000000
0.841156 0.635803 0.000000
0.859406 0.637024 0.000000
0.875671 0.638000 0.000000
0.890106 0.638702 0.000000
0.902893 0.639282 0.000000
0.914154 0.639709 0.000000
0.923950 0.639984 0.000000
0.932220 0.640167 0.000000
0.939148 0.640320 0.000000
0.944611 0.640381 0.000000
0.000000 0.636963 0.000000
0.034607 0.636963 0.000000
0.079834 0.636963 0.000000
0.122925 0.636963 0.000000
0.163483 0.636963 0.000000
0.201233 0.636963 0.000000
0.237091 0.636963 0.000000
0.272369 0.638031 0.000000
0.308685 0.639832 0.000000
0.347473 0.642090 0.000000
0.390076 0.644836 0.000000
0.436432 0.648041 0.000000
0.486816 0.651520 0.000000
0.540985 0.655151 0.000000
0.592285 0.658722 0.000000
0.639709 0.662445 0.000000
0.681946 0.665833 0.000000
0.718536 0.668549 0.000000
0.750610 0.670807 0.000000
0.778778 0.672638 0.000000
0.803528 0.673981 0.000000
0.825500 0.674988 0.000000
0.844940 0.675720 0.000000
0.862335 0.676178 0.000000
0.877869 0.676422 0.000000
0.891724 0.676483 0.000000
0.903931 0.676422 0.000000
0.914825 0.676300 0.000000
0.924347 0.676117 0.000000
0.932465 0.675903 0.000000
0.939301 0.675690 0.000000
0.944702 0.675507 0.000000
0.000000 0.673553 0.000000
0.033997 0.673553 0.000000
0.078705 0.673553 0.000000
0.121674 0.673553 0.000000
0.162506 0.673553 0.000000
0.200928 0.674072 0.000000
0.238068 0.675598 0.000000
0.275208 0.677490 0.000000
0.313477 0.679688 0.000000
0.354370 0.682190 0.000000
0.399231 0.685059 0.000000
0.447815 0.688202 0.000000
0.499969 0.691498 0.000000
0.554169 0.695038 0.000000
0.605377 0.698547 0.000000
0.651398 0.701660 0.000000
0.691620 0.704163 0.000000
0.726501 0.706055 0.000000
0.756897 0.707428 0.000000
0.783508 0.708313 0.000000
0.806976 0.708862 0.000000
0.827850 0.709076 0.000000
0.846283 0.709045 0.000000
0.862946 0.708801 0.000000
0.878082 0.708435 0.000000
0.891724 0.708038 0.000000
0.903870 0.707550 0.000000
0.914673 0.707062 0.000000
0.924133 0.706573 0.000000
0.932190 0.706146 0.000000
0.938965 0.705750 0.000000
0.944336 0.705444 0.000000
0.000000 0.706726 0.000000
0.033600 0.706726 0.000000
0.078064 0.706726 0.000000
0.121185 0.706726 0.000000
0.162659 0.707703 0.000000
0.202332 0.709351 0.000000
0.240997 0.711273 0.000000
0.279694 0.713348 0.000000
0.319733 0.715698 0.000000
0.362396 0.718201 0.000000
0.409027 0.720978 0.000000
0.459290 0.723877 0.000000
0.513702 0.727112 0.000000
0.567230 0.730316 0.000000
0.616669 0.733154 0.000000
0.660431 0.735352 0.000000
0.698700 0.737000 0.000000
0.731628 0.738007 0.000000
0.760345 0.738525 0.000000
0.785492 0.738647 0.000000
0.807709 0.738434 0.000000
0.827942 0.738007 0.000000
0.846252 0.737427 0.000000
0.862671 0.736755 0.000000
0.877563 0.736084 0.000000
0.890991 0.735352 0.000000
0.903076 0.734650 0.000000
0.913849 0.733978 0.000000
0.923309 0.733368 0.000000
0.931396 0.732819 0.000000
0.938232 0.732361 0.000000
0.943634 0.731964 0.000000
0.000000 0.736786 0.000000
0.033386 0.736786 0.000000
0.077850 0.736786 0.000000
0.121460 0.737915 0.000000
0.164001 0.739624 0.000000
0.204956 0.741516 0.000000
0.244995 0.743561 0.000000
0.285095 0.745667 0.000000
0.326569 0.747955 0.000000
0.370605 0.750305 0.000000
0.418579 0.752808 0.000000
0.471375 0.755768 0.000000
0.526703 0.758575 0.000000
0.578186 0.761078 0.000000
0.625336 0.763092 0.000000
0.666809 0.764435 0.000000
0.702850 0.765198 0.000000
0.733978 0.765442 0.000000
0.760986 0.765228 0.000000
0.785492 0.764709 0.000000
0.807495 0.764008 0.000000
0.827271 0.763184 0.000000
0.845184 0.762329 0.000000
0.861481 0.761444 0.000000
0.876343 0.760620 0.000000
0.889801 0.759766 0.000000
0.901917 0.758942 0.000000
0.912750 0.758209 0.000000
0.922302 0.757568 0.000000
0.930450 0.756989 0.000000
0.937347 0.756531 0.000000
0.942810 0.756104 0.000000
0.000000 0.764069 0.000000
0.033295 0.764069 0.000000
0.078033 0.765106 0.000000
0.122437 0.766724 0.000000
0.166046 0.768585 0.000000
0.208221 0.770569 0.000000
0.249451 0.772583 0.000000
0.290741 0.774597 0.000000
0.333252 0.776672 0.000000
0.378601 0.778870 0.000000
0.428833 0.781403 0.000000
0.482178 0.783813 0.000000
0.537476 0.786041 0.000000
0.586609 0.787842 0.000000
0.631256 0.789063 0.000000
0.670441 0.789673 0.000000
0.704163 0.789673 0.000000
0.733978 0.789246 0.000000
0.760803 0.788544 0.000000
0.784607 0.787689 0.000000
0.806152 0.786743 0.000000
0.825745 0.785706 0.000000
0.843597 0.784729 0.000000
0.859924 0.783752 0.000000
0.874847 0.782867 0.000000
0.888397 0.781982 0.000000
0.900604 0.781189 0.000000
0.911530 0.780457 0.000000
0.921204 0.779816 0.000000
0.929443 0.779266 0.000000
0.936432 0.778809 0.000000
0.942017 0.778473 0.000000
0.000000 0.788910 0.000000
0.033356 0.789703 0.000000
0.078583 0.791107 0.000000
0.123840 0.792877 0.000000
0.168457 0.794769 0.000000
0.211670 0.796692 0.000000
0.253967 0.798584 0.000000
0.296326 0.800476 0.000000
0.339996 0.802399 0.000000
0.386963 0.804535 0.000000
0.437744 0.806641 0.000000
0.491364 0.808563 0.000000
0.545715 0.810150 0.000000
0.592468 0.811279 0.000000
0.634583 0.811829 0.000000
0.671173 0.811737 0.000000
0.704163 0.811218 0.000000
0.733337 0.810425 0.000000
0.759369 0.809448 0.000000
0.782928 0.808380 0.000000
0.804352 0.807343 0.000000
0.823914 0.806274 0.000000
0.841827 0.805267 0.000000
0.858215 0.804291 0.000000
0.873230 0.803375 0.000000
0.886932 0.802582 0.000000
0.899261 0.801788 0.000000
0.910583 0.801575 0.000000
0.920502 0.801392 0.000000
0.928955 0.801208 0.000000
0.936096 0.801086 0.000000
0.941742 0.800964 0.000000
0.000000 0.812164 0.000000
0.033539 0.813110 0.000000
0.079376 0.814667 0.000000
0.125427 0.816406 0.000000
0.170990 0.818237 0.000000
0.215149 0.820038 0.000000
0.258392 0.821808 0.000000
0.301727 0.823547 0.000000
0.346771 0.825409 0.000000
0.394409 0.827209 0.000000
0.445190 0.828827 0.000000
0.498444 0.830261 0.000000
0.551575 0.831299 0.000000
0.595795 0.831848 0.000000
0.635193 0.831818 0.000000
0.671173 0.831268 0.000000
0.703186 0.830444 0.000000
0.731689 0.829407 0.000000
0.757446 0.828308 0.000000
0.780884 0.827240 0.000000
0.802277 0.826111 0.000000
0.821991 0.825104 0.000000
0.839996 0.824127 0.000000
0.856537 0.823212 0.000000
0.872009 0.822723 0.000000
0.886139 0.822479 0.000000
0.898865 0.822266 0.000000
0.910187 0.822052 0.000000
0.920166 0.821869 0.000000
0.928680 0.821716 0.000000
0.935822 0.821594 0.000000
0.941498 0.821503 0.000000
0.000000 0.833374 0.000000
0.033844 0.834381 0.000000
0.080261 0.835938 0.000000
0.127136 0.837616 0.000000
0.173553 0.839325 0.000000
0.218536 0.840973 0.000000
0.262604 0.842560 0.000000
0.307251 0.844269 0.000000
0.352783 0.845825 0.000000
0.400482 0.847229 0.000000
0.451202 0.848480 0.000000
0.503693 0.849457 0.000000
0.555267 0.850037 0.000000
0.596649 0.850067 0.000000
0.635193 0.849609 0.000000
0.670105 0.848816 0.000000
0.701416 0.847809 0.000000
0.729614 0.846710 0.000000
0.755249 0.845581 0.000000
0.778717 0.844513 0.000000
0.800201 0.843445 0.000000
0.820038 0.842468 0.000000
0.838593 0.841949 0.000000
0.855835 0.841644 0.000000
0.871521 0.841400 0.000000
0.885712 0.841187 0.000000
0.898468 0.840973 0.000000
0.909851 0.840790 0.000000
0.919861 0.840637 0.000000
0.928406 0.840515 0.000000
0.935577 0.840393 0.000000
0.941284 0.840302 0.000000
0.000000 0.852570 0.000000
0.034149 0.853577 0.000000
0.081238 0.855072 0.000000
0.128845 0.856659 0.000000
0.176025 0.858215 0.000000
0.221741 0.859680 0.000000
0.266998 0.861237 0.000000
0.312103 0.862671 0.000000
0.357910 0.863922 0.000000
0.405548 0.865021 0.000000
0.455780 0.865906 0.000000
0.507202 0.866516 0.000000
0.556732 0.866669 0.000000
0.596649 0.866364 0.000000
0.634338 0.865662 0.000000
0.668396 0.864716 0.000000
0.699310 0.863617 0.000000
0.727417 0.862549 0.000000
0.753052 0.861450 0.000000
0.776581 0.860413 0.000000
0.798340 0.859528 0.000000
0.819122 0.859222 0.000000
0.838043 0.858948 0.000000
0.855316 0.858704 0.000000
0.871063 0.858459 0.000000
0.885315 0.858276 0.000000
0.898132 0.858093 0.000000
0.909546 0.857941 0.000000
0.919586 0.857788 0.000000
0.928162 0.857666 0.000000
0.935364 0.857574 0.000000
0.941071 0.857483 0.000000
0.000000 0.869781 0.000000
0.034485 0.870758 0.000000
0.082184 0.872162 0.000000
0.130463 0.873596 0.000000
0.178314 0.875000 0.000000
0.225098 0.876434 0.000000
0.270874 0.877747 0.000000
0.316162 0.878906 0.000000
0.362030 0.879913 0.000000
0.409485 0.880737 0.000000
0.459015 0.881317 0.000000
0.509125 0.881592 0.000000
0.556732 0.881439 0.000000
0.596283 0.880920 0.000000
0.632751 0.880096 0.000000
0.666351 0.879089 0.000000
0.697113 0.878021 0.000000
0.725128 0.876953 0.000000
0.750854 0.875946 0.000000
0.774872 0.875183 0.000000
0.797699 0.874878 0.000000
0.818542 0.874603 0.000000
0.837555 0.874390 0.000000
0.854889 0.874146 0.000000
0.870667 0.873962 0.000000
0.884979 0.873779 0.000000
0.897797 0.873627 0.000000
0.909271 0.873474 0.000000
0.919342 0.873352 0.000000
0.927917 0.873230 0.000000
0.935150 0.873169 0.000000
0.940887 0.873077 0.000000
0.000000 0.885101 0.000000
0.034821 0.886017 0.000000
0.083069 0.887299 0.000000
0.131989 0.888611 0.000000
0.180573 0.889893 0.000000
0.228058 0.891174 0.000000
0.274170 0.892273 0.000000
0.319641 0.893219 0.000000
0.365356 0.893982 0.000000
0.412415 0.894562 0.000000
0.461060 0.894897 0.000000
0.509399 0.894928 0.000000
0.556732 0.894592 0.000000
0.594971 0.893921 0.000000
0.630890 0.893036 0.000000
0.664215 0.892059 0.000000
0.694885 0.891052 0.000000
0.722961 0.890045 0.000000
0.749176 0.889282 0.000000
0.774261 0.888977 0.000000
0.797150 0.888733 0.000000
0.818054 0.888489 0.000000
0.837097 0.888275 0.000000
0.854492 0.888092 0.000000
0.870300 0.887909 0.000000
0.884644 0.887756 0.000000
0.897522 0.887604 0.000000
0.909027 0.887482 0.000000
0.919128 0.887390 0.000000
0.927734 0.887268 0.000000
0.934967 0.887207 0.000000
0.940735 0.887146 0.000000
0.000000 0.898651 0.000000
0.035156 0.899475 0.000000
0.083893 0.900635 0.000000
0.133331 0.901794 0.000000
0.182770 0.903015 0.000000
0.230591 0.904083 0.000000
0.276917 0.904999 0.000000
0.322388 0.905731 0.000000
0.367981 0.906342 0.000000
0.414429 0.906708 0.000000
0.462128 0.906860 0.000000
0.509399 0.906708 0.000000
0.556030 0.906250 0.000000
0.593414 0.905548 0.000000
0.628937 0.904663 0.000000
0.662109 0.903717 0.000000
0.692810 0.902771 0.000000
0.721008 0.901886 0.000000
