Assets/LUTs/Primal.cube
#Generated with IWLTBAP LUT Generator
#Website: http://luts.iwltbap.com
TITLE "yuh"
#LUT size
LUT_3D_SIZE 9
#LUT data points
0.074510 0.054902 0.070588
0.172549 0.050980 0.074510
0.341176 0.047059 0.082353
0.678431 0.047059 0.086275
0.925490 0.050980 0.086275
1.000000 0.050980 0.086275
1.000000 0.050980 0.086275
1.000000 0.050980 0.086275
1.000000 0.050980 0.086275
0.058824 0.152941 0.078431
0.145098 0.149020 0.082353
0.337255 0.152941 0.086275
0.686275 0.156863 0.086275
0.929412 0.160784 0.090196
1.000000 0.164706 0.090196
1.000000 0.164706 0.090196
1.000000 0.164706 0.090196
1.000000 0.164706 0.090196
0.054902 0.380392 0.086275
0.149020 0.388235 0.086275
0.368627 0.403922 0.090196
0.713725 0.427451 0.094118
0.933333 0.443137 0.094118
1.000000 0.447059 0.094118
1.000000 0.447059 0.094118
1.000000 0.447059 0.094118
1.000000 0.447059 0.094118
0.062745 0.725490 0.090196
0.168627 0.733333 0.094118
0.427451 0.745098 0.094118
0.752941 0.764706 0.098039
0.945098 0.772549 0.098039
1.000000 0.776471 0.101961
1.000000 0.776471 0.101961
1.000000 0.776471 0.101961
1.000000 0.776471 0.101961
0.070588 0.941176 0.094118
0.188235 0.941176 0.098039
0.478431 0.945098 0.098039
0.780392 0.949020 0.101961
0.952941 0.952941 0.101961
1.000000 0.952941 0.101961
1.000000 0.952941 0.101961
1.000000 0.952941 0.101961
1.000000 0.952941 0.101961
0.070588 1.000000 0.098039
0.196078 1.000000 0.098039
0.490196 1.000000 0.098039
0.788235 1.000000 0.101961
0.952941 1.000000 0.101961
1.000000 1.000000 0.105882
1.000000 1.000000 0.105882
1.000000 1.000000 0.105882
1.000000 1.000000 0.105882
0.070588 1.000000 0.098039
0.196078 1.000000 0.098039
0.490196 1.000000 0.098039
0.788235 1.000000 0.101961
0.952941 1.000000 0.101961
1.000000 1.000000 0.105882
1.000000 1.000000 0.105882
1.000000 1.000000 0.105882
1.000000 1.000000 0.105882
0.070588 1.000000 0.098039
0.196078 1.000000 0.098039
0.490196 1.000000 0.098039
0.788235 1.000000 0.101961
0.952941 1.000000 0.101961
1.000000 1.000000 0.105882
1.000000 1.000000 0.105882
1.000000 1.000000 0.105882
1.000000 1.000000 0.105882
0.070588 1.000000 0.098039
0.196078 1.000000 0.098039
0.490196 1.000000 0.098039
0.788235 1.000000 0.101961
0.952941 1.000000 0.101961
1.000000 1.000000 0.105882
1.000000 1.000000 0.105882
1.000000 1.000000 0.105882
1.000000 1.000000 0.105882
0.070588 0.054902 0.172549
0.168627 0.050980 0.180392
0.337255 0.047059 0.200000
0.678431 0.047059 0.207843
0.925490 0.050980 0.211765
1.000000 0.050980 0.211765
1.000000 0.050980 0.211765
1.000000 0.050980 0.211765
1.000000 0.050980 0.211765
0.058824 0.152941 0.188235
0.141176 0.149020 0.196078
0.337255 0.152941 0.203922
0.686275 0.156863 0.211765
0.929412 0.160784 0.215686
1.000000 0.164706 0.219608
1.000000 0.164706 0.219608
1.000000 0.164706 0.219608
1.000000 0.164706 0.219608
0.054902 0.384314 0.207843
0.149020 0.388235 0.211765
0.372549 0.403922 0.215686
0.713725 0.427451 0.223529
0.937255 0.447059 0.227451
1.000000 0.450980 0.227451
1.000000 0.450980 0.227451
1.000000 0.450980 0.227451
1.000000 0.450980 0.227451
0.062745 0.729412 0.223529
0.172549 0.733333 0.223529
0.435294 0.749020 0.231373
0.756863 0.764706 0.235294
0.945098 0.776471 0.239216
1.000000 0.780392 0.243137
1.000000 0.780392 0.243137
1.000000 0.780392 0.243137
1.000000 0.780392 0.243137
0.070588 0.941176 0.231373
0.192157 0.941176 0.231373
0.482353 0.945098 0.239216
0.784314 0.949020 0.243137
0.952941 0.952941 0.247059
1.000000 0.952941 0.247059
1.000000 0.952941 0.247059
1.000000 0.952941 0.247059
1.000000 0.952941 0.247059
0.074510 1.000000 0.235294
0.196078 1.000000 0.235294
0.498039 1.000000 0.239216
0.792157 1.000000 0.247059
0.952941 1.000000 0.250980
1.000000 1.000000 0.250980
1.000000 1.000000 0.250980
1.000000 1.000000 0.250980
1.000000 1.000000 0.250980
0.074510 1.000000 0.235294
0.196078 1.000000 0.235294
0.498039 1.000000 0.239216
0.792157 1.000000 0.247059
0.952941 1.000000 0.250980
1.000000 1.000000 0.250980
1.000000 1.000000 0.250980
1.000000 1.000000 0.250980
1.000000 1.000000 0.250980
0.074510 1.000000 0.235294
0.196078 1.000000 0.235294
0.498039 1.000000 0.239216
0.792157 1.000000 0.247059
0.952941 1.000000 0.250980
1.000000 1.000000 0.250980
1.000000 1.000000 0.250980
1.000000 1.000000 0.250980
1.000000 1.000000 0.250980
0.074510 1.000000 0.235294
0.196078 1.000000 0.235294
0.498039 1.000000 0.239216
0.792157 1.000000 0.247059
0.952941 1.000000 0.250980
1.000000 1.000000 0.250980
1.000000 1.000000 0.250980
1.000000 1.000000 0.250980
1.000000 1.000000 0.250980
0.062745 0.050980 0.407843
0.156863 0.047059 0.427451
0.337255 0.047059 0.462745
0.682353 0.050980 0.474510
0.925490 0.050980 0.486275
1.000000 0.050980 0.490196
1.000000 0.050980 0.490196
1.000000 0.050980 0.490196
1.000000 0.050980 0.490196
0.054902 0.149020 0.447059
0.141176 0.149020 0.462745
0.341176 0.152941 0.474510
0.690196 0.160784 0.486275
0.929412 0.164706 0.498039
1.000000 0.168627 0.501961
1.000000 0.168627 0.501961
1.000000 0.168627 0.501961
1.000000 0.168627 0.501961
0.054902 0.388235 0.478431
0.152941 0.396078 0.486275
0.380392 0.411765 0.498039
0.721569 0.435294 0.513725
0.937255 0.454902 0.521569
1.000000 0.458824 0.525490
1.000000 0.458824 0.525490
1.000000 0.458824 0.525490
1.000000 0.458824 0.525490
0.062745 0.733333 0.509804
0.176471 0.741176 0.513725
0.443137 0.752941 0.529412
0.760784 0.772549 0.541176
0.949020 0.780392 0.552941
1.000000 0.784314 0.552941
1.000000 0.784314 0.552941
1.000000 0.784314 0.552941
1.000000 0.784314 0.552941
0.070588 0.941176 0.529412
0.196078 0.945098 0.537255
0.494118 0.949020 0.549020
0.788235 0.949020 0.560784
0.952941 0.952941 0.568627
1.000000 0.952941 0.568627
1.000000 0.952941 0.568627
1.000000 0.952941 0.568627
1.000000 0.952941 0.568627
0.074510 1.000000 0.537255
0.203922 1.000000 0.541176
0.505882 1.000000 0.552941
0.796078 1.000000 0.564706
0.952941 1.000000 0.572549
1.000000 1.000000 0.572549
1.000000 1.000000 0.572549
1.000000 1.000000 0.572549
1.000000 1.000000 0.572549
0.074510 1.000000 0.537255
0.203922 1.000000 0.541176
0.505882 1.000000 0.552941
0.796078 1.000000 0.564706
0.952941 1.000000 0.572549
1.000000 1.000000 0.572549
1.000000 1.000000 0.572549
1.000000 1.000000 0.572549
1.000000 1.000000 0.572549
0.074510 1.000000 0.537255
0.203922 1.000000 0.541176
0.505882 1.000000 0.552941
0.796078 1.000000 0.564706
0.952941 1.000000 0.572549
1.000000 1.000000 0.572549
1.000000 1.000000 0.572549
1.000000 1.000000 0.572549
1.000000 1.000000 0.572549
0.074510 1.000000 0.537255
0.203922 1.000000 0.541176
0.505882 1.000000 0.552941
0.796078 1.000000 0.564706
0.952941 1.000000 0.572549
1.000000 1.000000 0.572549
1.000000 1.000000 0.572549
1.000000 1.000000 0.572549
1.000000 1.000000 0.572549
0.058824 0.047059 0.729412
0.145098 0.047059 0.741176
0.337255 0.047059 0.752941
0.686275 0.050980 0.760784
0.929412 0.050980 0.768627
1.000000 0.050980 0.768627
1.000000 0.050980 0.768627
1.000000 0.050980 0.768627
1.000000 0.050980 0.768627
0.054902 0.149020 0.749020
0.141176 0.149020 0.752941
0.349020 0.156863 0.760784
0.698039 0.160784 0.768627
0.929412 0.168627 0.772549
1.000000 0.172549 0.776471
1.000000 0.172549 0.776471
1.000000 0.172549 0.776471
1.000000 0.172549 0.776471
0.058824 0.392157 0.764706
0.152941 0.400000 0.768627
0.388235 0.419608 0.772549
0.729412 0.447059 0.784314
0.937255 0.462745 0.788235
1.000000 0.470588 0.792157
1.000000 0.470588 0.792157
1.000000 0.470588 0.792157
1.000000 0.470588 0.792157
0.066667 0.741176 0.780392
0.180392 0.745098 0.784314
0.458824 0.760784 0.792157
0.768627 0.776471 0.800000
0.949020 0.788235 0.803922
1.000000 0.788235 0.807843
1.000000 0.788235 0.807843
1.000000 0.788235 0.807843
1.000000 0.788235 0.807843
0.074510 0.945098 0.792157
0.200000 0.945098 0.796078
0.505882 0.949020 0.803922
0.796078 0.952941 0.807843
0.952941 0.952941 0.811765
1.000000 0.952941 0.815686
1.000000 0.952941 0.815686
1.000000 0.952941 0.815686
1.000000 0.952941 0.815686
0.074510 1.000000 0.796078
0.207843 1.000000 0.800000
0.517647 1.000000 0.803922
0.800000 1.000000 0.811765
0.956863 1.000000 0.815686
1.000000 1.000000 0.815686
1.000000 1.000000 0.815686
1.000000 1.000000 0.815686
1.000000 1.000000 0.815686
0.074510 1.000000 0.796078
0.207843 1.000000 0.800000
0.517647 1.000000 0.803922
0.800000 1.000000 0.811765
0.956863 1.000000 0.815686
1.000000 1.000000 0.815686
1.000000 1.000000 0.815686
1.000000 1.000000 0.815686
1.000000 1.000000 0.815686
0.074510 1.000000 0.796078
0.207843 1.000000 0.800000
0.517647 1.000000 0.803922
0.800000 1.000000 0.811765
0.956863 1.000000 0.815686
1.000000 1.000000 0.815686
1.000000 1.000000 0.815686
1.000000 1.000000 0.815686
1.000000 1.000000 0.815686
0.074510 1.000000 0.796078
0.207843 1.000000 0.800000
0.517647 1.000000 0.803922
0.800000 1.000000 0.811765
0.956863 1.000000 0.815686
1.000000 1.000000 0.815686
1.000000 1.000000 0.815686
1.000000 1.000000 0.815686
1.000000 1.000000 0.815686
0.054902 0.047059 0.937255
0.141176 0.047059 0.941176
0.341176 0.047059 0.941176
0.690196 0.050980 0.945098
0.929412 0.050980 0.945098
1.000000 0.054902 0.945098
1.000000 0.054902 0.945098
1.000000 0.054902 0.945098
1.000000 0.054902 0.945098
0.054902 0.149020 0.941176
0.145098 0.152941 0.941176
0.352941 0.156863 0.945098
0.701961 0.164706 0.945098
0.933333 0.172549 0.949020
1.000000 0.172549 0.949020
1.000000 0.172549 0.949020
1.000000 0.172549 0.949020
1.000000 0.172549 0.949020
0.058824 0.400000 0.945098
0.156863 0.407843 0.945098
0.396078 0.427451 0.949020
0.733333 0.454902 0.949020
0.941176 0.470588 0.949020
1.000000 0.478431 0.952941
1.000000 0.478431 0.952941
1.000000 0.478431 0.952941
1.000000 0.478431 0.952941
0.066667 0.745098 0.949020
0.184314 0.749020 0.949020
0.466667 0.764706 0.952941
0.776471 0.780392 0.952941
0.949020 0.792157 0.952941
1.000000 0.792157 0.956863
1.000000 0.792157 0.956863
1.000000 0.792157 0.956863
1.000000 0.792157 0.956863
0.074510 0.945098 0.952941
0.203922 0.945098 0.952941
0.513725 0.949020 0.952941
0.800000 0.952941 0.956863
0.956863 0.952941 0.956863
1.000000 0.956863 0.956863
1.000000 0.956863 0.956863
1.000000 0.956863 0.956863
1.000000 0.956863 0.956863
0.078431 1.000000 0.952941
0.211765 1.000000 0.952941
0.525490 1.000000 0.952941
0.803922 1.000000 0.956863
0.956863 1.000000 0.956863
1.000000 1.000000 0.956863
1.000000 1.000000 0.956863
1.000000 1.000000 0.956863
1.000000 1.000000 0.956863
0.078431 1.000000 0.952941
0.211765 1.000000 0.952941
0.525490 1.000000 0.952941
0.803922 1.000000 0.956863
0.956863 1.000000 0.956863
1.000000 1.000000 0.956863
1.000000 1.000000 0.956863
1.000000 1.000000 0.956863
1.000000 1.000000 0.956863
0.078431 1.000000 0.952941
0.211765 1.000000 0.952941
0.525490 1.000000 0.952941
0.803922 1.000000 0.956863
0.956863 1.000000 0.956863
1.000000 1.000000 0.956863
1.000000 1.000000 0.956863
1.000000 1.000000 0.956863
1.000000 1.000000 0.956863
0.078431 1.000000 0.952941
0.211765 1.000000 0.952941
0.525490 1.000000 0.952941
0.803922 1.000000 0.956863
0.956863 1.000000 0.956863
1.000000 1.000000 0.956863
1.000000 1.000000 0.956863
1.000000 1.000000 0.956863
1.000000 1.000000 0.956863
0.054902 0.047059 1.000000
0.141176 0.047059 1.000000
0.341176 0.047059 1.000000
0.690196 0.050980 1.000000
0.929412 0.050980 1.000000
1.000000 0.054902 1.000000
1.000000 0.054902 1.000000
1.000000 0.054902 1.000000
1.000000 0.054902 1.000000
0.054902 0.149020 1.000000
0.145098 0.152941 1.000000
0.352941 0.156863 1.000000
0.701961 0.164706 1.000000
0.933333 0.172549 1.000000
1.000000 0.172549 1.000000
1.000000 0.172549 1.000000
1.000000 0.172549 1.000000
1.000000 0.172549 1.000000
0.058824 0.400000 1.000000
0.156863 0.407843 1.000000
0.400000 0.427451 1.000000
0.733333 0.454902 1.000000
0.941176 0.474510 1.000000
1.000000 0.478431 1.000000
1.000000 0.478431 1.000000
1.000000 0.478431 1.000000
1.000000 0.478431 1.000000
0.066667 0.745098 1.000000
0.184314 0.752941 1.000000
0.470588 0.764706 1.000000
0.776471 0.780392 1.000000
0.949020 0.792157 1.000000
1.000000 0.796078 1.000000
1.000000 0.796078 1.000000
1.000000 0.796078 1.000000
1.000000 0.796078 1.000000
0.074510 0.945098 1.000000
0.207843 0.945098 1.000000
0.513725 0.949020 1.000000
0.800000 0.952941 1.000000
0.956863 0.952941 1.000000
1.000000 0.956863 1.000000
1.000000 0.956863 1.000000
1.000000 0.956863 1.000000
1.000000 0.956863 1.000000
0.078431 1.000000 1.000000
0.211765 1.000000 1.000000
0.529412 1.000000 1.000000
0.807843 1.000000 1.000000
0.956863 1.000000 1.000000
1.000000 1.000000 1.000000
1.000000 1.000000 1.000000
1.000000 1.000000 1.000000
1.000000 1.000000 1.000000
0.078431 1.000000 1.000000
0.211765 1.000000 1.000000
0.529412 1.000000 1.000000
0.807843 1.000000 1.000000
0.956863 1.000000 1.000000
1.000000 1.000000 1.000000
1.000000 1.000000 1.000000
1.000000 1.000000 1.000000
1.000000 1.000000 1.000000
0.078431 1.000000 1.000000
0.211765 1.000000 1.000000
0.529412 1.000000 1.000000
0.807843 1.000000 1.000000
0.956863 1.000000 1.000000
1.000000 1.000000 1.000000
1.000000 1.000000 1.000000
1.000000 1.000000 1.000000
1.000000 1.000000 1.000000
0.078431 1.000000 1.000000
0.211765 1.000000 1.000000
0.529412 1.000000 1.000000
0.807843 1.000000 1.000000
0.956863 1.000000 1.000000
1.000000 1.000000 1.000000
1.000000 1.000000 1.000000
1.000000 1.000000 1.000000
1.000000 1.000000 1.000000
0.054902 0.047059 1.000000
0.141176 0.047059 1.000000
0.341176 0.047059 1.000000
0.690196 0.050980 1.000000
0.929412 0.050980 1.000000
1.000000 0.054902 1.000000
1.000000 0.054902 1.000000
1.000000 0.054902 1.000000
1.000000 0.054902 1.000000
0.054902 0.149020 1.000000
0.145098 0.152941 1.000000
0.352941 0.156863 1.000000
0.701961 0.164706 1.000000
0.933333 0.172549 1.000000
1.000000 0.172549 1.000000
1.000000 0.172549 1.000000
1.000000 0.172549 1.000000
1.000000 0.172549 1.000000
0.058824 0.400000 1.000000
0.156863 0.407843 1.000000
0.400000 0.427451 1.000000
0.733333 0.454902 1.000000
0.941176 0.474510 1.000000
1.000000 0.478431 1.000000
1.000000 0.478431 1.000000
1.000000 0.478431 1.000000
1.000000 0.478431 1.000000
0.066667 0.745098 1.000000
0.184314 0.752941 1.000000
0.470588 0.764706 1.000000
0.776471 0.780392 1.000000
0.949020 0.792157 1.000000
1.000000 0.796078 1.000000
1.000000 0.796078 1.000000
1.000000 0.796078 1.000000
1.000000 0.796078 1.000000
0.074510 0.945098 1.000000
0.207843 0.945098 1.000000
0.513725 0.949020 1.000000
0.800000 0.952941 1.000000
0.956863 0.952941 1.000000
1.000000 0.956863 1.000000
1.000000 0.956863 1.000000
1.000000 0.956863 1.000000
1.000000 0.956863 1.000000
0.078431 1.000000 1.000000
0.211765 1.000000 1.000000
0.529412 1.000000 1.000000
0.807843 1.000000 1.000000
0.956863 1.000000 1.000000
1.000000 1.000000 1.000000
1.000000 1.000000 1.000000
1.000000 1.000000 1.000000
1.000000 1.000000 1.000000
0.078431 1.000000 1.000000
0.211765 1.000000 1.000000
0.529412 1.000000 1.000000
0.807843 1.000000 1.000000
0.956863 1.000000 1.000000
1.000000 1.000000 1.000000
1.000000 1.000000 1.000000
1.000000 1.000000 1.000000
1.000000 1.000000 1.000000
0.078431 1.000000 1.000000
0.211765 1.000000 1.000000
0.529412 1.000000 1.000000
0.807843 1.000000 1.000000
0.956863 1.000000 1.000000
1.000000 1.000000 1.000000
1.000000 1.000000 1.000000
1.000000 1.000000 1.000000
1.000000 1.000000 1.000000
0.078431 1.000000 1.000000
0.211765 1.000000 1.000000
0.529412 1.000000 1.000000
0.807843 1.000000 1.000000
0.956863 1.000000 1.000000
1.000000 1.000000 1.000000
1.000000 1.000000 1.000000
1.000000 1.000000 1.000000
1.000000 1.000000 1.000000
0.054902 0.047059 1.000000
0.141176 0.047059 1.000000
0.341176 0.047059 1.000000
0.690196 0.050980 1.000000
0.929412 0.050980 1.000000
1.000000 0.054902 1.000000
1.000000 0.054902 1.000000
1.000000 0.054902 1.000000
1.000000 0.054902 1.000000
0.054902 0.149020 1.000000
0.145098 0.152941 1.000000
0.352941 0.156863 1.000000
0.701961 0.164706 1.000000
0.933333 0.172549 1.000000
1.000000 0.172549 1.000000
1.000000 0.172549 1.000000
1.000000 0.172549 1.000000
1.000000 0.172549 1.000000
0.058824 0.400000 1.000000
0.156863 0.407843 1.000000
0.400000 0.427451 1.000000
0.733333 0.454902 1.000000
0.941176 0.474510 1.000000
1.000000 0.478431 1.000000
1.000000 0.478431 1.000000
1.000000 0.478431 1.000000
1.000000 0.478431 1.000000
0.066667 0.745098 1.000000
0.184314 0.752941 1.000000
0.470588 0.764706 1.000000
0.776471 0.780392 1.000000
0.949020 0.792157 1.000000
1.000000 0.796078 1.000000
1.000000 0.796078 1.000000
1.000000 0.796078 1.000000
1.000000 0.796078 1.000000
0.074510 0.945098 1.000000
0.207843 0.945098 1.000000
0.513725 0.949020 1.000000
0.800000 0.952941 1.000000
0.956863 0.952941 1.000000
1.000000 0.956863 1.000000
1.000000 0.956863 1.000000
1.000000 0.956863 1.000000
1.000000 0.956863 1.000000
0.078431 1.000000 1.000000
0.211765 1.000000 1.000000
0.529412 1.000000 1.000000
0.807843 1.000000 1.000000
0.956863 1.000000 1.000000
1.000000 1.000000 1.000000
1.000000 1.000000 1.000000
1.000000 1.000000 1.000000
1.000000 1.000000 1.000000
0.078431 1.000000 1.000000
0.211765 1.000000 1.000000
0.529412 1.000000 1.000000
0.807843 1.000000 1.000000
0.956863 1.000000 1.000000
1.000000 1.000000 1.000000
1.000000 1.000000 1.000000
1.000000 1.000000 1.000000
1.000000 1.000000 1.000000
0.078431 1.000000 1.000000
0.211765 1.000000 1.000000
0.529412 1.000000 1.000000
0.807843 1.000000 1.000000
0.956863 1.000000 1.000000
1.000000 1.000000 1.000000
1.000000 1.000000 1.000000
1.000000 1.000000 1.000000
1.000000 1.000000 1.000000
0.078431 1.000000 1.000000
0.211765 1.000000 1.000000
0.529412 1.000000 1.000000
0.807843 1.000000 1.000000
0.956863 1.000000 1.000000
1.000000 1.000000 1.000000
1.000000 1.000000 1.000000
1.000000 1.000000 1.000000
1.000000 1.000000 1.000000
0.054902 0.047059 1.000000
0.141176 0.047059 1.000000
0.341176 0.047059 1.000000
0.690196 0.050980 1.000000
0.929412 0.050980 1.000000
1.000000 0.054902 1.000000
1.000000 0.054902 1.000000
1.000000 0.054902 1.000000
1.000000 0.054902 1.000000
0.054902 0.149020 1.000000
0.145098 0.152941 1.000000
0.352941 0.156863 1.000000
0.701961 0.164706 1.000000
0.933333 0.172549 1.000000
1.000000 0.172549 1.000000
1.000000 0.172549 1.000000
1.000000 0.172549 1.000000
1.000000 0.172549 1.000000
0.058824 0.400000 1.000000
0.156863 0.407843 1.000000
0.400000 0.427451 1.000000
0.733333 0.454902 1.000000
0.941176 0.474510 1.000000
1.000000 0.478431 1.000000
1.000000 0.478431 1.000000
1.000000 0.478431 1.000000
1.000000 0.478431 1.000000
0.066667 0.745098 1.000000
0.184314 0.752941 1.000000
0.470588 0.764706 1.000000
0.776471 0.780392 1.000000
0.949020 0.792157 1.000000
1.000000 0.796078 1.000000
1.000000 0.796078 1.000000
1.000000 0.796078 1.000000
1.000000 0.796078 1.000000
0.074510 0.945098 1.000000
0.207843 0.945098 1.000000
0.513725 0.949020 1.000000
0.800000 0.952941 1.000000
0.956863 0.952941 1.000000
1.000000 0.956863 1.000000
1.000000 0.956863 1.000000
1.000000 0.956863 1.000000
1.000000 0.956863 1.000000
0.078431 1.000000 1.000000
0.211765 1.000000 1.000000
0.529412 1.000000 1.000000
0.807843 1.000000 1.000000
0.956863 1.000000 1.000000
1.000000 1.000000 1.000000
1.000000 1.000000 1.000000
1.000000 1.000000 1.000000
1.000000 1.000000 1.000000
0.078431 1.000000 1.000000
0.211765 1.000000 1.000000
0.529412 1.000000 1.000000
0.807843 1.000000 1.000000
0.956863 1.000000 1.000000
1.000000 1.000000 1.000000
1.000000 1.000000 1.000000
1.000000 1.000000 1.000000
1.000000 1.000000 1.000000
0.078431 1.000000 1.000000
0.211765 1.000000 1.000000
0.529412 1.000000 1.000000
0.807843 1.000000 1.000000
0.956863 1.000000 1.000000
1.000000 1.000000 1.000000
1.000000 1.000000 1.000000
1.000000 1.000000 1.000000
1.000000 1.000000 1.000000
0.078431 1.000000 1.000000
0.211765 1.000000 1.000000
0.529412 1.000000 1.000000
0.807843 1.000000 1.000000
0.956863 1.000000 1.000000
1.000000 1.000000 1.000000
1.000000 1.000000 1.000000
1.000000 1.000000 1.000000
1.000000 1.000000 1.000000
