Assets/LUTs/Prima.CUBE
#Created by: Adobe Photoshop Export Color Lookup Plugin
TITLE "PrimaColourAdjust.psd"
#LUT size
LUT_3D_SIZE 32
#data domain
DOMAIN_MIN 0.0 0.0 0.0
DOMAIN_MAX 1.0 1.0 1.0
#LUT data points
0.000000 0.000000 0.000000
0.032318 0.000031 0.000214
0.065826 0.000183 0.000031
0.101166 0.000122 0.000122
0.139221 0.000122 0.000305
0.179688 0.000092 0.000336
0.221222 0.000122 0.000122
0.262878 0.000153 0.000275
0.304016 0.000183 0.000275
0.344604 0.000214 0.000214
0.385284 0.000275 0.000275
0.426544 0.000305 0.000336
0.468994 0.000305 0.000366
0.513641 0.000336 0.000336
0.561462 0.000336 0.000336
0.613220 0.000366 0.000458
0.668610 0.000427 0.000427
0.727448 0.000458 0.000458
0.788574 0.000488 0.000488
0.850708 0.000519 0.000519
0.912354 0.000549 0.000549
0.972534 0.000549 0.000549
0.998108 0.000580 0.000580
0.998108 0.000580 0.000580
0.998108 0.000580 0.000580
0.998108 0.000580 0.000580
0.998108 0.000580 0.000580
0.998108 0.000580 0.000580
0.998108 0.000580 0.000580
0.998108 0.000580 0.000580
0.998108 0.000580 0.000580
0.998108 0.000580 0.000580
0.000092 0.021210 0.000031
0.027100 0.018494 0.000031
0.061615 0.015778 0.000122
0.098450 0.010712 0.000305
0.137543 0.003418 0.000336
0.178101 0.000122 0.000122
0.219849 0.000214 0.000153
0.261993 0.000122 0.000336
0.303223 0.000214 0.000336
0.343964 0.000275 0.000275
0.384796 0.000214 0.000214
0.426025 0.000305 0.000305
0.468628 0.000275 0.000519
0.513306 0.000336 0.000336
0.561157 0.000336 0.000336
0.612885 0.000366 0.000366
0.668304 0.000397 0.000397
0.727112 0.000458 0.000458
0.788239 0.000488 0.000488
0.850342 0.000488 0.000488
0.912140 0.000549 0.000549
0.972351 0.000580 0.000580
0.998108 0.000580 0.000580
0.998108 0.000580 0.000580
0.998108 0.000580 0.000580
0.998108 0.000580 0.000580
0.998108 0.000580 0.000580
0.998108 0.000580 0.000580
0.998108 0.000580 0.000580
0.998108 0.000580 0.000580
0.998108 0.000580 0.000580
0.998108 0.000580 0.000580
0.000397 0.059082 0.000244
0.021149 0.056915 0.000214
0.057404 0.054962 0.000397
0.095581 0.050842 0.000305
0.134552 0.045410 0.000092
0.176544 0.036346 0.000549
0.218536 0.023712 0.000244
0.261078 0.007141 0.000732
0.302368 0.000122 0.000397
0.343201 0.000244 0.000244
0.384094 0.000244 0.000275
0.425507 0.000275 0.000275
0.468079 0.000336 0.000336
0.512848 0.000336 0.000336
0.560669 0.000336 0.000336
0.612427 0.000366 0.000366
0.667908 0.000397 0.000397
0.726746 0.000458 0.000458
0.787872 0.000488 0.000488
0.850037 0.000519 0.000519
0.911743 0.000549 0.000549
0.971985 0.000549 0.000549
0.998108 0.000580 0.000580
0.998108 0.000580 0.000580
0.998108 0.000580 0.000580
0.998108 0.000580 0.000580
0.998108 0.000580 0.000580
0.998108 0.000580 0.000580
0.998108 0.000580 0.000580
0.998108 0.000580 0.000580
0.998108 0.000580 0.000580
0.998108 0.000580 0.000580
0.000946 0.099731 0.000305
0.010193 0.098755 0.000580
0.049988 0.096649 0.000214
0.090027 0.094330 0.000549
0.131073 0.090210 0.000366
0.173401 0.084412 0.000458
0.216278 0.076538 0.000427
0.259399 0.065430 0.000580
0.300995 0.050110 0.000427
0.342102 0.027161 0.000397
0.383118 0.000275 0.000275
0.424622 0.000275 0.000336
0.467346 0.000305 0.000336
0.512115 0.000336 0.000336
0.559998 0.000366 0.000366
0.611786 0.000366 0.000488
0.667297 0.000397 0.000397
0.726135 0.000458 0.000458
0.787292 0.000458 0.000458
0.849457 0.000488 0.000488
0.911163 0.000549 0.000549
0.971466 0.000549 0.000549
0.998108 0.000580 0.000580
0.998108 0.000580 0.000580
0.998108 0.000580 0.000580
0.998108 0.000580 0.000580
0.998108 0.000580 0.000580
0.998108 0.000580 0.000580
0.998108 0.000580 0.000580
0.998108 0.000580 0.000580
0.998108 0.000580 0.000580
0.998108 0.000580 0.000580
0.000702 0.144684 0.000183
0.000977 0.143433 0.000092
0.035736 0.142548 0.000305
0.081970 0.140350 0.000336
0.125244 0.137451 0.000427
0.169098 0.133087 0.000458
0.212891 0.127319 0.000427
0.256470 0.119812 0.000488
0.299164 0.109467 0.000641
0.340668 0.095978 0.000641
0.381927 0.078278 0.000671
0.424072 0.052551 0.000946
0.467041 0.012238 0.001160
0.511139 0.000336 0.000336
0.559143 0.000336 0.000336
0.610931 0.000397 0.000397
0.666351 0.000427 0.000427
0.725342 0.000458 0.000458
0.786438 0.000488 0.000488
0.848694 0.000519 0.000519
0.910492 0.000580 0.000580
0.970764 0.000580 0.000580
0.998108 0.000580 0.000580
0.998108 0.000580 0.000580
0.998108 0.000580 0.000580
0.998108 0.000580 0.000580
0.998108 0.000580 0.000580
0.998108 0.000580 0.000580
0.998108 0.000580 0.000580
0.998108 0.000580 0.000580
0.998108 0.000580 0.000580
0.998108 0.000580 0.000580
0.001648 0.191620 0.000031
0.001282 0.191071 0.000214
0.015625 0.190399 0.000275
0.069427 0.188751 0.000366
0.116547 0.186584 0.000397
0.162537 0.183380 0.000580
0.208038 0.179016 0.000488
0.252869 0.173126 0.000549
0.296265 0.165619 0.000854
0.338226 0.156281 0.000671
0.380035 0.143921 0.000671
0.422302 0.128113 0.000885
0.465271 0.107361 0.000824
0.510498 0.079163 0.001129
0.558868 0.035217 0.001434
0.609680 0.000397 0.000397
0.665070 0.000427 0.000427
0.724152 0.000427 0.000427
0.785400 0.000488 0.000488
0.847595 0.000488 0.000488
0.909454 0.000519 0.000519
0.969788 0.000549 0.000549
0.998108 0.000580 0.000580
0.998108 0.000580 0.000580
0.998108 0.000580 0.000580
0.998108 0.000580 0.000580
0.998108 0.000580 0.000580
0.998108 0.000580 0.000580
0.998108 0.000580 0.000580
0.998108 0.000580 0.000580
0.998108 0.000580 0.000580
0.998108 0.000580 0.000580
0.000427 0.241028 0.000397
0.000763 0.240326 0.000336
0.001160 0.239319 0.000183
0.049316 0.238342 0.000397
0.104523 0.236603 0.000397
0.153595 0.234131 0.000519
0.201508 0.230804 0.000580
0.247803 0.226440 0.000580
0.292175 0.220764 0.000671
0.335052 0.213745 0.000702
0.377350 0.204773 0.000702
0.419800 0.193451 0.000763
0.463348 0.179077 0.000916
0.508423 0.161133 0.000885
0.556793 0.137878 0.001007
0.609131 0.106659 0.001343
0.664856 0.062531 0.001587
0.722565 0.000427 0.000427
0.783844 0.000458 0.000458
0.846161 0.000519 0.000519
0.908112 0.000549 0.000549
0.968506 0.000549 0.000549
0.998108 0.000580 0.000580
0.998108 0.000580 0.000580
0.998108 0.000580 0.000580
0.998108 0.000580 0.000580
0.998108 0.000580 0.000580
0.998108 0.000580 0.000580
0.998108 0.000580 0.000580
0.998108 0.000580 0.000580
0.998108 0.000580 0.000580
0.998108 0.000580 0.000580
0.001556 0.289032 0.000122
0.001801 0.288452 0.000031
0.001312 0.288025 0.000183
0.017059 0.286865 0.000031
0.086731 0.285980 0.000458
0.141724 0.284088 0.000549
0.192383 0.281616 0.000610
0.240967 0.278290 0.000702
0.286987 0.273987 0.000702
0.330994 0.268555 0.000732
0.373932 0.261932 0.000793
0.416870 0.253723 0.000793
0.460724 0.243347 0.000916
0.506378 0.230469 0.001007
0.554626 0.214691 0.001038
0.606689 0.194733 0.001068
0.662323 0.170044 0.001160
0.721802 0.138794 0.001404
0.783569 0.097473 0.001740
0.847717 0.034271 0.002991
0.906311 0.000549 0.000549
0.966888 0.000580 0.000580
0.998108 0.000580 0.000580
0.998108 0.000580 0.000580
0.998108 0.000580 0.000580
0.998108 0.000580 0.000580
0.998108 0.000580 0.000580
0.998108 0.000580 0.000580
0.998108 0.000580 0.000580
0.998108 0.000580 0.000580
0.998108 0.000580 0.000580
0.998108 0.000580 0.000580
0.002563 0.336151 0.000031
0.002930 0.335663 0.000031
0.002502 0.335266 0.000031
0.002136 0.334686 0.000000
0.059204 0.334045 0.000458
0.125153 0.332611 0.000519
0.180542 0.330627 0.000641
0.231964 0.328186 0.000732
0.280304 0.324738 0.000763
0.325745 0.320587 0.000793
0.369751 0.315582 0.000854
0.413361 0.309235 0.000885
0.457428 0.301636 0.000916
0.503326 0.292297 0.001007
0.551849 0.280975 0.001007
0.604095 0.267120 0.001099
0.659882 0.250397 0.001190
0.719025 0.230469 0.001221
0.780731 0.206482 0.001373
0.843506 0.177521 0.001587
0.905823 0.141632 0.001770
0.967072 0.094879 0.002197
1.000000 0.021362 0.005280
0.998108 0.000580 0.000580
0.998108 0.000580 0.000580
0.998108 0.000580 0.000580
0.998108 0.000580 0.000580
0.998108 0.000580 0.000580
0.998108 0.000580 0.000580
0.998108 0.000580 0.000580
0.998108 0.000580 0.000580
0.998108 0.000580 0.000580
0.002075 0.383759 0.000122
0.001984 0.383453 0.000122
0.002228 0.383057 0.000031
0.002716 0.382080 0.000031
0.010620 0.381470 0.000122
0.101501 0.380585 0.000488
0.164734 0.378998 0.000671
0.220581 0.376892 0.000732
0.271759 0.374298 0.000793
0.319122 0.370880 0.000854
0.364166 0.366882 0.000885
0.408752 0.361877 0.000946
0.453400 0.355957 0.000977
0.499664 0.348724 0.001007
0.548553 0.340057 0.001068
0.600922 0.329742 0.001099
0.656738 0.317780 0.001221
0.716003 0.303802 0.001221
0.777710 0.287811 0.001312
0.840454 0.269287 0.001434
0.902832 0.247864 0.001526
0.963715 0.222961 0.001617
0.999542 0.194092 0.001648
0.999817 0.159302 0.001831
0.999939 0.145782 0.001892
0.999939 0.145782 0.001892
0.999939 0.145782 0.001892
0.999939 0.145782 0.001892
0.999939 0.145782 0.001892
0.999939 0.145782 0.001892
0.999939 0.145782 0.001892
0.999939 0.145782 0.001892
0.003662 0.431122 0.000031
0.003479 0.430969 0.000031
0.003326 0.430786 0.000031
0.002563 0.430450 0.000000
0.003693 0.429230 0.000031
0.065552 0.428589 0.000061
0.143494 0.427734 0.000549
0.205780 0.425934 0.000702
0.260559 0.423859 0.000793
0.310547 0.421021 0.000885
0.357544 0.417694 0.000946
0.403137 0.413483 0.001007
0.448578 0.408539 0.001007
0.495331 0.402557 0.001068
0.544525 0.395569 0.001129
0.597198 0.387329 0.001221
0.653015 0.377960 0.001221
0.712341 0.367493 0.001251
0.774078 0.355469 0.001343
0.836975 0.342377 0.001404
0.899506 0.327667 0.001495
0.960510 0.311554 0.001556
0.999542 0.293365 0.001587
0.999573 0.273804 0.001617
0.999481 0.266541 0.001587
0.999481 0.266541 0.001587
0.999481 0.266541 0.001587
0.999481 0.266541 0.001587
0.999481 0.266541 0.001587
0.999481 0.266541 0.001587
0.999481 0.266541 0.001587
0.999481 0.266541 0.001587
0.003967 0.481110 0.000031
0.003326 0.481140 0.000031
0.003998 0.480438 0.000031
0.003021 0.480560 0.000031
0.003723 0.479492 0.000031
0.003113 0.478821 0.000031
0.112701 0.478149 0.000488
0.185638 0.476593 0.000732
0.246399 0.474731 0.000793
0.300079 0.472321 0.000916
0.349060 0.469391 0.001007
0.396149 0.465881 0.001038
0.442688 0.461395 0.001099
0.489990 0.456390 0.001099
0.539642 0.450562 0.001190
0.592499 0.443542 0.001221
0.648560 0.435577 0.001282
0.708008 0.427032 0.001312
0.769928 0.417358 0.001404
0.832916 0.406891 0.001434
0.895752 0.395599 0.001526
0.956909 0.383392 0.001556
0.999695 0.370605 0.001617
0.999603 0.356873 0.001617
0.999695 0.352051 0.001648
0.999695 0.352051 0.001648
0.999695 0.352051 0.001648
0.999695 0.352051 0.001648
0.999695 0.352051 0.001648
0.999695 0.352051 0.001648
0.999695 0.352051 0.001648
0.999695 0.352051 0.001648
0.006042 0.533081 0.000031
0.005859 0.533051 0.000031
0.005737 0.532898 0.000031
0.005402 0.532623 0.000031
0.005646 0.531891 0.000031
0.005157 0.531158 0.000031
0.064240 0.530701 0.000031
0.158569 0.530212 0.000641
0.228119 0.528412 0.000793
0.286743 0.526245 0.000916
0.338959 0.523499 0.001007
0.387878 0.520233 0.001068
0.435669 0.516571 0.001129
0.483765 0.511841 0.001221
0.533966 0.506714 0.001251
0.587128 0.500641 0.001312
0.643341 0.493530 0.001343
0.702881 0.486084 0.001404
0.764984 0.477722 0.001434
0.828186 0.469055 0.001495
0.891083 0.459351 0.001526
0.952637 0.449402 0.001617
0.999603 0.439270 0.001617
0.999817 0.428131 0.001678
0.999603 0.424500 0.001617
0.999603 0.424500 0.001617
0.999603 0.424500 0.001617
0.999603 0.424500 0.001617
0.999603 0.424500 0.001617
0.999603 0.424500 0.001617
0.999603 0.424500 0.001617
0.999603 0.424500 0.001617
0.005829 0.591187 0.000031
0.005341 0.591187 0.000031
0.005798 0.590759 0.000031
0.007507 0.589508 0.000031
0.006805 0.589050 0.000031
0.006744 0.588348 0.000031
0.006592 0.587341 0.000031
0.119751 0.587891 0.000336
0.203552 0.586700 0.000793
0.269684 0.584686 0.000946
0.326324 0.582184 0.001007
0.377625 0.579102 0.001099
0.427124 0.575592 0.001221
0.476349 0.571259 0.001251
0.527100 0.566345 0.001282
0.580811 0.560760 0.001373
0.637085 0.554382 0.001404
0.696991 0.547363 0.001465
0.759125 0.540039 0.001526
0.822723 0.531982 0.001587
0.885895 0.523499 0.001648
0.947571 0.514709 0.001648
0.999878 0.505615 0.001709
0.999817 0.496399 0.001678
0.999786 0.493317 0.001678
0.999786 0.493317 0.001678
0.999786 0.493317 0.001678
0.999786 0.493317 0.001678
0.999786 0.493317 0.001678
0.999786 0.493317 0.001678
0.999786 0.493317 0.001678
0.999786 0.493317 0.001678
0.007843 0.654602 0.000031
0.008057 0.654297 0.000031
0.007629 0.654327 0.000031
0.007080 0.654144 0.000031
0.006897 0.653717 0.000031
0.007080 0.652710 0.000031
0.008820 0.650635 0.000031
0.051788 0.650970 0.000031
0.170441 0.651123 0.000549
0.247803 0.649323 0.000854
0.310333 0.647034 0.001007
0.365448 0.644135 0.001129
0.416870 0.640656 0.001221
0.467499 0.636627 0.001282
0.519104 0.631958 0.001373
0.573334 0.626465 0.001404
0.629974 0.620544 0.001465
0.689880 0.613647 0.001526
0.752411 0.606567 0.001587
0.816132 0.599182 0.001648
0.879700 0.591187 0.001678
0.941742 0.583008 0.001709
1.000000 0.574707 0.001862
1.000000 0.566010 0.001892
1.000000 0.563293 0.001740
1.000000 0.563293 0.001740
1.000000 0.563293 0.001740
1.000000 0.563293 0.001740
1.000000 0.563293 0.001740
1.000000 0.563293 0.001740
1.000000 0.563293 0.001740
1.000000 0.563293 0.001740
0.009491 0.725891 0.000031
0.010254 0.725067 0.000031
0.009613 0.725281 0.000031
0.009796 0.724792 0.000031
0.010406 0.723816 0.000031
0.009430 0.723663 0.000031
0.008362 0.723267 0.000031
0.010101 0.720764 0.000031
0.120758 0.723175 0.000153
0.218781 0.722015 0.000793
0.290375 0.719818 0.001038
0.350311 0.717041 0.001160
0.404846 0.713531 0.001251
0.457123 0.709503 0.001312
0.509888 0.704987 0.001404
0.564697 0.699646 0.001465
0.621765 0.693512 0.001556
0.681854 0.687164 0.001587
0.744629 0.680450 0.001678
0.808746 0.672913 0.001709
0.872589 0.665283 0.001740
0.935028 0.657288 0.001770
0.995300 0.649170 0.001831
1.000000 0.640808 0.002167
1.000000 0.638306 0.002167
1.000000 0.638306 0.002167
1.000000 0.638306 0.002167
1.000000 0.638306 0.002167
1.000000 0.638306 0.002167
1.000000 0.638306 0.002167
1.000000 0.638306 0.002167
1.000000 0.638306 0.002167
0.011749 0.801849 0.000031
0.011627 0.801697 0.000031
0.011810 0.801300 0.000031
0.011078 0.801270 0.000031
0.011047 0.800873 0.000031
0.011841 0.799408 0.000031
0.012390 0.798218 0.000031
0.011444 0.797577 0.000031
0.026215 0.795563 0.000031
0.179047 0.799408 0.000549
0.265778 0.797485 0.000885
0.332611 0.794952 0.001099
0.390747 0.791809 0.001221
0.445282 0.787964 0.001373
0.499481 0.783569 0.001465
0.555145 0.778320 0.001526
0.612671 0.772675 0.001587
0.672882 0.766510 0.001648
0.735962 0.759613 0.001678
0.800446 0.752625 0.001770
0.864716 0.744995 0.001801
0.927643 0.737488 0.001862
0.988281 0.729401 0.001892
1.000000 0.721039 0.002838
1.000000 0.718933 0.002869
1.000000 0.718933 0.002869
1.000000 0.718933 0.002869
1.000000 0.718933 0.002869
1.000000 0.718933 0.002869
1.000000 0.718933 0.002869
1.000000 0.718933 0.002869
1.000000 0.718933 0.002869
0.015106 0.879517 0.000031
0.014984 0.879364 0.000031
0.014282 0.879761 0.000031
0.013885 0.879700 0.000031
0.013702 0.879303 0.000031
0.013611 0.878540 0.000031
0.013702 0.877594 0.000031
0.014008 0.876312 0.000031
0.013763 0.874969 0.000031
0.121643 0.879089 0.000031
0.233795 0.878143 0.000824
0.311310 0.875671 0.001068
0.374573 0.872772 0.001251
0.432129 0.869324 0.001343
0.487885 0.865173 0.001495
0.544556 0.860291 0.001556
0.602753 0.854797 0.001678
0.663269 0.848877 0.001709
0.726471 0.842621 0.001770
0.791351 0.835876 0.001801
0.856049 0.828583 0.001862
0.919434 0.821198 0.001892
0.980499 0.813599 0.001923
1.000000 0.806000 0.003662
1.000000 0.803223 0.003723
1.000000 0.803223 0.003723
1.000000 0.803223 0.003723
1.000000 0.803223 0.003723
1.000000 0.803223 0.003723
1.000000 0.803223 0.003723
1.000000 0.803223 0.003723
1.000000 0.803223 0.003723
0.015869 0.959717 0.000031
0.015747 0.959656 0.000031
0.016113 0.959290 0.000031
0.015961 0.958832 0.000031
0.016479 0.957916 0.000031
0.016663 0.957306 0.000031
0.016876 0.956146 0.000031
0.016052 0.955597 0.000031
0.016174 0.954132 0.000031
0.015259 0.953003 0.000031
0.191498 0.958923 0.000488
0.285248 0.957092 0.001007
0.355957 0.954529 0.001221
0.417084 0.951111 0.001373
0.475128 0.947388 0.001495
0.533051 0.942871 0.001617
0.591827 0.937927 0.001678
0.652740 0.932220 0.001740
0.716278 0.926239 0.001801
0.781525 0.919800 0.001862
0.846710 0.913269 0.001892
0.910614 0.906158 0.001953
0.972137 0.899445 0.002014
1.000000 0.891571 0.005219
1.000000 0.889435 0.004913
1.000000 0.889435 0.004913
1.000000 0.889435 0.004913
1.000000 0.889435 0.004913
1.000000 0.889435 0.004913
1.000000 0.889435 0.004913
1.000000 0.889435 0.004913
1.000000 0.889435 0.004913
0.016937 0.987762 0.000031
0.016937 0.987762 0.000031
0.016937 0.987762 0.000031
0.016937 0.987762 0.000031
0.016937 0.987762 0.000031
0.016937 0.987762 0.000031
0.016937 0.987762 0.000031
0.016937 0.987762 0.000031
0.016937 0.987762 0.000031
0.016937 0.987762 0.000031
0.130341 0.995605 0.000031
0.253082 0.997253 0.000793
0.334045 0.997803 0.001160
0.400421 0.998077 0.001343
0.461212 0.998230 0.001495
0.520691 0.998352 0.001617
0.580383 0.998535 0.001709
0.641571 0.998596 0.001801
0.705414 0.998627 0.001862
0.771088 0.998718 0.001892
0.836731 0.996826 0.001953
0.901123 0.990479 0.001984
0.963257 0.984039 0.002045
1.000000 0.976196 0.007324
1.000000 0.973999 0.007477
1.000000 0.973999 0.007477
1.000000 0.973999 0.007477
1.000000 0.973999 0.007477
1.000000 0.973999 0.007477
1.000000 0.973999 0.007477
1.000000 0.973999 0.007477
1.000000 0.973999 0.007477
0.016937 0.987762 0.000031
0.016937 0.987762 0.000031
0.016937 0.987762 0.000031
0.016937 0.987762 0.000031
0.016937 0.987762 0.000031
0.016937 0.987762 0.000031
0.016937 0.987762 0.000031
0.016937 0.987762 0.000031
0.016937 0.987762 0.000031
0.016937 0.987762 0.000031
0.016937 0.987762 0.000031
0.210571 0.996979 0.000580
0.308411 0.997681 0.001068
0.381561 0.998047 0.001312
0.445984 0.998199 0.001465
0.507416 0.998322 0.001587
0.568024 0.998474 0.001678
0.629791 0.998566 0.001740
0.693878 0.998688 0.001862
0.759857 0.998718 0.001892
0.826019 0.998749 0.001923
0.890961 0.998840 0.002014
0.953735 0.998871 0.002075
1.000000 0.997803 0.008270
1.000000 0.997803 0.008270
1.000000 0.997803 0.008270
1.000000 0.997803 0.008270
1.000000 0.997803 0.008270
1.000000 0.997803 0.008270
1.000000 0.997803 0.008270
1.000000 0.997803 0.008270
1.000000 0.997803 0.008270
0.016937 0.987762 0.000031
0.016937 0.987762 0.000031
0.016937 0.987762 0.000031
0.016937 0.987762 0.000031
0.016937 0.987762 0.000031
0.016937 0.987762 0.000031
0.016937 0.987762 0.000031
0.016937 0.987762 0.000031
0.016937 0.987762 0.000031
0.016937 0.987762 0.000031
0.016937 0.987762 0.000031
0.152069 0.996368 0.000122
0.277802 0.997498 0.000946
0.360626 0.997925 0.001251
0.429504 0.998077 0.001404
0.493134 0.998322 0.001587
0.554993 0.998474 0.001678
0.617523 0.998566 0.001740
0.681732 0.998596 0.001801
0.748230 0.998718 0.001892
0.814941 0.998779 0.001953
0.880432 0.998840 0.002014
0.943695 0.998871 0.002075
1.000000 0.997803 0.008270
1.000000 0.997803 0.008270
1.000000 0.997803 0.008270
1.000000 0.997803 0.008270
1.000000 0.997803 0.008270
1.000000 0.997803 0.008270
1.000000 0.997803 0.008270
1.000000 0.997803 0.008270
1.000000 0.997803 0.008270
0.016937 0.987762 0.000031
0.016937 0.987762 0.000031
0.016937 0.987762 0.000031
0.016937 0.987762 0.000031
0.016937 0.987762 0.000031
0.016937 0.987762 0.000031
0.016937 0.987762 0.000031
0.016937 0.987762 0.000031
0.016937 0.987762 0.000031
0.016937 0.987762 0.000031
0.016937 0.987762 0.000031
0.051392 0.989380 0.000031
0.239716 0.997253 0.000763
0.337067 0.997803 0.001160
0.411804 0.998077 0.001373
0.478241 0.998322 0.001556
0.541565 0.998444 0.001678
0.604889 0.998566 0.001740
0.669525 0.998627 0.001831
0.736328 0.998718 0.001892
0.803558 0.998749 0.001923
0.869598 0.998779 0.001984
0.933502 0.998871 0.002075
0.994171 0.998901 0.002106
1.000000 0.997803 0.008270
1.000000 0.997803 0.008270
1.000000 0.997803 0.008270
1.000000 0.997803 0.008270
1.000000 0.997803 0.008270
1.000000 0.997803 0.008270
1.000000 0.997803 0.008270
1.000000 0.997803 0.008270
0.016937 0.987762 0.000031
0.016937 0.987762 0.000031
0.016937 0.987762 0.000031
0.016937 0.987762 0.000031
0.016937 0.987762 0.000031
0.016937 0.987762 0.000031
0.016937 0.987762 0.000031
0.016937 0.987762 0.000031
0.016937 0.987762 0.000031
0.016937 0.987762 0.000031
0.016937 0.987762 0.000031
0.016937 0.987762 0.000031
0.190796 0.996826 0.000458
0.310211 0.997742 0.001099
0.392578 0.998047 0.001343
0.462921 0.998230 0.001495
0.527832 0.998413 0.001617
0.592133 0.998535 0.001709
0.657166 0.998596 0.001801
0.724243 0.998688 0.001862
0.791779 0.998718 0.001892
0.858551 0.998840 0.001984
0.923004 0.998840 0.002014
0.984253 0.998901 0.002106
1.000000 0.997803 0.008270
1.000000 0.997803 0.008270
1.000000 0.997803 0.008270
1.000000 0.997803 0.008270
1.000000 0.997803 0.008270
1.000000 0.997803 0.008270
1.000000 0.997803 0.008270
1.000000 0.997803 0.008270
0.016937 0.987762 0.000031
0.016937 0.987762 0.000031
0.016937 0.987762 0.000031
0.016937 0.987762 0.000031
0.016937 0.987762 0.000031
0.016937 0.987762 0.000031
0.016937 0.987762 0.000031
0.016937 0.987762 0.000031
0.016937 0.987762 0.000031
0.016937 0.987762 0.000031
0.016937 0.987762 0.000031
0.016937 0.987762 0.000031
0.169891 0.996643 0.000305
0.300354 0.997620 0.001007
0.385956 0.997955 0.001282
0.457367 0.998230 0.001495
0.523163 0.998413 0.001648
0.587494 0.998474 0.001678
0.652863 0.998596 0.001801
0.720215 0.998688 0.001862
0.787903 0.998779 0.001923
0.854889 0.998779 0.001984
0.919434 0.998840 0.002014
0.980896 0.998901 0.002106
1.000000 0.997803 0.008270
1.000000 0.997803 0.008270
1.000000 0.997803 0.008270
1.000000 0.997803 0.008270
1.000000 0.997803 0.008270
1.000000 0.997803 0.008270
1.000000 0.997803 0.008270
1.000000 0.997803 0.008270
0.016937 0.987762 0.000031
0.016937 0.987762 0.000031
0.016937 0.987762 0.000031
0.016937 0.987762 0.000031
0.016937 0.987762 0.000031
0.016937 0.987762 0.000031
0.016937 0.987762 0.000031
0.016937 0.987762 0.000031
0.016937 0.987762 0.000031
0.016937 0.987762 0.000031
0.016937 0.987762 0.000031
0.016937 0.987762 0.000031
0.169891 0.996643 0.000305
0.300354 0.997620 0.001007
0.385956 0.997955 0.001282
0.457367 0.998230 0.001495
0.523163 0.998413 0.001648
0.587494 0.998474 0.001678
0.652863 0.998596 0.001801
0.720215 0.998688 0.001862
0.787903 0.998779 0.001923
0.854889 0.998779 0.001984
0.919434 0.998840 0.002014
0.980896 0.998901 0.002106
1.000000 0.997803 0.008270
1.000000 0.997803 0.008270
1.000000 0.997803 0.008270
1.000000 0.997803 0.008270
1.000000 0.997803 0.008270
1.000000 0.997803 0.008270
1.000000 0.997803 0.008270
1.000000 0.997803 0.008270
0.016937 0.987762 0.000031
0.016937 0.987762 0.000031
0.016937 0.987762 0.000031
0.016937 0.987762 0.000031
0.016937 0.987762 0.000031
0.016937 0.987762 0.000031
0.016937 0.987762 0.000031
0.016937 0.987762 0.000031
0.016937 0.987762 0.000031
0.016937 0.987762 0.000031
0.016937 0.987762 0.000031
0.016937 0.987762 0.000031
0.169891 0.996643 0.000305
0.300354 0.997620 0.001007
0.385956 0.997955 0.001282
0.457367 0.998230 0.001495
0.523163 0.998413 0.001648
0.587494 0.998474 0.001678
0.652863 0.998596 0.001801
0.720215 0.998688 0.001862
0.787903 0.998779 0.001923
0.854889 0.998779 0.001984
0.919434 0.998840 0.002014
0.980896 0.998901 0.002106
1.000000 0.997803 0.008270
1.000000 0.997803 0.008270
1.000000 0.997803 0.008270
1.000000 0.997803 0.008270
1.000000 0.997803 0.008270
1.000000 0.997803 0.008270
1.000000 0.997803 0.008270
1.000000 0.997803 0.008270
0.016937 0.987762 0.000031
0.016937 0.987762 0.000031
0.016937 0.987762 0.000031
0.016937 0.987762 0.000031
0.016937 0.987762 0.000031
0.016937 0.987762 0.000031
0.016937 0.987762 0.000031
0.016937 0.987762 0.000031
0.016937 0.987762 0.000031
0.016937 0.987762 0.000031
0.016937 0.987762 0.000031
0.016937 0.987762 0.000031
0.169891 0.996643 0.000305
0.300354 0.997620 0.001007
0.385956 0.997955 0.001282
0.457367 0.998230 0.001495
0.523163 0.998413 0.001648
