Assets/LUTs/Prima.CUBE
#Created by: Adobe Photoshop Export Color Lookup Plugin
TITLE "PrimaColourAdjust.psd"
#LUT size
LUT_3D_SIZE 5
#data domain
#LUT data points
DOMAIN_MIN 0.000000 0.000000 0.000000
DOMAIN_MAX 0.903226 0.903226 0.903226
0.000000 0.000000 0.000000
0.262878 0.000153 0.000275
0.561462 0.000336 0.000336
0.972534 0.000549 0.000549
0.998108 0.000580 0.000580
0.001556 0.289032 0.000122
0.240967 0.278290 0.000702
0.554626 0.214691 0.001038
0.966888 0.000580 0.000580
0.998108 0.000580 0.000580
0.007843 0.654602 0.000031
0.051788 0.650970 0.000031
0.519104 0.631958 0.001373
0.941742 0.583008 0.001709
1.000000 0.563293 0.001740
0.016937 0.987762 0.000031
0.016937 0.987762 0.000031
0.429504 0.998077 0.001404
0.880432 0.998840 0.002014
1.000000 0.997803 0.008270
0.016937 0.987762 0.000031
0.016937 0.987762 0.000031
0.385956 0.997955 0.001282
0.854889 0.998779 0.001984
1.000000 0.997803 0.008270
0.002228 0.000031 0.306732
0.263306 0.000244 0.301605
0.561707 0.000458 0.249115
0.972534 0.000549 0.000549
0.998108 0.000580 0.000580
0.002991 0.288666 0.285858
0.241516 0.278259 0.275940
0.558502 0.186310 0.186523
0.968750 0.000549 0.000549
0.998108 0.000580 0.000580
0.007446 0.655579 0.081146
0.008057 0.655670 0.000031
0.522491 0.636566 0.001373
0.943390 0.574951 0.001709
1.000000 0.553345 0.001740
0.016937 0.987762 0.000031
0.016937 0.987762 0.000031
0.420593 0.998108 0.001404
0.881226 0.998871 0.002014
1.000000 0.997803 0.008270
0.016937 0.987762 0.000031
0.016937 0.987762 0.000031
0.373779 0.997955 0.001251
0.853088 0.998779 0.001984
1.000000 0.997803 0.008270
0.011353 0.000031 0.671112
0.264618 0.000031 0.699951
0.562256 0.000488 0.680420
0.973328 0.000793 0.634888
0.998840 0.000824 0.616486
0.009583 0.286041 0.690460
0.219025 0.248688 0.698242
0.560730 0.167542 0.677673
0.969543 0.000793 0.616791
0.998749 0.000793 0.596588
0.013763 0.652588 0.638428
0.013733 0.653748 0.639648
0.519989 0.631989 0.619263
0.945953 0.566376 0.556458
1.000000 0.539368 0.530457
0.017853 0.989105 0.520355
0.018066 0.988983 0.505096
0.387665 0.998199 0.445801
0.883881 0.999084 0.376312
1.000000 0.997742 0.355255
0.017059 0.989624 0.469879
0.016449 0.989960 0.451355
0.327972 0.997986 0.373657
0.847046 0.999084 0.278717
1.000000 0.997803 0.231720
0.019073 0.000031 0.926270
0.265717 0.000031 0.991058
0.562805 0.000397 0.994904
0.973907 0.000793 0.995422
0.999390 0.000793 0.995453
0.016693 0.282928 0.986664
0.216736 0.242645 0.994232
0.551636 0.162994 0.996399
0.970337 0.000793 0.995422
0.999390 0.000793 0.995453
0.021484 0.649017 0.984558
0.021912 0.636292 0.984344
0.494171 0.593903 0.996216
0.950378 0.540192 0.997040
1.000000 0.522339 0.995697
0.028046 0.983215 0.981262
0.028046 0.983215 0.981262
0.388885 0.997772 0.995789
0.881989 0.999023 0.997253
1.000000 1.000000 1.000000
0.028046 0.983215 0.981262
0.028046 0.983215 0.981262
0.329865 0.997162 0.995239
0.849854 0.999054 0.997253
1.000000 1.000000 1.000000
0.019073 0.000031 0.926270
0.265717 0.000031 0.991058
0.562805 0.000397 0.994904
0.973999 0.000793 0.995453
0.999390 0.000793 0.995453
0.016693 0.282928 0.986664
0.215973 0.241974 0.994293
0.550262 0.162659 0.996368
0.967804 0.000793 0.995453
0.999390 0.000793 0.995453
0.021759 0.648682 0.984406
0.021088 0.635132 0.984741
0.490051 0.588226 0.996216
0.940002 0.535339 0.997040
1.000000 0.513855 0.995758
0.028046 0.983215 0.981262
0.028046 0.983215 0.981262
0.385803 0.997681 0.995728
0.876740 0.999084 0.997284
1.000000 1.000000 1.000000
0.028046 0.983215 0.981262
0.028046 0.983215 0.981262
0.329865 0.997162 0.995239
0.849854 0.999054 0.997253
1.000000 1.000000 1.000000
