Assets/LUTs/Primal.cube
#Generated with IWLTBAP LUT Generator
#Website: http://luts.iwltbap.com
TITLE "yuh"
#LUT size
LUT_3D_SIZE 5
#LUT data points
0.074510 0.054902 0.070588
0.341176 0.047059 0.082353
0.925490 0.050980 0.086275
1.000000 0.050980 0.086275
1.000000 0.050980 0.086275
0.054902 0.380392 0.086275
0.368627 0.403922 0.090196
0.933333 0.443137 0.094118
1.000000 0.447059 0.094118
1.000000 0.447059 0.094118
0.070588 0.941176 0.094118
0.478431 0.945098 0.098039
0.952941 0.952941 0.101961
1.000000 0.952941 0.101961
1.000000 0.952941 0.101961
0.070588 1.000000 0.098039
0.490196 1.000000 0.098039
0.952941 1.000000 0.101961
1.000000 1.000000 0.105882
1.000000 1.000000 0.105882
0.070588 1.000000 0.098039
0.490196 1.000000 0.098039
0.952941 1.000000 0.101961
1.000000 1.000000 0.105882
1.000000 1.000000 0.105882
0.062745 0.050980 0.407843
0.337255 0.047059 0.462745
0.925490 0.050980 0.486275
1.000000 0.050980 0.490196
1.000000 0.050980 0.490196
0.054902 0.388235 0.478431
0.380392 0.411765 0.498039
0.937255 0.454902 0.521569
1.000000 0.458824 0.525490
1.000000 0.458824 0.525490
0.070588 0.941176 0.529412
0.494118 0.949020 0.549020
0.952941 0.952941 0.568627
1.000000 0.952941 0.568627
1.000000 0.952941 0.568627
0.074510 1.000000 0.537255
0.505882 1.000000 0.552941
0.952941 1.000000 0.572549
1.000000 1.000000 0.572549
1.000000 1.000000 0.572549
0.074510 1.000000 0.537255
0.505882 1.000000 0.552941
0.952941 1.000000 0.572549
1.000000 1.000000 0.572549
1.000000 1.000000 0.572549
0.054902 0.047059 0.937255
0.341176 0.047059 0.941176
0.929412 0.050980 0.945098
1.000000 0.054902 0.945098
1.000000 0.054902 0.945098
0.058824 0.400000 0.945098
0.396078 0.427451 0.949020
0.941176 0.470588 0.949020
1.000000 0.478431 0.952941
1.000000 0.478431 0.952941
0.074510 0.945098 0.952941
0.513725 0.949020 0.952941
0.956863 0.952941 0.956863
1.000000 0.956863 0.956863
1.000000 0.956863 0.956863
0.078431 1.000000 0.952941
0.525490 1.000000 0.952941
0.956863 1.000000 0.956863
1.000000 1.000000 0.956863
1.000000 1.000000 0.956863
0.078431 1.000000 0.952941
0.525490 1.000000 0.952941
0.956863 1.000000 0.956863
1.000000 1.000000 0.956863
1.000000 1.000000 0.956863
0.054902 0.047059 1.000000
0.341176 0.047059 1.000000
0.929412 0.050980 1.000000
1.000000 0.054902 1.000000
1.000000 0.054902 1.000000
0.058824 0.400000 1.000000
0.400000 0.427451 1.000000
0.941176 0.474510 1.000000
1.000000 0.478431 1.000000
1.000000 0.478431 1.000000
0.074510 0.945098 1.000000
0.513725 0.949020 1.000000
0.956863 0.952941 1.000000
1.000000 0.956863 1.000000
1.000000 0.956863 1.000000
0.078431 1.000000 1.000000
0.529412 1.000000 1.000000
0.956863 1.000000 1.000000
1.000000 1.000000 1.000000
1.000000 1.000000 1.000000
0.078431 1.000000 1.000000
0.529412 1.000000 1.000000
0.956863 1.000000 1.000000
1.000000 1.000000 1.000000
1.000000 1.000000 1.000000
0.054902 0.047059 1.000000
0.341176 0.047059 1.000000
0.929412 0.050980 1.000000
1.000000 0.054902 1.000000
1.000000 0.054902 1.000000
0.058824 0.400000 1.000000
0.400000 0.427451 1.000000
0.941176 0.474510 1.000000
1.000000 0.478431 1.000000
1.000000 0.478431 1.000000
0.074510 0.945098 1.000000
0.513725 0.949020 1.000000
0.956863 0.952941 1.000000
1.000000 0.956863 1.000000
1.000000 0.956863 1.000000
0.078431 1.000000 1.000000
0.529412 1.000000 1.000000
0.956863 1.000000 1.000000
1.000000 1.000000 1.000000
1.000000 1.000000 1.000000
0.078431 1.000000 1.000000
0.529412 1.000000 1.000000
0.956863 1.000000 1.000000
1.000000 1.000000 1.000000
1.000000 1.000000 1.000000
