Assets/LUTs/Prima.CUBE
#Created by: Adobe Photoshop Export Color Lookup Plugin
TITLE "PrimaColourAdjust.psd"
#LUT size
LUT_3D_SIZE 8
#data domain
#LUT data points
DOMAIN_MIN 0.000000 0.000000 0.000000
DOMAIN_MAX 0.903226 0.903226 0.903226
0.000000 0.000000 0.000000
0.139221 0.000122 0.000305
0.304016 0.000183 0.000275
0.468994 0.000305 0.000366
0.668610 0.000427 0.000427
0.912354 0.000549 0.000549
0.998108 0.000580 0.000580
0.998108 0.000580 0.000580
0.000702 0.144684 0.000183
0.125244 0.137451 0.000427
0.299164 0.109467 0.000641
0.467041 0.012238 0.001160
0.666351 0.000427 0.000427
0.910492 0.000580 0.000580
0.998108 0.000580 0.000580
0.998108 0.000580 0.000580
0.002563 0.336151 0.000031
0.059204 0.334045 0.000458
0.280304 0.324738 0.000763
0.457428 0.301636 0.000916
0.659882 0.250397 0.001190
0.905823 0.141632 0.001770
0.998108 0.000580 0.000580
0.998108 0.000580 0.000580
0.006042 0.533081 0.000031
0.005646 0.531891 0.000031
0.228119 0.528412 0.000793
0.435669 0.516571 0.001129
0.643341 0.493530 0.001343
0.891083 0.459351 0.001526
0.999603 0.424500 0.001617
0.999603 0.424500 0.001617
0.011749 0.801849 0.000031
0.011047 0.800873 0.000031
0.026215 0.795563 0.000031
0.390747 0.791809 0.001221
0.612671 0.772675 0.001587
0.864716 0.744995 0.001801
1.000000 0.718933 0.002869
1.000000 0.718933 0.002869
0.016937 0.987762 0.000031
0.016937 0.987762 0.000031
0.016937 0.987762 0.000031
0.308411 0.997681 0.001068
0.568024 0.998474 0.001678
0.826019 0.998749 0.001923
1.000000 0.997803 0.008270
1.000000 0.997803 0.008270
0.016937 0.987762 0.000031
0.016937 0.987762 0.000031
0.016937 0.987762 0.000031
0.169891 0.996643 0.000305
0.523163 0.998413 0.001648
0.787903 0.998779 0.001923
1.000000 0.997803 0.008270
1.000000 0.997803 0.008270
0.016937 0.987762 0.000031
0.016937 0.987762 0.000031
0.016937 0.987762 0.000031
0.169891 0.996643 0.000305
0.523163 0.998413 0.001648
0.787903 0.998779 0.001923
1.000000 0.997803 0.008270
1.000000 0.997803 0.008270
0.000031 0.000397 0.160706
0.139496 0.000214 0.155609
0.304138 0.000305 0.131470
0.469086 0.000336 0.056274
0.668610 0.000427 0.000427
0.912354 0.000549 0.000549
0.998108 0.000580 0.000580
0.998108 0.000580 0.000580
0.000763 0.144867 0.145325
0.125488 0.137451 0.138336
0.301910 0.097015 0.099213
0.468292 0.000336 0.000336
0.667847 0.000397 0.000397
0.911316 0.000549 0.000549
0.998108 0.000580 0.000580
0.998108 0.000580 0.000580
0.002045 0.336578 0.070587
0.020996 0.337616 0.012390
0.283112 0.328186 0.000763
0.459381 0.297302 0.000946
0.661255 0.240356 0.001190
0.906769 0.119751 0.001862
0.998108 0.000580 0.000580
0.998108 0.000580 0.000580
0.006042 0.533081 0.000031
0.005280 0.534485 0.000031
0.221405 0.530762 0.000793
0.437195 0.518646 0.001160
0.644562 0.491547 0.001373
0.891815 0.455444 0.001526
0.999725 0.419342 0.001648
0.999725 0.419342 0.001648
0.011749 0.801849 0.000031
0.012054 0.801910 0.000031
0.011627 0.797607 0.000031
0.388428 0.793427 0.001221
0.613586 0.774078 0.001617
0.865326 0.743408 0.001801
1.000000 0.716125 0.002777
1.000000 0.716125 0.002777
0.016937 0.987762 0.000031
0.016937 0.987762 0.000031
0.016937 0.987762 0.000031
0.303162 0.997589 0.001007
0.566681 0.998474 0.001678
0.826447 0.998779 0.001953
1.000000 0.997803 0.008270
1.000000 0.997803 0.008270
0.016937 0.987762 0.000031
0.016937 0.987762 0.000031
0.016937 0.987762 0.000031
0.155823 0.996490 0.000183
0.520996 0.998444 0.001648
0.786987 0.998718 0.001892
1.000000 0.997803 0.008270
1.000000 0.997803 0.008270
0.016937 0.987762 0.000031
0.016937 0.987762 0.000031
0.016937 0.987762 0.000031
0.155823 0.996490 0.000183
0.520996 0.998444 0.001648
0.786987 0.998718 0.001892
1.000000 0.997803 0.008270
1.000000 0.997803 0.008270
0.002747 0.000031 0.354279
0.139893 0.000153 0.357483
0.304443 0.000275 0.349426
0.469330 0.000397 0.329956
0.668823 0.000549 0.288300
0.912567 0.000641 0.208038
0.998199 0.000671 0.073578
0.998199 0.000671 0.073578
0.002777 0.144012 0.353577
0.111725 0.119812 0.356812
0.303833 0.085419 0.348450
0.468628 0.000427 0.319611
0.668121 0.000549 0.271606
0.911530 0.000641 0.179504
0.998108 0.000580 0.000580
0.998108 0.000580 0.000580
0.003204 0.336182 0.332275
0.022186 0.337250 0.333313
0.280609 0.324890 0.321289
0.461090 0.292053 0.289276
0.664154 0.217285 0.216644
0.910309 0.045074 0.051147
0.998108 0.000580 0.000580
0.998108 0.000580 0.000580
0.005920 0.533600 0.273651
0.005493 0.534760 0.263275
0.193604 0.535614 0.218170
0.440155 0.522430 0.172394
0.647125 0.487457 0.081146
0.893768 0.445618 0.001556
0.999603 0.405609 0.001587
0.999603 0.405609 0.001587
0.009949 0.804199 0.068756
0.010376 0.804565 0.008942
0.011353 0.802490 0.000031
0.380554 0.797760 0.001221
0.615936 0.777832 0.001617
0.866852 0.739624 0.001801
1.000000 0.708618 0.002655
1.000000 0.708618 0.002655
0.016937 0.987762 0.000031
0.016937 0.987762 0.000031
0.016937 0.987762 0.000031
0.284058 0.997589 0.000977
0.562561 0.998474 0.001678
0.827637 0.998779 0.001953
1.000000 0.997803 0.008270
1.000000 0.997803 0.008270
0.016937 0.987762 0.000031
0.016937 0.987762 0.000031
0.016937 0.987762 0.000031
0.100067 0.994476 0.000031
0.514191 0.998322 0.001587
0.784363 0.998779 0.001923
1.000000 0.997803 0.008270
1.000000 0.997803 0.008270
0.016937 0.987762 0.000031
0.016937 0.987762 0.000031
0.016937 0.987762 0.000031
0.100067 0.994476 0.000031
0.514191 0.998322 0.001587
0.784363 0.998779 0.001923
1.000000 0.997803 0.008270
1.000000 0.997803 0.008270
0.007111 0.000031 0.552368
0.141205 0.000031 0.566376
0.305115 0.000153 0.563232
0.469696 0.000427 0.552246
0.669189 0.000610 0.531769
0.912933 0.000763 0.501373
0.998596 0.000793 0.471405
0.998596 0.000793 0.471405
0.006226 0.142456 0.564117
0.110443 0.114716 0.567505
0.297455 0.082031 0.563507
0.469238 0.000397 0.551666
0.668457 0.000610 0.526367
0.911957 0.000763 0.494171
0.998596 0.000793 0.463104
0.998596 0.000793 0.463104
0.007507 0.334473 0.551697
0.024445 0.328339 0.553650
0.262543 0.302368 0.557648
0.464691 0.273102 0.545563
0.665161 0.210571 0.510223
0.912048 0.037415 0.474731
0.998535 0.000793 0.436188
0.998535 0.000793 0.436188
0.009308 0.532288 0.523224
0.009155 0.533386 0.524323
0.194885 0.535309 0.526031
0.436157 0.516724 0.508057
0.647797 0.486206 0.478760
0.895874 0.437225 0.431244
1.000000 0.389648 0.385101
1.000000 0.389648 0.385101
0.013397 0.802124 0.467072
0.012878 0.802765 0.463318
0.013458 0.802429 0.448395
0.362518 0.802490 0.415833
0.618652 0.781311 0.384216
0.868683 0.736908 0.356476
1.000000 0.701416 0.294067
1.000000 0.701416 0.294067
0.015442 0.990509 0.374176
0.016449 0.989899 0.365997
0.016022 0.990143 0.338257
0.241119 0.997498 0.270813
0.554749 0.998779 0.208038
0.830292 0.999695 0.039032
1.000000 0.997803 0.008270
1.000000 0.997803 0.008270
0.014862 0.990784 0.239197
0.014893 0.990784 0.221893
0.013672 0.991638 0.153473
0.016937 0.987762 0.000031
0.500854 0.998352 0.001587
0.778961 0.998718 0.001892
1.000000 0.997803 0.008270
1.000000 0.997803 0.008270
0.014862 0.990784 0.239197
0.014893 0.990784 0.221893
0.013672 0.991638 0.153473
0.016937 0.987762 0.000031
0.500854 0.998352 0.001587
0.778961 0.998718 0.001892
1.000000 0.997803 0.008270
1.000000 0.997803 0.008270
0.015350 0.000031 0.816132
0.143829 0.000031 0.857513
0.305939 0.000031 0.862396
0.470306 0.000336 0.854156
0.669678 0.000549 0.836609
0.913422 0.000793 0.811432
0.999084 0.000824 0.787323
0.999084 0.000824 0.787323
0.011963 0.140015 0.860596
0.112793 0.111969 0.865753
0.297028 0.080078 0.864105
0.466583 0.000305 0.853302
0.669006 0.000580 0.835846
0.912445 0.000763 0.807343
0.999084 0.000824 0.782043
0.999084 0.000824 0.782043
0.013153 0.332336 0.849457
0.030518 0.323151 0.850861
0.256592 0.292786 0.859589
0.453857 0.264557 0.850372
0.666901 0.196289 0.832367
0.913605 0.022125 0.798553
0.999023 0.000793 0.764526
0.999023 0.000793 0.764526
0.015961 0.529602 0.824432
0.015320 0.526886 0.825897
0.190643 0.519836 0.833801
0.418060 0.492035 0.832397
0.653625 0.465179 0.812897
0.897736 0.428619 0.765167
1.000000 0.384521 0.731445
1.000000 0.384521 0.731445
0.018951 0.799164 0.778625
0.018860 0.799561 0.778992
0.019562 0.799164 0.778656
0.363403 0.802277 0.782104
0.613647 0.772888 0.753967
0.868378 0.738983 0.721466
1.000000 0.703094 0.687317
1.000000 0.703094 0.687317
0.021576 0.987000 0.712646
0.021271 0.987244 0.710083
0.021881 0.986786 0.699829
0.242798 0.996826 0.687103
0.545776 0.998627 0.654297
0.831085 0.999084 0.624451
1.000000 0.997498 0.627502
1.000000 0.997498 0.627502
0.021027 0.987305 0.650513
0.020599 0.987549 0.646667
0.019989 0.987885 0.633362
0.019409 0.988251 0.605347
0.487427 0.998474 0.573486
0.774231 0.999023 0.543213
1.000000 0.997620 0.522736
1.000000 0.997620 0.522736
0.021027 0.987305 0.650513
0.020599 0.987549 0.646667
0.019989 0.987885 0.633362
0.019409 0.988251 0.605347
0.487427 0.998474 0.573486
0.774231 0.999023 0.543213
1.000000 0.997620 0.522736
1.000000 0.997620 0.522736
0.019073 0.000031 0.926270
0.145172 0.000031 0.980591
0.306396 0.000031 0.992981
0.470551 0.000214 0.994629
0.670105 0.000580 0.995148
0.913757 0.000763 0.995331
0.999390 0.000793 0.995453
0.999390 0.000793 0.995453
0.015808 0.138031 0.987274
0.113129 0.111176 0.992645
0.296814 0.079498 0.995575
0.465698 0.000214 0.994629
0.667023 0.000549 0.995117
0.912720 0.000763 0.995331
0.999390 0.000793 0.995453
0.999390 0.000793 0.995453
0.016449 0.330963 0.986755
0.033661 0.320801 0.986938
0.254272 0.288910 0.994598
0.449493 0.260925 0.995789
0.659088 0.193115 0.996796
0.910339 0.001740 0.996796
0.999390 0.000793 0.995453
0.999390 0.000793 0.995453
0.019531 0.528198 0.985413
0.019196 0.523651 0.985596
0.189026 0.513580 0.993896
0.409332 0.479858 0.995728
0.636688 0.453979 0.996399
0.899872 0.413788 0.996948
1.000000 0.376221 0.995880
1.000000 0.376221 0.995880
0.025391 0.795532 0.982513
0.024475 0.793579 0.983063
0.024536 0.784790 0.983002
0.355804 0.777069 0.995544
0.596527 0.745850 0.996582
0.874023 0.715210 0.997040
1.000000 0.690369 0.995575
1.000000 0.690369 0.995575
0.028046 0.983215 0.981262
0.028046 0.983215 0.981262
0.028046 0.983215 0.981262
0.244141 0.996246 0.994232
0.546387 0.998474 0.996552
0.827545 0.999023 0.997192
1.000000 1.000000 1.000000
1.000000 1.000000 1.000000
0.028046 0.983215 0.981262
0.028046 0.983215 0.981262
0.028046 0.983215 0.981262
0.028046 0.983215 0.981262
0.488190 0.998230 0.996338
0.777222 0.998932 0.982880
1.000000 0.997986 0.974091
1.000000 0.997986 0.974091
0.028046 0.983215 0.981262
0.028046 0.983215 0.981262
0.028046 0.983215 0.981262
0.028046 0.983215 0.981262
0.488190 0.998230 0.996338
0.777222 0.998932 0.982880
1.000000 0.997986 0.974091
1.000000 0.997986 0.974091
0.019073 0.000031 0.926270
0.145416 0.000031 0.979889
0.306274 0.000031 0.992798
0.470642 0.000244 0.994659
0.670013 0.000549 0.995117
0.913818 0.000793 0.995422
0.999390 0.000793 0.995453
0.999390 0.000793 0.995453
0.016083 0.138062 0.987152
0.113190 0.110809 0.992706
0.296356 0.079468 0.995575
0.465332 0.000214 0.994629
0.666382 0.000580 0.995148
0.911713 0.000763 0.995331
0.999390 0.000793 0.995453
0.999390 0.000793 0.995453
0.017059 0.330841 0.986481
0.033844 0.320404 0.986786
0.253052 0.287476 0.994598
0.447723 0.259369 0.995789
0.655701 0.192047 0.996582
0.905273 0.001617 0.996552
0.999390 0.000793 0.995453
0.999390 0.000793 0.995453
0.019531 0.528198 0.985413
0.020233 0.522919 0.985107
0.188416 0.510956 0.993713
0.405457 0.474976 0.995697
0.629547 0.449280 0.996490
0.888367 0.409515 0.996948
1.000000 0.367035 0.995911
1.000000 0.367035 0.995911
0.025208 0.795685 0.982635
0.024200 0.792389 0.983215
0.024109 0.780670 0.983215
0.352356 0.766785 0.995483
0.586945 0.731293 0.996552
0.857147 0.701508 0.997040
1.000000 0.674042 0.995544
1.000000 0.674042 0.995544
0.028046 0.983215 0.981262
0.028046 0.983215 0.981262
0.028046 0.983215 0.981262
0.241547 0.996155 0.994171
0.538147 0.998444 0.996521
0.817688 0.998993 0.997162
1.000000 1.000000 1.000000
1.000000 1.000000 1.000000
0.028046 0.983215 0.981262
0.028046 0.983215 0.981262
0.028046 0.983215 0.981262
0.028046 0.983215 0.981262
0.488190 0.998230 0.996338
0.777222 0.998932 0.997101
1.000000 1.000000 1.000000
1.000000 1.000000 1.000000
0.028046 0.983215 0.981262
0.028046 0.983215 0.981262
0.028046 0.983215 0.981262
0.028046 0.983215 0.981262
0.488190 0.998230 0.996338
0.777222 0.998932 0.997101
1.000000 1.000000 1.000000
1.000000 1.000000 1.000000
0.019073 0.000031 0.926270
0.145416 0.000031 0.979889
0.306274 0.000031 0.992798
0.470642 0.000244 0.994659
0.670013 0.000549 0.995117
0.913818 0.000793 0.995422
0.999390 0.000793 0.995453
0.999390 0.000793 0.995453
0.016083 0.138062 0.987152
0.113190 0.110809 0.992706
0.296356 0.079468 0.995575
0.465332 0.000214 0.994629
0.666382 0.000580 0.995148
0.911713 0.000763 0.995331
0.999390 0.000793 0.995453
0.999390 0.000793 0.995453
0.017059 0.330841 0.986481
0.033844 0.320404 0.986786
0.253052 0.287476 0.994598
0.447723 0.259369 0.995789
0.655701 0.192047 0.996582
0.905273 0.001617 0.996552
0.999390 0.000793 0.995453
0.999390 0.000793 0.995453
0.019531 0.528198 0.985413
0.020233 0.522919 0.985107
0.188416 0.510956 0.993713
0.405457 0.474976 0.995697
0.629547 0.449280 0.996490
0.888367 0.409515 0.996948
1.000000 0.367035 0.995911
1.000000 0.367035 0.995911
0.025208 0.795685 0.982635
0.024200 0.792389 0.983215
0.024109 0.780670 0.983215
0.352356 0.766785 0.995483
0.586945 0.731293 0.996552
0.857147 0.701508 0.997040
1.000000 0.674042 0.995544
1.000000 0.674042 0.995544
0.028046 0.983215 0.981262
0.028046 0.983215 0.981262
0.028046 0.983215 0.981262
0.241547 0.996155 0.994171
0.538147 0.998444 0.996521
0.817688 0.998993 0.997162
1.000000 1.000000 1.000000
1.000000 1.000000 1.000000
0.028046 0.983215 0.981262
0.028046 0.983215 0.981262
0.028046 0.983215 0.981262
0.028046 0.983215 0.981262
0.488190 0.998230 0.996338
0.777222 0.998932 0.997101
1.000000 1.000000 1.000000
1.000000 1.000000 1.000000
0.028046 0.983215 0.981262
0.028046 0.983215 0.981262
0.028046 0.983215 0.981262
0.028046 0.983215 0.981262
0.488190 0.998230 0.996338
0.777222 0.998932 0.997101
1.000000 1.000000 1.000000
1.000000 1.000000 1.000000
