Assets/LUTs/Primal.cube
#Generated with IWLTBAP LUT Generator
#Website: http://luts.iwltbap.com
TITLE "yuh"
#LUT size
LUT_3D_SIZE 25
#LUT data points
0.074510 0.054902 0.070588
0.090196 0.054902 0.070588
0.129412 0.050980 0.070588
0.172549 0.050980 0.074510
0.227451 0.050980 0.074510
0.282353 0.047059 0.078431
0.341176 0.047059 0.082353
0.431373 0.047059 0.082353
0.556863 0.047059 0.086275
0.678431 0.047059 0.086275
0.784314 0.047059 0.086275
0.866667 0.050980 0.086275
0.925490 0.050980 0.086275
0.960784 0.050980 0.086275
0.988235 0.050980 0.086275
1.000000 0.050980 0.086275
1.000000 0.050980 0.086275
1.000000 0.050980 0.086275
1.000000 0.050980 0.086275
1.000000 0.050980 0.086275
1.000000 0.050980 0.086275
1.000000 0.050980 0.086275
1.000000 0.050980 0.086275
1.000000 0.050980 0.086275
1.000000 0.050980 0.086275
0.070588 0.070588 0.070588
0.086275 0.070588 0.070588
0.121569 0.070588 0.074510
0.168627 0.066667 0.074510
0.219608 0.066667 0.078431
0.274510 0.062745 0.078431
0.337255 0.062745 0.082353
0.431373 0.062745 0.086275
0.560784 0.066667 0.086275
0.678431 0.066667 0.086275
0.784314 0.066667 0.086275
0.866667 0.066667 0.086275
0.925490 0.066667 0.086275
0.960784 0.066667 0.086275
0.988235 0.066667 0.090196
1.000000 0.066667 0.090196
1.000000 0.066667 0.090196
1.000000 0.066667 0.090196
1.000000 0.066667 0.090196
1.000000 0.066667 0.090196
1.000000 0.066667 0.090196
1.000000 0.066667 0.090196
1.000000 0.066667 0.090196
1.000000 0.066667 0.090196
1.000000 0.066667 0.090196
0.066667 0.105882 0.074510
0.082353 0.105882 0.074510
0.113725 0.105882 0.074510
0.156863 0.101961 0.078431
0.207843 0.101961 0.078431
0.266667 0.101961 0.082353
0.337255 0.101961 0.082353
0.435294 0.101961 0.086275
0.560784 0.101961 0.086275
0.682353 0.101961 0.086275
0.788235 0.105882 0.086275
0.870588 0.105882 0.086275
0.925490 0.105882 0.090196
0.964706 0.105882 0.090196
0.988235 0.105882 0.090196
1.000000 0.105882 0.090196
1.000000 0.105882 0.090196
1.000000 0.105882 0.090196
1.000000 0.105882 0.090196
1.000000 0.105882 0.090196
1.000000 0.105882 0.090196
1.000000 0.105882 0.090196
1.000000 0.105882 0.090196
1.000000 0.105882 0.090196
1.000000 0.105882 0.090196
0.058824 0.152941 0.078431
0.074510 0.152941 0.078431
0.105882 0.149020 0.078431
0.145098 0.149020 0.082353
0.196078 0.149020 0.082353
0.262745 0.149020 0.086275
0.337255 0.152941 0.086275
0.439216 0.152941 0.086275
0.564706 0.152941 0.086275
0.686275 0.156863 0.086275
0.792157 0.156863 0.090196
0.870588 0.160784 0.090196
0.929412 0.160784 0.090196
0.964706 0.160784 0.090196
0.988235 0.164706 0.090196
1.000000 0.164706 0.090196
1.000000 0.164706 0.090196
1.000000 0.164706 0.090196
1.000000 0.164706 0.090196
1.000000 0.164706 0.090196
1.000000 0.164706 0.090196
1.000000 0.164706 0.090196
1.000000 0.164706 0.090196
1.000000 0.164706 0.090196
1.000000 0.164706 0.090196
0.054902 0.211765 0.082353
0.066667 0.211765 0.082353
0.098039 0.211765 0.082353
0.141176 0.211765 0.086275
0.196078 0.215686 0.086275
0.266667 0.215686 0.086275
0.341176 0.219608 0.086275
0.447059 0.219608 0.086275
0.572549 0.223529 0.086275
0.690196 0.227451 0.090196
0.796078 0.231373 0.090196
0.874510 0.235294 0.090196
0.929412 0.235294 0.090196
0.964706 0.239216 0.090196
0.988235 0.239216 0.090196
1.000000 0.239216 0.090196
1.000000 0.239216 0.090196
1.000000 0.239216 0.090196
1.000000 0.239216 0.090196
1.000000 0.239216 0.090196
1.000000 0.239216 0.090196
1.000000 0.239216 0.090196
1.000000 0.239216 0.090196
1.000000 0.239216 0.090196
1.000000 0.239216 0.090196
0.054902 0.290196 0.086275
0.066667 0.290196 0.086275
0.098039 0.290196 0.086275
0.145098 0.294118 0.086275
0.200000 0.294118 0.086275
0.270588 0.298039 0.086275
0.352941 0.301961 0.086275
0.458824 0.305882 0.090196
0.584314 0.313725 0.090196
0.701961 0.317647 0.090196
0.800000 0.321569 0.090196
0.878431 0.329412 0.090196
0.933333 0.329412 0.094118
0.964706 0.333333 0.094118
0.988235 0.333333 0.094118
1.000000 0.333333 0.094118
1.000000 0.333333 0.094118
1.000000 0.333333 0.094118
1.000000 0.333333 0.094118
1.000000 0.333333 0.094118
1.000000 0.333333 0.094118
1.000000 0.333333 0.094118
1.000000 0.333333 0.094118
1.000000 0.333333 0.094118
1.000000 0.333333 0.094118
0.054902 0.380392 0.086275
0.070588 0.380392 0.086275
0.101961 0.384314 0.086275
0.149020 0.388235 0.086275
0.207843 0.392157 0.086275
0.282353 0.396078 0.090196
0.368627 0.403922 0.090196
0.474510 0.411765 0.090196
0.600000 0.419608 0.090196
0.713725 0.427451 0.094118
0.807843 0.431373 0.094118
0.886275 0.439216 0.094118
0.933333 0.443137 0.094118
0.968627 0.447059 0.094118
0.988235 0.447059 0.094118
1.000000 0.447059 0.094118
1.000000 0.447059 0.094118
1.000000 0.447059 0.094118
1.000000 0.447059 0.094118
1.000000 0.447059 0.094118
1.000000 0.447059 0.094118
1.000000 0.447059 0.094118
1.000000 0.447059 0.094118
1.000000 0.447059 0.094118
1.000000 0.447059 0.094118
0.054902 0.490196 0.086275
0.070588 0.494118 0.090196
0.105882 0.494118 0.090196
0.152941 0.498039 0.090196
0.215686 0.505882 0.090196
0.294118 0.509804 0.090196
0.384314 0.517647 0.090196
0.494118 0.529412 0.094118
0.615686 0.537255 0.094118
0.725490 0.545098 0.094118
0.819608 0.552941 0.094118
0.890196 0.560784 0.094118
0.937255 0.564706 0.098039
0.968627 0.568627 0.098039
0.988235 0.572549 0.098039
1.000000 0.572549 0.098039
1.000000 0.572549 0.098039
1.000000 0.572549 0.098039
1.000000 0.572549 0.098039
1.000000 0.572549 0.098039
1.000000 0.572549 0.098039
1.000000 0.572549 0.098039
1.000000 0.572549 0.098039
1.000000 0.572549 0.098039
1.000000 0.572549 0.098039
0.058824 0.615686 0.090196
0.074510 0.615686 0.090196
0.109804 0.619608 0.090196
0.160784 0.623529 0.090196
0.227451 0.627451 0.090196
0.309804 0.631373 0.094118
0.407843 0.639216 0.094118
0.517647 0.647059 0.094118
0.635294 0.654902 0.094118
0.741176 0.662745 0.098039
0.827451 0.666667 0.098039
0.898039 0.674510 0.098039
0.941176 0.678431 0.098039
0.972549 0.678431 0.098039
0.992157 0.682353 0.098039
1.000000 0.682353 0.098039
1.000000 0.682353 0.098039
1.000000 0.682353 0.098039
1.000000 0.682353 0.098039
1.000000 0.682353 0.098039
1.000000 0.682353 0.098039
1.000000 0.682353 0.098039
1.000000 0.682353 0.098039
1.000000 0.682353 0.098039
1.000000 0.682353 0.098039
0.062745 0.725490 0.090196
0.078431 0.729412 0.090196
0.117647 0.729412 0.094118
0.168627 0.733333 0.094118
0.239216 0.737255 0.094118
0.329412 0.741176 0.094118
0.427451 0.745098 0.094118
0.541176 0.752941 0.098039
0.650980 0.756863 0.098039
0.752941 0.764706 0.098039
0.839216 0.768627 0.098039
0.901961 0.772549 0.098039
0.945098 0.772549 0.098039
0.972549 0.776471 0.101961
0.992157 0.776471 0.101961
1.000000 0.776471 0.101961
1.000000 0.776471 0.101961
1.000000 0.776471 0.101961
1.000000 0.776471 0.101961
1.000000 0.776471 0.101961
1.000000 0.776471 0.101961
1.000000 0.776471 0.101961
1.000000 0.776471 0.101961
1.000000 0.776471 0.101961
1.000000 0.776471 0.101961
0.066667 0.823529 0.094118
0.082353 0.823529 0.094118
0.121569 0.823529 0.094118
0.176471 0.827451 0.094118
0.250980 0.827451 0.094118
0.345098 0.831373 0.094118
0.450980 0.835294 0.098039
0.564706 0.839216 0.098039
0.670588 0.843137 0.098039
0.764706 0.847059 0.098039
0.847059 0.850980 0.101961
0.905882 0.850980 0.101961
0.949020 0.854902 0.101961
0.972549 0.854902 0.101961
0.992157 0.854902 0.101961
1.000000 0.854902 0.101961
1.000000 0.854902 0.101961
1.000000 0.854902 0.101961
1.000000 0.854902 0.101961
1.000000 0.854902 0.101961
1.000000 0.854902 0.101961
1.000000 0.854902 0.101961
1.000000 0.854902 0.101961
1.000000 0.854902 0.101961
1.000000 0.854902 0.101961
0.066667 0.894118 0.094118
0.086275 0.894118 0.094118
0.125490 0.894118 0.094118
0.184314 0.894118 0.094118
0.262745 0.898039 0.098039
0.356863 0.898039 0.098039
0.466667 0.901961 0.098039
0.580392 0.905882 0.098039
0.682353 0.905882 0.098039
0.772549 0.909804 0.101961
0.850980 0.909804 0.101961
0.909804 0.913725 0.101961
0.949020 0.913725 0.101961
0.976471 0.913725 0.101961
0.992157 0.913725 0.101961
1.000000 0.913725 0.101961
1.000000 0.913725 0.101961
1.000000 0.913725 0.101961
1.000000 0.913725 0.101961
1.000000 0.913725 0.101961
1.000000 0.913725 0.101961
1.000000 0.913725 0.101961
1.000000 0.913725 0.101961
1.000000 0.913725 0.101961
1.000000 0.913725 0.101961
0.070588 0.941176 0.094118
0.090196 0.941176 0.094118
0.129412 0.941176 0.098039
0.188235 0.941176 0.098039
0.266667 0.941176 0.098039
0.364706 0.945098 0.098039
0.478431 0.945098 0.098039
0.592157 0.945098 0.098039
0.690196 0.949020 0.101961
0.780392 0.949020 0.101961
0.854902 0.949020 0.101961
0.913725 0.952941 0.101961
0.952941 0.952941 0.101961
0.976471 0.952941 0.101961
0.992157 0.952941 0.101961
1.000000 0.952941 0.101961
1.000000 0.952941 0.101961
1.000000 0.952941 0.101961
1.000000 0.952941 0.101961
1.000000 0.952941 0.101961
1.000000 0.952941 0.101961
1.000000 0.952941 0.101961
1.000000 0.952941 0.101961
1.000000 0.952941 0.101961
1.000000 0.952941 0.101961
0.070588 0.972549 0.098039
0.090196 0.972549 0.098039
0.133333 0.972549 0.098039
0.192157 0.972549 0.098039
0.270588 0.972549 0.098039
0.368627 0.972549 0.098039
0.482353 0.972549 0.098039
0.600000 0.972549 0.101961
0.698039 0.976471 0.101961
0.784314 0.976471 0.101961
0.858824 0.976471 0.101961
0.913725 0.976471 0.101961
0.952941 0.976471 0.101961
0.976471 0.976471 0.101961
0.992157 0.976471 0.101961
1.000000 0.976471 0.101961
1.000000 0.976471 0.101961
1.000000 0.976471 0.101961
1.000000 0.976471 0.101961
1.000000 0.976471 0.101961
1.000000 0.976471 0.101961
1.000000 0.976471 0.101961
1.000000 0.976471 0.101961
1.000000 0.976471 0.101961
1.000000 0.976471 0.101961
0.070588 0.988235 0.098039
0.090196 0.988235 0.098039
0.133333 0.992157 0.098039
0.196078 0.992157 0.098039
0.274510 0.992157 0.098039
0.372549 0.992157 0.098039
0.490196 0.992157 0.098039
0.603922 0.992157 0.101961
0.698039 0.992157 0.101961
0.788235 0.992157 0.101961
0.858824 0.992157 0.101961
0.913725 0.992157 0.101961
0.952941 0.992157 0.101961
0.976471 0.992157 0.101961
0.992157 0.992157 0.101961
1.000000 0.992157 0.101961
1.000000 0.992157 0.101961
1.000000 0.992157 0.101961
1.000000 0.992157 0.101961
1.000000 0.992157 0.101961
1.000000 0.992157 0.101961
1.000000 0.992157 0.101961
1.000000 0.992157 0.101961
1.000000 0.992157 0.101961
1.000000 0.992157 0.101961
0.070588 1.000000 0.098039
0.090196 1.000000 0.098039
0.133333 1.000000 0.098039
0.196078 1.000000 0.098039
0.278431 1.000000 0.098039
0.376471 1.000000 0.098039
0.490196 1.000000 0.098039
0.607843 1.000000 0.101961
0.701961 1.000000 0.101961
0.788235 1.000000 0.101961
0.858824 1.000000 0.101961
0.917647 1.000000 0.101961
0.952941 1.000000 0.101961
0.976471 1.000000 0.101961
0.992157 1.000000 0.105882
1.000000 1.000000 0.105882
1.000000 1.000000 0.105882
1.000000 1.000000 0.105882
1.000000 1.000000 0.105882
1.000000 1.000000 0.105882
1.000000 1.000000 0.105882
1.000000 1.000000 0.105882
1.000000 1.000000 0.105882
1.000000 1.000000 0.105882
1.000000 1.000000 0.105882
0.070588 1.000000 0.098039
0.090196 1.000000 0.098039
0.133333 1.000000 0.098039
0.196078 1.000000 0.098039
0.278431 1.000000 0.098039
0.376471 1.000000 0.098039
0.490196 1.000000 0.098039
0.607843 1.000000 0.101961
0.701961 1.000000 0.101961
0.788235 1.000000 0.101961
0.858824 1.000000 0.101961
0.917647 1.000000 0.101961
0.952941 1.000000 0.101961
0.976471 1.000000 0.101961
0.992157 1.000000 0.105882
1.000000 1.000000 0.105882
1.000000 1.000000 0.105882
1.000000 1.000000 0.105882
1.000000 1.000000 0.105882
1.000000 1.000000 0.105882
1.000000 1.000000 0.105882
1.000000 1.000000 0.105882
1.000000 1.000000 0.105882
1.000000 1.000000 0.105882
1.000000 1.000000 0.105882
0.070588 1.000000 0.098039
0.090196 1.000000 0.098039
0.133333 1.000000 0.098039
0.196078 1.000000 0.098039
0.278431 1.000000 0.098039
0.376471 1.000000 0.098039
0.490196 1.000000 0.098039
0.607843 1.000000 0.101961
0.701961 1.000000 0.101961
0.788235 1.000000 0.101961
0.858824 1.000000 0.101961
0.917647 1.000000 0.101961
0.952941 1.000000 0.101961
0.976471 1.000000 0.101961
0.992157 1.000000 0.105882
1.000000 1.000000 0.105882
1.000000 1.000000 0.105882
1.000000 1.000000 0.105882
1.000000 1.000000 0.105882
1.000000 1.000000 0.105882
1.000000 1.000000 0.105882
1.000000 1.000000 0.105882
1.000000 1.000000 0.105882
1.000000 1.000000 0.105882
1.000000 1.000000 0.105882
0.070588 1.000000 0.098039
0.090196 1.000000 0.098039
0.133333 1.000000 0.098039
0.196078 1.000000 0.098039
0.278431 1.000000 0.098039
0.376471 1.000000 0.098039
0.490196 1.000000 0.098039
0.607843 1.000000 0.101961
0.701961 1.000000 0.101961
0.788235 1.000000 0.101961
0.858824 1.000000 0.101961
0.917647 1.000000 0.101961
0.952941 1.000000 0.101961
0.976471 1.000000 0.101961
0.992157 1.000000 0.105882
1.000000 1.000000 0.105882
1.000000 1.000000 0.105882
1.000000 1.000000 0.105882
1.000000 1.000000 0.105882
1.000000 1.000000 0.105882
1.000000 1.000000 0.105882
1.000000 1.000000 0.105882
1.000000 1.000000 0.105882
1.000000 1.000000 0.105882
1.000000 1.000000 0.105882
0.070588 1.000000 0.098039
0.090196 1.000000 0.098039
0.133333 1.000000 0.098039
0.196078 1.000000 0.098039
0.278431 1.000000 0.098039
0.376471 1.000000 0.098039
0.490196 1.000000 0.098039
0.607843 1.000000 0.101961
0.701961 1.000000 0.101961
0.788235 1.000000 0.101961
0.858824 1.000000 0.101961
0.917647 1.000000 0.101961
0.952941 1.000000 0.101961
0.976471 1.000000 0.101961
0.992157 1.000000 0.105882
1.000000 1.000000 0.105882
1.000000 1.000000 0.105882
1.000000 1.000000 0.105882
1.000000 1.000000 0.105882
1.000000 1.000000 0.105882
1.000000 1.000000 0.105882
1.000000 1.000000 0.105882
1.000000 1.000000 0.105882
1.000000 1.000000 0.105882
1.000000 1.000000 0.105882
0.070588 1.000000 0.098039
0.090196 1.000000 0.098039
0.133333 1.000000 0.098039
0.196078 1.000000 0.098039
0.278431 1.000000 0.098039
0.376471 1.000000 0.098039
0.490196 1.000000 0.098039
0.607843 1.000000 0.101961
0.701961 1.000000 0.101961
0.788235 1.000000 0.101961
0.858824 1.000000 0.101961
0.917647 1.000000 0.101961
0.952941 1.000000 0.101961
0.976471 1.000000 0.101961
0.992157 1.000000 0.105882
1.000000 1.000000 0.105882
1.000000 1.000000 0.105882
1.000000 1.000000 0.105882
1.000000 1.000000 0.105882
1.000000 1.000000 0.105882
1.000000 1.000000 0.105882
1.000000 1.000000 0.105882
1.000000 1.000000 0.105882
1.000000 1.000000 0.105882
1.000000 1.000000 0.105882
0.070588 1.000000 0.098039
0.090196 1.000000 0.098039
0.133333 1.000000 0.098039
0.196078 1.000000 0.098039
0.278431 1.000000 0.098039
0.376471 1.000000 0.098039
0.490196 1.000000 0.098039
0.607843 1.000000 0.101961
0.701961 1.000000 0.101961
0.788235 1.000000 0.101961
0.858824 1.000000 0.101961
0.917647 1.000000 0.101961
0.952941 1.000000 0.101961
0.976471 1.000000 0.101961
0.992157 1.000000 0.105882
1.000000 1.000000 0.105882
1.000000 1.000000 0.105882
1.000000 1.000000 0.105882
1.000000 1.000000 0.105882
1.000000 1.000000 0.105882
1.000000 1.000000 0.105882
1.000000 1.000000 0.105882
1.000000 1.000000 0.105882
1.000000 1.000000 0.105882
1.000000 1.000000 0.105882
0.070588 1.000000 0.098039
0.090196 1.000000 0.098039
0.133333 1.000000 0.098039
0.196078 1.000000 0.098039
0.278431 1.000000 0.098039
0.376471 1.000000 0.098039
0.490196 1.000000 0.098039
0.607843 1.000000 0.101961
0.701961 1.000000 0.101961
0.788235 1.000000 0.101961
0.858824 1.000000 0.101961
0.917647 1.000000 0.101961
0.952941 1.000000 0.101961
0.976471 1.000000 0.101961
0.992157 1.000000 0.105882
1.000000 1.000000 0.105882
1.000000 1.000000 0.105882
1.000000 1.000000 0.105882
1.000000 1.000000 0.105882
1.000000 1.000000 0.105882
1.000000 1.000000 0.105882
1.000000 1.000000 0.105882
1.000000 1.000000 0.105882
1.000000 1.000000 0.105882
1.000000 1.000000 0.105882
0.070588 1.000000 0.098039
0.090196 1.000000 0.098039
0.133333 1.000000 0.098039
0.196078 1.000000 0.098039
0.278431 1.000000 0.098039
0.376471 1.000000 0.098039
0.490196 1.000000 0.098039
0.607843 1.000000 0.101961
0.701961 1.000000 0.101961
0.788235 1.000000 0.101961
0.858824 1.000000 0.101961
0.917647 1.000000 0.101961
0.952941 1.000000 0.101961
0.976471 1.000000 0.101961
0.992157 1.000000 0.105882
1.000000 1.000000 0.105882
1.000000 1.000000 0.105882
1.000000 1.000000 0.105882
1.000000 1.000000 0.105882
1.000000 1.000000 0.105882
1.000000 1.000000 0.105882
1.000000 1.000000 0.105882
1.000000 1.000000 0.105882
1.000000 1.000000 0.105882
1.000000 1.000000 0.105882
0.070588 1.000000 0.098039
0.090196 1.000000 0.098039
0.133333 1.000000 0.098039
0.196078 1.000000 0.098039
0.278431 1.000000 0.098039
0.376471 1.000000 0.098039
0.490196 1.000000 0.098039
0.607843 1.000000 0.101961
0.701961 1.000000 0.101961
0.788235 1.000000 0.101961
0.858824 1.000000 0.101961
0.917647 1.000000 0.101961
0.952941 1.000000 0.101961
0.976471 1.000000 0.101961
0.992157 1.000000 0.105882
1.000000 1.000000 0.105882
1.000000 1.000000 0.105882
1.000000 1.000000 0.105882
1.000000 1.000000 0.105882
1.000000 1.000000 0.105882
1.000000 1.000000 0.105882
1.000000 1.000000 0.105882
1.000000 1.000000 0.105882
1.000000 1.000000 0.105882
1.000000 1.000000 0.105882
0.074510 0.054902 0.086275
0.090196 0.054902 0.086275
0.129412 0.050980 0.090196
0.172549 0.050980 0.090196
0.223529 0.050980 0.094118
0.282353 0.047059 0.098039
0.341176 0.047059 0.101961
0.431373 0.047059 0.101961
0.556863 0.047059 0.105882
0.678431 0.047059 0.105882
0.784314 0.050980 0.105882
0.866667 0.050980 0.105882
0.925490 0.050980 0.105882
0.960784 0.050980 0.109804
0.988235 0.050980 0.109804
1.000000 0.050980 0.109804
1.000000 0.050980 0.109804
1.000000 0.050980 0.109804
1.000000 0.050980 0.109804
1.000000 0.050980 0.109804
1.000000 0.050980 0.109804
1.000000 0.050980 0.109804
1.000000 0.050980 0.109804
1.000000 0.050980 0.109804
1.000000 0.050980 0.109804
0.070588 0.070588 0.086275
0.086275 0.070588 0.090196
0.121569 0.070588 0.090196
0.168627 0.066667 0.094118
0.219608 0.066667 0.094118
0.274510 0.062745 0.098039
0.337255 0.062745 0.101961
0.431373 0.062745 0.105882
0.560784 0.066667 0.105882
0.678431 0.066667 0.105882
0.784314 0.066667 0.105882
0.870588 0.066667 0.105882
0.925490 0.066667 0.109804
0.960784 0.066667 0.109804
0.988235 0.066667 0.109804
1.000000 0.066667 0.109804
1.000000 0.066667 0.109804
1.000000 0.066667 0.109804
1.000000 0.066667 0.109804
1.000000 0.066667 0.109804
1.000000 0.066667 0.109804
1.000000 0.066667 0.109804
1.000000 0.066667 0.109804
1.000000 0.066667 0.109804
1.000000 0.066667 0.109804
0.066667 0.105882 0.090196
0.082353 0.105882 0.090196
0.113725 0.105882 0.094118
0.156863 0.101961 0.094118
0.207843 0.101961 0.098039
0.262745 0.101961 0.101961
0.337255 0.101961 0.101961
0.435294 0.101961 0.105882
0.560784 0.101961 0.105882
0.682353 0.101961 0.105882
0.788235 0.105882 0.105882
0.870588 0.105882 0.109804
0.925490 0.105882 0.109804
0.964706 0.105882 0.109804
0.988235 0.105882 0.109804
1.000000 0.105882 0.109804
1.000000 0.105882 0.109804
1.000000 0.105882 0.109804
1.000000 0.105882 0.109804
1.000000 0.105882 0.109804
1.000000 0.105882 0.109804
1.000000 0.105882 0.109804
1.000000 0.105882 0.109804
1.000000 0.105882 0.109804
1.000000 0.105882 0.109804
0.058824 0.152941 0.094118
0.074510 0.152941 0.094118
0.105882 0.149020 0.098039
0.145098 0.149020 0.098039
0.196078 0.149020 0.101961
0.262745 0.149020 0.101961
0.337255 0.152941 0.105882
0.439216 0.152941 0.105882
0.564706 0.152941 0.105882
0.686275 0.156863 0.109804
0.792157 0.156863 0.109804
0.870588 0.160784 0.109804
0.929412 0.160784 0.109804
0.964706 0.160784 0.109804
0.988235 0.164706 0.109804
1.000000 0.164706 0.109804
1.000000 0.164706 0.109804
1.000000 0.164706 0.109804
1.000000 0.164706 0.109804
1.000000 0.164706 0.109804
1.000000 0.164706 0.109804
1.000000 0.164706 0.109804
1.000000 0.164706 0.109804
1.000000 0.164706 0.109804
1.000000 0.164706 0.109804
0.054902 0.211765 0.101961
0.066667 0.211765 0.101961
0.098039 0.211765 0.101961
0.141176 0.215686 0.101961
0.200000 0.215686 0.105882
0.266667 0.215686 0.105882
0.345098 0.219608 0.105882
0.447059 0.223529 0.105882
0.572549 0.223529 0.109804
0.694118 0.227451 0.109804
0.796078 0.231373 0.109804
0.874510 0.235294 0.109804
0.929412 0.235294 0.113725
0.964706 0.239216 0.113725
0.988235 0.239216 0.113725
1.000000 0.239216 0.113725
1.000000 0.239216 0.113725
1.000000 0.239216 0.113725
1.000000 0.239216 0.113725
1.000000 0.239216 0.113725
1.000000 0.239216 0.113725
1.000000 0.239216 0.113725
1.000000 0.239216 0.113725
1.000000 0.239216 0.113725
1.000000 0.239216 0.113725
0.054902 0.290196 0.105882
0.066667 0.290196 0.105882
0.098039 0.290196 0.105882
0.145098 0.294118 0.105882
0.200000 0.294118 0.105882
0.270588 0.298039 0.105882
0.352941 0.301961 0.109804
0.458824 0.309804 0.109804
0.584314 0.313725 0.109804
0.701961 0.317647 0.109804
0.800000 0.325490 0.113725
0.878431 0.329412 0.113725
0.933333 0.329412 0.113725
0.964706 0.333333 0.113725
0.988235 0.333333 0.113725
1.000000 0.333333 0.113725
1.000000 0.333333 0.113725
1.000000 0.333333 0.113725
1.000000 0.333333 0.113725
1.000000 0.333333 0.113725
1.000000 0.333333 0.113725
1.000000 0.333333 0.113725
1.000000 0.333333 0.113725
1.000000 0.333333 0.113725
1.000000 0.333333 0.113725
0.054902 0.380392 0.105882
0.070588 0.380392 0.105882
0.101961 0.384314 0.105882
0.149020 0.388235 0.105882
0.207843 0.392157 0.109804
0.282353 0.396078 0.109804
0.368627 0.403922 0.109804
0.474510 0.411765 0.109804
0.600000 0.419608 0.113725
0.713725 0.427451 0.113725
0.811765 0.431373 0.113725
0.886275 0.439216 0.113725
0.933333 0.443137 0.117647
0.968627 0.447059 0.117647
0.988235 0.447059 0.117647
1.000000 0.447059 0.117647
1.000000 0.447059 0.117647
1.000000 0.447059 0.117647
1.000000 0.447059 0.117647
1.000000 0.447059 0.117647
1.000000 0.447059 0.117647
1.000000 0.447059 0.117647
1.000000 0.447059 0.117647
1.000000 0.447059 0.117647
1.000000 0.447059 0.117647
0.054902 0.490196 0.109804
0.070588 0.494118 0.109804
0.105882 0.494118 0.109804
0.152941 0.498039 0.109804
0.215686 0.505882 0.109804
0.294118 0.509804 0.109804
0.388235 0.521569 0.113725
0.498039 0.529412 0.113725
0.615686 0.537255 0.113725
0.725490 0.545098 0.117647
0.819608 0.556863 0.117647
0.890196 0.560784 0.117647
0.937255 0.564706 0.117647
0.968627 0.568627 0.117647
0.988235 0.572549 0.117647
1.000000 0.572549 0.117647
1.000000 0.572549 0.117647
1.000000 0.572549 0.117647
1.000000 0.572549 0.117647
1.000000 0.572549 0.117647
1.000000 0.572549 0.117647
1.000000 0.572549 0.117647
1.000000 0.572549 0.117647
1.000000 0.572549 0.117647
1.000000 0.572549 0.117647
0.058824 0.615686 0.109804
0.074510 0.615686 0.109804
0.109804 0.619608 0.109804
0.160784 0.623529 0.113725
0.227451 0.627451 0.113725
0.309804 0.631373 0.113725
0.407843 0.639216 0.113725
0.517647 0.647059 0.117647
0.635294 0.654902 0.117647
0.741176 0.662745 0.117647
0.827451 0.666667 0.117647
0.898039 0.674510 0.121569
0.941176 0.678431 0.121569
0.972549 0.678431 0.121569
0.992157 0.682353 0.121569
1.000000 0.682353 0.121569
1.000000 0.682353 0.121569
1.000000 0.682353 0.121569
1.000000 0.682353 0.121569
1.000000 0.682353 0.121569
1.000000 0.682353 0.121569
1.000000 0.682353 0.121569
1.000000 0.682353 0.121569
1.000000 0.682353 0.121569
1.000000 0.682353 0.121569
0.062745 0.725490 0.113725
0.078431 0.729412 0.113725
0.117647 0.729412 0.113725
0.168627 0.733333 0.113725
0.239216 0.737255 0.113725
0.329412 0.741176 0.117647
0.431373 0.749020 0.117647
0.541176 0.752941 0.117647
0.654902 0.756863 0.117647
0.752941 0.764706 0.121569
0.839216 0.768627 0.121569
0.901961 0.772549 0.121569
0.945098 0.776471 0.121569
0.972549 0.776471 0.121569
0.992157 0.776471 0.121569
1.000000 0.776471 0.121569
1.000000 0.776471 0.121569
1.000000 0.776471 0.121569
1.000000 0.776471 0.121569
1.000000 0.776471 0.121569
1.000000 0.776471 0.121569
1.000000 0.776471 0.121569
1.000000 0.776471 0.121569
1.000000 0.776471 0.121569
1.000000 0.776471 0.121569
0.066667 0.823529 0.113725
0.082353 0.823529 0.113725
0.121569 0.823529 0.113725
0.176471 0.827451 0.117647
0.250980 0.827451 0.117647
0.345098 0.831373 0.117647
0.450980 0.835294 0.117647
0.564706 0.839216 0.121569
0.670588 0.843137 0.121569
