Assets/LUTs/Warm.CUBE
#Created by: Adobe Photoshop Export Color Lookup Plugin
TITLE "Untitled-1"
#LUT size
LUT_3D_SIZE 32
#data domain
DOMAIN_MIN 0.0 0.0 0.0
DOMAIN_MAX 1.0 1.0 1.0
#LUT data points
0.000000 0.000000 0.000000
0.000000 0.000000 0.000000
0.000000 0.000000 0.000000
0.009125 0.000000 0.000000
0.061829 0.000000 0.000000
0.111847 0.000000 0.000000
0.160400 0.000000 0.000000
0.208252 0.000000 0.000000
0.254913 0.000000 0.000000
0.300659 0.000000 0.000000
0.345703 0.000000 0.000000
0.390320 0.000000 0.000000
0.434387 0.000000 0.000000
0.477936 0.000000 0.000000
0.520844 0.000000 0.000000
0.563354 0.000000 0.000000
0.605713 0.000000 0.000000
0.647430 0.000000 0.000000
0.688934 0.000000 0.000000
0.730103 0.000000 0.000000
0.770966 0.000000 0.000000
0.811554 0.000000 0.000000
0.851868 0.000000 0.000000
0.891876 0.000000 0.000000
0.931732 0.000000 0.000000
0.971313 0.000000 0.000000
1.000000 0.000000 0.000000
1.000000 0.000000 0.000000
1.000000 0.000000 0.000000
1.000000 0.000000 0.000000
1.000000 0.000000 0.000000
1.000000 0.000000 0.000000
0.000000 0.000000 0.000000
0.000000 0.000000 0.000000
0.000000 0.000000 0.000000
0.017303 0.000000 0.000000
0.069763 0.000000 0.000000
0.120361 0.000000 0.000000
0.169556 0.000000 0.000000
0.218994 0.000000 0.000000
0.266418 0.000000 0.000000
0.314056 0.000000 0.000000
0.360779 0.000000 0.000000
0.408661 0.000000 0.000000
0.454407 0.000000 0.000000
0.500549 0.000000 0.000000
0.546295 0.000000 0.000000
0.589447 0.000000 0.000000
0.631439 0.000000 0.000000
0.672974 0.000000 0.000000
0.714294 0.000000 0.000000
0.755310 0.000000 0.000000
0.795959 0.000000 0.000000
0.836334 0.000000 0.000000
0.876556 0.000000 0.000000
0.916412 0.000000 0.000000
0.956116 0.000000 0.000000
0.995544 0.000000 0.000000
1.000000 0.000000 0.000000
1.000000 0.000000 0.000000
1.000000 0.000000 0.000000
1.000000 0.000000 0.000000
1.000000 0.000000 0.000000
1.000000 0.000000 0.000000
0.000000 0.000000 0.000000
0.000000 0.000000 0.000000
0.000000 0.000000 0.000000
0.021515 0.000000 0.000000
0.073517 0.000000 0.000000
0.123657 0.000000 0.000000
0.173248 0.000000 0.000000
0.220886 0.000000 0.000000
0.269348 0.000000 0.000000
0.316010 0.000000 0.000000
0.363220 0.000000 0.000000
0.408844 0.000000 0.000000
0.455658 0.000000 0.000000
0.501312 0.000000 0.000000
0.547211 0.000000 0.000000
0.592682 0.000000 0.000000
0.638519 0.000000 0.000000
0.683990 0.000000 0.000000
0.728943 0.000000 0.000000
0.774414 0.000000 0.000000
0.819214 0.000000 0.000000
0.860992 0.000000 0.000000
0.901093 0.000000 0.000000
0.940826 0.000000 0.000000
0.980438 0.000000 0.000000
1.000000 0.000000 0.000000
1.000000 0.000000 0.000000
1.000000 0.000000 0.000000
1.000000 0.000000 0.000000
1.000000 0.000000 0.000000
1.000000 0.000000 0.000000
1.000000 0.000000 0.000000
0.000000 0.000000 0.000000
0.000000 0.000000 0.000000
0.000000 0.000000 0.000000
0.024750 0.000000 0.000000
0.076111 0.000000 0.000000
0.125153 0.000000 0.000000
0.174316 0.000000 0.000000
0.222687 0.000000 0.000000
0.269531 0.000000 0.000000
0.316254 0.000000 0.000000
0.362732 0.000000 0.000000
0.408203 0.000000 0.000000
0.453522 0.000000 0.000000
0.498657 0.000000 0.000000
0.542938 0.000000 0.000000
0.587952 0.000000 0.000000
0.632019 0.000000 0.000000
0.677002 0.000000 0.000000
0.721161 0.000000 0.000000
0.765564 0.000000 0.000000
0.809875 0.000000 0.000000
0.854828 0.000000 0.000000
0.899658 0.000000 0.000000
0.945160 0.000000 0.000000
0.990204 0.000000 0.000000
1.000000 0.000000 0.000000
1.000000 0.000000 0.000000
1.000000 0.000000 0.000000
1.000000 0.000000 0.000000
1.000000 0.000000 0.000000
1.000000 0.000000 0.000000
1.000000 0.000000 0.000000
0.000000 0.000000 0.000000
0.000000 0.000000 0.000000
0.000000 0.000000 0.000000
0.027863 0.000000 0.000000
0.078735 0.000000 0.000000
0.128662 0.000000 0.000000
0.176727 0.000000 0.000000
0.224670 0.000000 0.000000
0.271606 0.000000 0.000000
0.317535 0.000000 0.000000
0.362823 0.000000 0.000000
0.408722 0.000000 0.000000
0.453522 0.000000 0.000000
0.498138 0.000000 0.000000
0.542267 0.000000 0.000000
0.586212 0.000000 0.000000
0.629852 0.000000 0.000000
0.673126 0.000000 0.000000
0.716705 0.000000 0.000000
0.759979 0.000000 0.000000
0.802948 0.000000 0.000000
0.845978 0.000000 0.000000
0.889221 0.000000 0.000000
0.932037 0.000000 0.000000
0.975372 0.000000 0.000000
1.000000 0.000000 0.000000
1.000000 0.000000 0.000000
1.000000 0.000000 0.000000
1.000000 0.000000 0.000000
1.000000 0.000000 0.000000
1.000000 0.000000 0.000000
1.000000 0.000000 0.000000
0.000000 0.000000 0.000000
0.000000 0.000000 0.000000
0.000000 0.000000 0.000000
0.033264 0.000000 0.000000
0.082550 0.000000 0.000000
0.131866 0.000000 0.000000
0.179718 0.000000 0.000000
0.226837 0.000000 0.000000
0.273438 0.000000 0.000000
0.319519 0.000000 0.000000
0.364777 0.000000 0.000000
0.409973 0.000000 0.000000
0.454224 0.000000 0.000000
0.498688 0.000000 0.000000
0.542511 0.000000 0.000000
0.585754 0.000000 0.000000
0.629333 0.000000 0.000000
0.672150 0.000000 0.000000
0.714844 0.000000 0.000000
0.757721 0.000000 0.000000
0.800385 0.000000 0.000000
0.842468 0.000000 0.000000
0.884583 0.000000 0.000000
0.926880 0.000000 0.000000
0.968903 0.000000 0.000000
1.000000 0.000000 0.000000
1.000000 0.000000 0.000000
1.000000 0.000000 0.000000
1.000000 0.000000 0.000000
1.000000 0.000000 0.000000
1.000000 0.000000 0.000000
1.000000 0.000000 0.000000
0.000000 0.022461 0.000000
0.000000 0.023315 0.000000
0.000000 0.025452 0.000000
0.038208 0.026917 0.000000
0.086884 0.028107 0.000000
0.135620 0.028809 0.000000
0.183350 0.029419 0.000000
0.230103 0.030090 0.000000
0.276062 0.030701 0.000000
0.321808 0.031036 0.000000
0.367157 0.031281 0.000000
0.411499 0.031738 0.000000
0.456055 0.031830 0.000000
0.499512 0.032227 0.000000
0.543091 0.032318 0.000000
0.586548 0.032257 0.000000
0.629547 0.032257 0.000000
0.672302 0.032135 0.000000
0.714661 0.032013 0.000000
0.756775 0.031860 0.000000
0.798981 0.031525 0.000000
0.840820 0.031250 0.000000
0.882599 0.030731 0.000000
0.924347 0.030151 0.000000
0.965881 0.029572 0.000000
1.000000 0.028931 0.000000
1.000000 0.028229 0.000000
1.000000 0.027374 0.000000
1.000000 0.026337 0.000000
1.000000 0.025330 0.000000
1.000000 0.023926 0.000000
1.000000 0.023590 0.000000
0.000000 0.056152 0.000000
0.000000 0.057526 0.000000
0.000000 0.059814 0.000000
0.043365 0.061646 0.000000
0.091797 0.062927 0.000000
0.139374 0.063965 0.000000
0.185944 0.064972 0.000000
0.232788 0.065552 0.000000
0.278839 0.066132 0.000000
0.324036 0.066711 0.000000
0.369202 0.067047 0.000000
0.413849 0.067444 0.000000
0.457520 0.067902 0.000000
0.501648 0.067963 0.000000
0.544739 0.068268 0.000000
0.587799 0.068420 0.000000
0.630493 0.068573 0.000000
0.672821 0.068604 0.000000
0.715363 0.068481 0.000000
0.757202 0.068542 0.000000
0.798889 0.068451 0.000000
0.840515 0.068298 0.000000
0.881989 0.067993 0.000000
0.923157 0.067719 0.000000
0.964355 0.067383 0.000000
1.000000 0.066864 0.000000
1.000000 0.066315 0.000000
1.000000 0.065796 0.000000
1.000000 0.065094 0.000000
1.000000 0.064362 0.000000
1.000000 0.063629 0.000000
1.000000 0.062714 0.000000
0.000000 0.089722 0.000000
0.000000 0.091797 0.000000
0.001678 0.094940 0.000000
0.048767 0.097198 0.000000
0.095886 0.098785 0.000000
0.142944 0.100037 0.000000
0.189941 0.100891 0.000000
0.236053 0.101746 0.000000
0.282043 0.102234 0.000000
0.327240 0.102844 0.000000
0.371857 0.103424 0.000000
0.416016 0.103943 0.000000
0.459961 0.104279 0.000000
0.503265 0.104767 0.000000
0.546417 0.105072 0.000000
0.589447 0.105255 0.000000
0.631958 0.105438 0.000000
0.674133 0.105652 0.000000
0.716248 0.105713 0.000000
0.758087 0.105713 0.000000
0.799561 0.105743 0.000000
0.841034 0.105652 0.000000
0.882141 0.105652 0.000000
0.923187 0.105530 0.000000
0.964050 0.105377 0.000000
1.000000 0.105011 0.000000
1.000000 0.104767 0.000000
1.000000 0.104340 0.000000
1.000000 0.103943 0.000000
1.000000 0.103485 0.000000
1.000000 0.102814 0.000000
1.000000 0.102112 0.000000
0.000000 0.124634 0.000000
0.000000 0.127014 0.000000
0.008972 0.130585 0.000000
0.054108 0.133362 0.000000
0.100861 0.135071 0.000000
0.147736 0.136322 0.000000
0.193787 0.137482 0.000000
0.239929 0.138367 0.000000
0.285248 0.139160 0.000000
0.329987 0.139984 0.000000
0.374329 0.140594 0.000000
0.418365 0.141144 0.000000
0.462250 0.141541 0.000000
0.505646 0.141968 0.000000
0.548584 0.142303 0.000000
0.591095 0.142761 0.000000
0.633667 0.142975 0.000000
0.675842 0.143188 0.000000
0.717621 0.143433 0.000000
0.759216 0.143555 0.000000
0.800598 0.143707 0.000000
0.841705 0.143768 0.000000
0.882751 0.143738 0.000000
0.923462 0.143829 0.000000
0.964233 0.143677 0.000000
1.000000 0.143555 0.000000
1.000000 0.143341 0.000000
1.000000 0.143127 0.000000
1.000000 0.142883 0.000000
1.000000 0.142487 0.000000
1.000000 0.142151 0.000000
1.000000 0.141724 0.000000
0.000000 0.159546 0.000000
0.000000 0.162659 0.000000
0.016541 0.166748 0.000000
0.061646 0.169403 0.000000
0.106812 0.171692 0.000000
0.152771 0.173157 0.000000
0.198273 0.174561 0.000000
0.243256 0.175842 0.000000
0.288635 0.176575 0.000000
0.333282 0.177368 0.000000
0.377441 0.178101 0.000000
0.421326 0.178833 0.000000
0.464813 0.179382 0.000000
0.507996 0.179871 0.000000
0.550934 0.180237 0.000000
0.593140 0.180817 0.000000
0.635651 0.181061 0.000000
0.677582 0.181396 0.000000
0.719177 0.181702 0.000000
0.760681 0.181946 0.000000
0.801971 0.182037 0.000000
0.843079 0.182251 0.000000
0.883789 0.182404 0.000000
0.924591 0.182404 0.000000
0.965057 0.182434 0.000000
1.000000 0.182434 0.000000
1.000000 0.182404 0.000000
1.000000 0.182281 0.000000
1.000000 0.182037 0.000000
1.000000 0.181885 0.000000
1.000000 0.181702 0.000000
1.000000 0.181305 0.000000
0.000000 0.194427 0.000000
0.000000 0.198547 0.000000
0.024872 0.203217 0.000000
0.067993 0.206543 0.000000
0.112213 0.209076 0.000000
0.157684 0.210815 0.000000
0.202789 0.212250 0.000000
0.247650 0.213501 0.000000
0.292389 0.214508 0.000000
0.336761 0.215424 0.000000
0.380615 0.216278 0.000000
0.424225 0.217010 0.000000
0.467560 0.217682 0.000000
0.510559 0.218201 0.000000
0.553192 0.218750 0.000000
0.595612 0.219269 0.000000
0.637848 0.219635 0.000000
0.679443 0.220123 0.000000
0.721039 0.220428 0.000000
0.762421 0.220703 0.000000
0.803497 0.221008 0.000000
0.844452 0.221191 0.000000
0.885101 0.221436 0.000000
0.925659 0.221588 0.000000
0.966003 0.221741 0.000000
1.000000 0.221741 0.000000
1.000000 0.221802 0.000000
1.000000 0.221771 0.000000
1.000000 0.221710 0.000000
1.000000 0.221710 0.000000
1.000000 0.221466 0.000000
1.000000 0.221283 0.000000
0.000000 0.230682 0.000000
0.000000 0.234863 0.000000
0.034241 0.239899 0.000000
0.075378 0.243805 0.000000
0.118805 0.246521 0.000000
0.163025 0.248688 0.000000
0.207428 0.250397 0.000000
0.251984 0.251801 0.000000
0.296387 0.252960 0.000000
0.340454 0.253906 0.000000
0.384003 0.254883 0.000000
0.427399 0.255707 0.000000
0.470520 0.256439 0.000000
0.513367 0.257080 0.000000
0.555664 0.257782 0.000000
0.598053 0.258240 0.000000
0.639862 0.258789 0.000000
0.681610 0.259216 0.000000
0.723114 0.259613 0.000000
0.764252 0.260040 0.000000
0.805206 0.260406 0.000000
0.846069 0.260651 0.000000
0.886658 0.260864 0.000000
0.927094 0.261108 0.000000
0.967255 0.261322 0.000000
1.000000 0.261475 0.000000
1.000000 0.261536 0.000000
1.000000 0.261658 0.000000
1.000000 0.261658 0.000000
1.000000 0.261688 0.000000
1.000000 0.261658 0.000000
1.000000 0.261658 0.000000
0.000000 0.266632 0.000000
0.005493 0.271820 0.000000
0.042816 0.277344 0.000000
0.082886 0.281555 0.000000
0.125305 0.284607 0.000000
0.168610 0.287018 0.000000
0.212341 0.289001 0.000000
0.256683 0.290375 0.000000
0.300415 0.291748 0.000000
0.344147 0.292908 0.000000
0.387482 0.293915 0.000000
0.430634 0.294922 0.000000
0.473602 0.295746 0.000000
0.516052 0.296509 0.000000
0.558533 0.297150 0.000000
0.600616 0.297729 0.000000
0.642273 0.298340 0.000000
0.683899 0.298828 0.000000
0.725281 0.299255 0.000000
0.766449 0.299744 0.000000
0.807159 0.300201 0.000000
0.847900 0.300507 0.000000
0.888306 0.300842 0.000000
0.928741 0.301056 0.000000
0.968781 0.301392 0.000000
1.000000 0.301605 0.000000
1.000000 0.301697 0.000000
1.000000 0.301910 0.000000
1.000000 0.302002 0.000000
1.000000 0.302063 0.000000
1.000000 0.302124 0.000000
1.000000 0.302216 0.000000
0.000000 0.303253 0.000000
0.015808 0.309113 0.000000
0.051270 0.315186 0.000000
0.090576 0.319641 0.000000
0.132019 0.323059 0.000000
0.174530 0.325745 0.000000
0.217804 0.327820 0.000000
0.261169 0.329620 0.000000
0.304443 0.331146 0.000000
0.347839 0.332428 0.000000
0.391144 0.333466 0.000000
0.433868 0.334595 0.000000
0.476776 0.335358 0.000000
0.519226 0.336121 0.000000
0.561218 0.336975 0.000000
0.603180 0.337677 0.000000
0.644989 0.338257 0.000000
0.686462 0.338745 0.000000
0.727600 0.339386 0.000000
0.768494 0.339874 0.000000
0.809326 0.340302 0.000000
0.849854 0.340729 0.000000
0.890137 0.341156 0.000000
0.930481 0.341522 0.000000
0.970551 0.341736 0.000000
1.000000 0.342102 0.000000
1.000000 0.342316 0.000000
1.000000 0.342560 0.000000
1.000000 0.342712 0.000000
1.000000 0.342865 0.000000
1.000000 0.342926 0.000000
1.000000 0.342987 0.000000
0.000000 0.339539 0.000000
0.026428 0.346710 0.000000
0.060364 0.353241 0.000000
0.098389 0.358124 0.000000
0.138824 0.361877 0.000000
0.180481 0.364838 0.000000
0.223145 0.367126 0.000000
0.265961 0.369110 0.000000
0.309143 0.370758 0.000000
0.351959 0.372223 0.000000
0.394897 0.373383 0.000000
0.437592 0.374512 0.000000
0.480072 0.375488 0.000000
0.522308 0.376373 0.000000
0.564301 0.377136 0.000000
0.606140 0.377930 0.000000
0.647644 0.378632 0.000000
0.688812 0.379395 0.000000
0.729980 0.379852 0.000000
0.771027 0.380310 0.000000
0.811615 0.380890 0.000000
0.852020 0.381409 0.000000
0.892273 0.381836 0.000000
0.932343 0.382263 0.000000
0.972168 0.382599 0.000000
1.000000 0.382965 0.000000
1.000000 0.383179 0.000000
1.000000 0.383484 0.000000
1.000000 0.383759 0.000000
1.000000 0.383911 0.000000
1.000000 0.384125 0.000000
1.000000 0.384308 0.000000
0.005463 0.376617 0.000000
0.036591 0.384857 0.000000
0.070587 0.391357 0.000000
0.106781 0.396881 0.000000
0.146149 0.400940 0.000000
0.186981 0.404266 0.000000
0.228668 0.406921 0.000000
0.271271 0.408966 0.000000
0.313782 0.410706 0.000000
0.356262 0.412354 0.000000
0.398804 0.413696 0.000000
0.441345 0.414856 0.000000
0.483582 0.415894 0.000000
0.525665 0.416870 0.000000
0.567474 0.417755 0.000000
0.609039 0.418610 0.000000
0.650482 0.419342 0.000000
0.691467 0.420166 0.000000
0.732605 0.420746 0.000000
0.773376 0.421326 0.000000
0.813843 0.421906 0.000000
0.854187 0.422455 0.000000
0.894440 0.422913 0.000000
0.934387 0.423431 0.000000
0.974091 0.423889 0.000000
1.000000 0.424194 0.000000
1.000000 0.424561 0.000000
1.000000 0.424896 0.000000
1.000000 0.425171 0.000000
1.000000 0.425476 0.000000
1.000000 0.425751 0.000000
1.000000 0.425903 0.000000
0.018372 0.413849 0.000000
0.047729 0.423004 0.000000
0.079620 0.430237 0.000000
0.115234 0.435883 0.000000
0.153381 0.440430 0.000000
0.193359 0.443939 0.000000
0.234711 0.446716 0.000000
0.276581 0.449005 0.000000
0.318512 0.451080 0.000000
0.360870 0.452789 0.000000
0.403198 0.454224 0.000000
0.445282 0.455536 0.000000
0.487274 0.456696 0.000000
0.529022 0.457825 0.000000
0.570648 0.458771 0.000000
0.612244 0.459595 0.000000
0.653351 0.460449 0.000000
0.694366 0.461273 0.000000
0.735229 0.461945 0.000000
0.775879 0.462616 0.000000
0.816315 0.463287 0.000000
0.856628 0.463776 0.000000
0.896606 0.464355 0.000000
0.936615 0.464844 0.000000
0.976288 0.465271 0.000000
1.000000 0.465759 0.000000
1.000000 0.466187 0.000000
1.000000 0.466522 0.000000
1.000000 0.466919 0.000000
1.000000 0.467224 0.000000
1.000000 0.467499 0.000000
1.000000 0.467804 0.000000
0.031616 0.451263 0.000000
0.058868 0.461487 0.000000
0.088898 0.469360 0.000000
0.123840 0.475281 0.000000
0.161224 0.480011 0.000000
0.200348 0.483887 0.000000
0.240784 0.486969 0.000000
0.281860 0.489563 0.000000
0.323547 0.491730 0.000000
0.365417 0.493561 0.000000
0.407227 0.495148 0.000000
0.449371 0.496460 0.000000
0.490936 0.497833 0.000000
0.532684 0.498962 0.000000
0.574097 0.500031 0.000000
0.615417 0.500977 0.000000
0.656494 0.501862 0.000000
0.697205 0.502716 0.000000
0.737976 0.503540 0.000000
0.778534 0.504242 0.000000
0.818848 0.504822 0.000000
0.859039 0.505524 0.000000
0.899048 0.506104 0.000000
0.938812 0.506683 0.000000
0.978424 0.507172 0.000000
1.000000 0.507660 0.000000
1.000000 0.508118 0.000000
1.000000 0.508545 0.000000
1.000000 0.508881 0.000000
1.000000 0.509308 0.000000
1.000000 0.509644 0.000000
1.000000 0.509949 0.000000
0.044800 0.488953 0.000000
0.069031 0.500549 0.000000
0.099213 0.508392 0.000000
0.132355 0.514984 0.000000
0.168793 0.519989 0.000000
0.207611 0.524078 0.000000
0.246857 0.527588 0.000000
0.287598 0.530273 0.000000
0.328827 0.532593 0.000000
0.370239 0.534576 0.000000
0.411713 0.536346 0.000000
0.453308 0.537933 0.000000
0.494873 0.539215 0.000000
0.536224 0.540497 0.000000
0.577484 0.541656 0.000000
0.618561 0.542694 0.000000
0.659546 0.543701 0.000000
0.700378 0.544556 0.000000
0.740936 0.545319 0.000000
0.781281 0.546173 0.000000
0.821472 0.546875 0.000000
0.861481 0.547577 0.000000
0.901428 0.548187 0.000000
0.941132 0.548767 0.000000
0.980713 0.549316 0.000000
1.000000 0.549927 0.000000
1.000000 0.550415 0.000000
1.000000 0.550873 0.000000
1.000000 0.551331 0.000000
1.000000 0.551727 0.000000
1.000000 0.552155 0.000000
1.000000 0.552734 0.000000
0.057800 0.527008 0.000000
0.079926 0.539764 0.000000
0.108734 0.548065 0.000000
0.141357 0.554779 0.000000
0.177094 0.560150 0.000000
0.214355 0.564697 0.000000
0.253326 0.568298 0.000000
0.293610 0.571198 0.000000
0.334229 0.573761 0.000000
0.375183 0.575989 0.000000
0.416443 0.577820 0.000000
0.457794 0.579437 0.000000
0.498749 0.581055 0.000000
0.540070 0.582306 0.000000
0.581116 0.583496 0.000000
0.622040 0.584656 0.000000
0.662811 0.585693 0.000000
0.703400 0.586731 0.000000
0.743958 0.587494 0.000000
0.784149 0.588409 0.000000
0.824249 0.589142 0.000000
0.864227 0.589874 0.000000
0.903992 0.590607 0.000000
0.943604 0.591217 0.000000
0.983032 0.591858 0.000000
1.000000 0.592438 0.000000
1.000000 0.592957 0.000000
1.000000 0.593445 0.000000
1.000000 0.593964 0.000000
1.000000 0.594452 0.000000
1.000000 0.594879 0.000000
1.000000 0.595795 0.000000
0.070740 0.565308 0.000000
0.091064 0.579071 0.000000
0.118774 0.587830 0.000000
0.150604 0.594879 0.000000
0.185211 0.600616 0.000000
0.221893 0.605347 0.000000
0.260468 0.609192 0.000000
0.299500 0.612518 0.000000
0.339874 0.615173 0.000000
0.380310 0.617523 0.000000
0.421234 0.619507 0.000000
0.461945 0.621399 0.000000
0.503082 0.622894 0.000000
0.543945 0.624481 0.000000
0.584778 0.625763 0.000000
0.625488 0.626923 0.000000
0.666199 0.627960 0.000000
0.706665 0.629028 0.000000
0.746918 0.630035 0.000000
0.787170 0.630859 0.000000
0.827087 0.631683 0.000000
0.866943 0.632538 0.000000
0.906586 0.633301 0.000000
0.946075 0.633972 0.000000
0.985504 0.634583 0.000000
1.000000 0.635254 0.000000
1.000000 0.635803 0.000000
1.000000 0.636383 0.000000
1.000000 0.636871 0.000000
1.000000 0.637329 0.000000
1.000000 0.637848 0.000000
1.000000 0.638916 0.000000
0.083191 0.604126 0.000000
0.102783 0.618195 0.000000
0.128632 0.627899 0.000000
0.159760 0.635162 0.000000
0.193329 0.641327 0.000000
0.229553 0.646271 0.000000
0.267090 0.650482 0.000000
0.305878 0.653961 0.000000
0.345520 0.656891 0.000000
0.385651 0.659332 0.000000
0.426086 0.661499 0.000000
0.466614 0.663513 0.000000
0.507294 0.665192 0.000000
0.547913 0.666809 0.000000
0.588501 0.668213 0.000000
0.629150 0.669434 0.000000
0.669617 0.670624 0.000000
0.709869 0.671753 0.000000
0.750061 0.672821 0.000000
0.790161 0.673676 0.000000
0.830078 0.674561 0.000000
0.869690 0.675415 0.000000
0.909241 0.676178 0.000000
0.948822 0.676941 0.000000
0.987976 0.677612 0.000000
1.000000 0.678314 0.000000
1.000000 0.678925 0.000000
1.000000 0.679596 0.000000
1.000000 0.680145 0.000000
1.000000 0.680634 0.000000
1.000000 0.681183 0.000000
1.000000 0.682312 0.000000
0.095520 0.643158 0.000000
0.114838 0.657349 0.000000
0.138519 0.668304 0.000000
0.168884 0.675873 0.000000
0.201935 0.682190 0.000000
0.237091 0.687531 0.000000
0.274048 0.691925 0.000000
0.312134 0.695648 0.000000
0.351318 0.698822 0.000000
0.390961 0.701569 0.000000
0.431091 0.703827 0.000000
0.471252 0.705933 0.000000
0.511688 0.707764 0.000000
0.552124 0.709381 0.000000
0.592499 0.710876 0.000000
0.632935 0.712250 0.000000
0.673065 0.713562 0.000000
0.713257 0.714722 0.000000
0.753296 0.715759 0.000000
0.793335 0.716736 0.000000
0.832977 0.717743 0.000000
0.872589 0.718628 0.000000
0.912079 0.719452 0.000000
0.951385 0.720215 0.000000
0.990631 0.720947 0.000000
1.000000 0.721680 0.000000
1.000000 0.722351 0.000000
1.000000 0.723022 0.000000
1.000000 0.723602 0.000000
1.000000 0.724213 0.000000
1.000000 0.724762 0.000000
1.000000 0.725739 0.000000
0.108551 0.682068 0.000000
0.126434 0.696930 0.000000
0.148590 0.708862 0.000000
0.178009 0.716797 0.000000
0.210266 0.723450 0.000000
0.244751 0.729065 0.000000
0.281189 0.733643 0.000000
0.318726 0.737610 0.000000
0.357178 0.740967 0.000000
0.396423 0.743835 0.000000
0.436218 0.746277 0.000000
0.476105 0.748535 0.000000
0.516235 0.750458 0.000000
0.556335 0.752258 0.000000
0.596527 0.753876 0.000000
0.636719 0.755280 0.000000
0.676788 0.756592 0.000000
0.716827 0.757813 0.000000
0.756683 0.759033 0.000000
0.796417 0.760040 0.000000
0.836060 0.761078 0.000000
0.875641 0.761993 0.000000
0.914886 0.763000 0.000000
0.954193 0.763794 0.000000
0.993317 0.764557 0.000000
1.000000 0.765381 0.000000
1.000000 0.766052 0.000000
1.000000 0.766754 0.000000
1.000000 0.767395 0.000000
1.000000 0.768005 0.000000
1.000000 0.768555 0.000000
1.000000 0.769012 0.000000
0.120544 0.721863 0.000000
0.137665 0.737030 0.000000
0.158844 0.749634 0.000000
0.187469 0.757874 0.000000
0.218994 0.764801 0.000000
0.252716 0.770630 0.000000
0.288239 0.775604 0.000000
0.325562 0.779724 0.000000
0.363586 0.783234 0.000000
0.402252 0.786377 0.000000
0.441589 0.789001 0.000000
0.481018 0.791382 0.000000
0.520813 0.793488 0.000000
0.560852 0.795258 0.000000
0.600739 0.796936 0.000000
0.640564 0.798553 0.000000
0.680664 0.799988 0.000000
0.720398 0.801270 0.000000
0.760132 0.802490 0.000000
0.799774 0.803619 0.000000
0.839233 0.804688 0.000000
0.878601 0.805725 0.000000
0.917816 0.806671 0.000000
0.957031 0.807556 0.000000
0.996002 0.808380 0.000000
1.000000 0.809265 0.000000
1.000000 0.809998 0.000000
1.000000 0.810730 0.000000
1.000000 0.811432 0.000000
1.000000 0.812042 0.000000
1.000000 0.812744 0.000000
1.000000 0.812378 0.000000
0.132568 0.761719 0.000000
0.149261 0.777222 0.000000
0.168976 0.790649 0.000000
0.196716 0.799255 0.000000
0.227539 0.806427 0.000000
0.260620 0.812531 0.000000
0.295807 0.817657 0.000000
0.332153 0.822052 0.000000
0.369934 0.825714 0.000000
0.408203 0.829041 0.000000
0.446991 0.831940 0.000000
0.486176 0.834442 0.000000
0.525787 0.836548 0.000000
0.565308 0.838593 0.000000
0.604950 0.840393 0.000000
0.644745 0.842041 0.000000
0.684387 0.843536 0.000000
0.723999 0.844940 0.000000
0.763641 0.846283 0.000000
0.803101 0.847473 0.000000
0.842499 0.848602 0.000000
0.881744 0.849670 0.000000
0.920959 0.850616 0.000000
0.959961 0.851563 0.000000
0.998840 0.852448 0.000000
1.000000 0.853271 0.000000
1.000000 0.854126 0.000000
1.000000 0.854858 0.000000
1.000000 0.855591 0.000000
1.000000 0.856354 0.000000
1.000000 0.856995 0.000000
1.000000 0.855377 0.000000
0.144989 0.801514 0.000000
0.160828 0.817413 0.000000
0.178833 0.832062 0.000000
0.206360 0.840698 0.000000
0.236481 0.848175 0.000000
0.268921 0.854584 0.000000
0.303406 0.859955 0.000000
0.339050 0.864685 0.000000
0.376221 0.868591 0.000000
0.413971 0.872070 0.000000
0.452393 0.875092 0.000000
0.491394 0.877625 0.000000
0.530457 0.880035 0.000000
0.569916 0.882080 0.000000
0.609375 0.884033 0.000000
0.648895 0.885773 0.000000
0.688507 0.887360 0.000000
0.727814 0.888885 0.000000
