Assets/LUTs/Warm.CUBE
#Created by: Adobe Photoshop Export Color Lookup Plugin
TITLE "Untitled-1"
#LUT size
LUT_3D_SIZE 5
#data domain
#LUT data points
DOMAIN_MIN 0.000000 0.000000 0.000000
DOMAIN_MAX 0.903226 0.903226 0.903226
0.000000 0.000000 0.000000
0.208252 0.000000 0.000000
0.520844 0.000000 0.000000
0.811554 0.000000 0.000000
1.000000 0.000000 0.000000
0.000000 0.056152 0.000000
0.232788 0.065552 0.000000
0.544739 0.068268 0.000000
0.840515 0.068298 0.000000
1.000000 0.065094 0.000000
0.000000 0.303253 0.000000
0.261169 0.329620 0.000000
0.561218 0.336975 0.000000
0.849854 0.340729 0.000000
1.000000 0.342712 0.000000
0.070740 0.565308 0.000000
0.299500 0.612518 0.000000
0.584778 0.625763 0.000000
0.866943 0.632538 0.000000
1.000000 0.636871 0.000000
0.156769 0.841980 0.000000
0.346283 0.907379 0.000000
0.613861 0.927856 0.000000
0.888275 0.938171 0.000000
1.000000 0.944824 0.000000
0.000000 0.000000 0.038635
0.219238 0.000000 0.071289
0.528107 0.000000 0.075684
0.817566 0.000000 0.079041
1.000000 0.000000 0.081940
0.000000 0.051880 0.066589
0.244873 0.067535 0.082916
0.552948 0.071320 0.091248
0.847504 0.071747 0.100891
1.000000 0.068848 0.113831
0.003418 0.303101 0.057953
0.272888 0.333038 0.083557
0.569702 0.341400 0.092316
0.857086 0.345703 0.099182
1.000000 0.347992 0.106537
0.081940 0.573914 0.041962
0.312347 0.617920 0.076660
0.594543 0.632111 0.088654
0.875458 0.639435 0.095856
1.000000 0.644257 0.102173
0.160614 0.860077 0.018738
0.360657 0.916107 0.060608
0.625854 0.937378 0.076965
0.899139 0.948242 0.085846
1.000000 0.955322 0.092102
0.000000 0.000000 0.165375
0.240540 0.000000 0.289185
0.539124 0.000000 0.296936
0.825226 0.000000 0.301910
1.000000 0.000000 0.305969
0.001556 0.036316 0.275269
0.267487 0.063965 0.303986
0.565613 0.070587 0.315643
0.856934 0.071930 0.327118
1.000000 0.069427 0.341827
0.050293 0.291992 0.273285
0.292694 0.329742 0.306915
0.580811 0.340973 0.318909
0.864960 0.346313 0.327454
1.000000 0.349121 0.336151
0.113190 0.565796 0.266022
0.328857 0.614471 0.306061
0.603973 0.631134 0.320862
0.881989 0.639465 0.329803
1.000000 0.644745 0.337524
0.181458 0.852783 0.254364
0.373840 0.911438 0.300232
0.633270 0.934967 0.319214
0.903900 0.946777 0.329712
1.000000 0.954285 0.337646
0.023224 0.000000 0.298645
0.271759 0.000000 0.505096
0.555939 0.000000 0.522064
0.836456 0.000000 0.529114
1.000000 0.000000 0.534302
0.077759 0.017944 0.488281
0.303162 0.055756 0.528107
0.586121 0.066864 0.544769
0.871826 0.069855 0.558533
1.000000 0.067871 0.575012
0.111084 0.276031 0.488617
0.324341 0.322235 0.530670
0.598572 0.338226 0.547150
0.877319 0.345520 0.557800
1.000000 0.349121 0.567719
0.159790 0.553040 0.485840
0.357086 0.607452 0.531616
0.620514 0.628540 0.550507
0.893433 0.638855 0.561432
1.000000 0.645050 0.570313
0.217468 0.842590 0.479095
0.398346 0.905090 0.529175
0.648438 0.932281 0.551575
0.914459 0.945923 0.563934
1.000000 0.954346 0.573120
0.085876 0.000000 0.436401
0.305634 0.000000 0.692261
0.578827 0.000000 0.748871
0.851440 0.000000 0.758636
1.000000 0.000000 0.765350
0.154633 0.000000 0.706146
0.350311 0.043121 0.754608
0.615082 0.059448 0.777496
0.893097 0.064728 0.794464
1.000000 0.063721 0.813171
0.177612 0.257294 0.705719
0.366211 0.310669 0.755127
0.623505 0.332489 0.777191
0.894714 0.342407 0.790619
1.000000 0.347534 0.802032
0.216125 0.536438 0.705292
0.394867 0.596771 0.756927
0.643494 0.623291 0.780670
0.909302 0.636322 0.794220
1.000000 0.643921 0.804596
0.264069 0.828369 0.701904
0.432343 0.895233 0.756317
0.669983 0.927155 0.782898
0.929565 0.943481 0.797760
1.000000 0.953491 0.808350
