Assets/LUTs/Warm.CUBE
#Created by: Adobe Photoshop Export Color Lookup Plugin
TITLE "Untitled-1"
#LUT size
LUT_3D_SIZE 8
#data domain
#LUT data points
DOMAIN_MIN 0.000000 0.000000 0.000000
DOMAIN_MAX 0.903226 0.903226 0.903226
0.000000 0.000000 0.000000
0.061829 0.000000 0.000000
0.254913 0.000000 0.000000
0.434387 0.000000 0.000000
0.605713 0.000000 0.000000
0.770966 0.000000 0.000000
0.931732 0.000000 0.000000
1.000000 0.000000 0.000000
0.000000 0.000000 0.000000
0.078735 0.000000 0.000000
0.271606 0.000000 0.000000
0.453522 0.000000 0.000000
0.629852 0.000000 0.000000
0.802948 0.000000 0.000000
0.975372 0.000000 0.000000
1.000000 0.000000 0.000000
0.000000 0.089722 0.000000
0.095886 0.098785 0.000000
0.282043 0.102234 0.000000
0.459961 0.104279 0.000000
0.631958 0.105438 0.000000
0.799561 0.105743 0.000000
0.964050 0.105377 0.000000
1.000000 0.103943 0.000000
0.000000 0.230682 0.000000
0.118805 0.246521 0.000000
0.296387 0.252960 0.000000
0.470520 0.256439 0.000000
0.639862 0.258789 0.000000
0.805206 0.260406 0.000000
0.967255 0.261322 0.000000
1.000000 0.261658 0.000000
0.005463 0.376617 0.000000
0.146149 0.400940 0.000000
0.313782 0.410706 0.000000
0.483582 0.415894 0.000000
0.650482 0.419342 0.000000
0.813843 0.421906 0.000000
0.974091 0.423889 0.000000
1.000000 0.425171 0.000000
0.057800 0.527008 0.000000
0.177094 0.560150 0.000000
0.334229 0.573761 0.000000
0.498749 0.581055 0.000000
0.662811 0.585693 0.000000
0.824249 0.589142 0.000000
0.983032 0.591858 0.000000
1.000000 0.593964 0.000000
0.108551 0.682068 0.000000
0.210266 0.723450 0.000000
0.357178 0.740967 0.000000
0.516235 0.750458 0.000000
0.676788 0.756592 0.000000
0.836060 0.761078 0.000000
0.993317 0.764557 0.000000
1.000000 0.767395 0.000000
0.156769 0.841980 0.000000
0.245392 0.890106 0.000000
0.382751 0.911560 0.000000
0.535522 0.923645 0.000000
0.692474 0.931396 0.000000
0.849243 0.936981 0.000000
1.000000 0.941315 0.000000
1.000000 0.944824 0.000000
0.000000 0.000000 0.000000
0.069702 0.000000 0.000000
0.260162 0.000000 0.000000
0.438782 0.000000 0.000000
0.609619 0.000000 0.000000
0.774750 0.000000 0.000000
0.935486 0.000000 0.000000
1.000000 0.000000 0.000000
0.000000 0.000000 0.000000
0.088013 0.000000 0.000000
0.277130 0.000000 0.000000
0.458008 0.000000 0.000000
0.634308 0.000000 0.001495
0.807373 0.000000 0.010010
0.979736 0.000000 0.021729
1.000000 0.000000 0.039856
0.000000 0.089874 0.000000
0.104401 0.100647 0.000000
0.287903 0.104858 0.000000
0.464966 0.107178 0.000000
0.636627 0.108459 0.000000
0.804016 0.108978 0.003052
0.968475 0.108765 0.008026
1.000000 0.107513 0.014069
0.000000 0.231750 0.000000
0.127716 0.249390 0.000000
0.302887 0.256470 0.000000
0.476257 0.260223 0.000000
0.645386 0.262787 0.000000
0.810455 0.264557 0.000397
0.972473 0.265656 0.003937
1.000000 0.266266 0.007935
0.015839 0.381531 0.000000
0.155792 0.405273 0.000000
0.321808 0.415588 0.000000
0.490540 0.421143 0.000000
0.657043 0.424866 0.000000
0.820282 0.427612 0.000000
0.980560 0.429749 0.000000
1.000000 0.431335 0.001801
0.064606 0.537323 0.000000
0.188232 0.566803 0.000000
0.344055 0.580719 0.000000
0.507874 0.588318 0.000000
0.671234 0.593292 0.000000
0.832428 0.597046 0.000000
0.991180 0.599884 0.000000
1.000000 0.602417 0.000000
0.112976 0.699188 0.000000
0.224426 0.733307 0.000000
0.369904 0.751282 0.000000
0.528046 0.761078 0.000000
0.688110 0.767578 0.000000
0.847076 0.772308 0.000000
1.000000 0.776154 0.000000
1.000000 0.779388 0.000000
0.162415 0.867584 0.000000
0.264099 0.905640 0.000000
0.400208 0.927429 0.000000
0.552032 0.939789 0.000000
0.708618 0.947906 0.000000
0.865082 0.953796 0.000000
1.000000 0.958557 0.000000
1.000000 0.962555 0.000000
0.000000 0.000000 0.059296
0.082550 0.000000 0.098724
0.267181 0.000000 0.102936
0.443634 0.000000 0.105713
0.613525 0.000000 0.108032
0.778046 0.000000 0.110046
0.938293 0.000000 0.111938
1.000000 0.000000 0.113617
0.000000 0.000000 0.096954
0.101776 0.000000 0.108002
0.285309 0.000000 0.114197
0.464478 0.000000 0.120392
0.639038 0.000000 0.127533
0.811584 0.000000 0.137024
0.984192 0.000000 0.150299
1.000000 0.000000 0.169556
0.000000 0.084351 0.095673
0.116516 0.098938 0.109680
0.294739 0.104767 0.116058
0.470001 0.107422 0.120972
0.640533 0.109100 0.125549
0.807373 0.109680 0.130768
0.971649 0.109283 0.136902
1.000000 0.108124 0.143829
0.000000 0.227570 0.091736
0.137878 0.247711 0.109406
0.309113 0.255951 0.117249
0.480682 0.260284 0.122192
0.648834 0.263062 0.126526
0.813354 0.264954 0.130768
0.974945 0.266083 0.135223
1.000000 0.266754 0.140106
0.029785 0.377899 0.085510
0.164459 0.403168 0.106812
0.326721 0.414642 0.116638
0.494232 0.420563 0.122406
0.659576 0.424591 0.126770
0.822174 0.427429 0.130707
0.982117 0.429504 0.134796
1.000000 0.431030 0.138763
0.074158 0.533295 0.077118
0.194153 0.563873 0.101654
0.347565 0.578705 0.113647
0.510040 0.586639 0.120697
0.672577 0.591858 0.125519
0.833282 0.595642 0.129700
0.991638 0.598572 0.133484
1.000000 0.600891 0.137207
0.118164 0.693909 0.066895
0.227448 0.728729 0.093811
0.371124 0.747345 0.108398
0.528137 0.757477 0.116638
0.687561 0.764008 0.122345
0.846008 0.768738 0.126862
1.000000 0.772644 0.130676
1.000000 0.775604 0.134369
0.162323 0.858856 0.054596
0.262848 0.897278 0.083496
0.397644 0.919556 0.100403
0.548462 0.932312 0.110168
0.704315 0.940491 0.116699
0.860321 0.946411 0.121613
1.000000 0.950989 0.125793
1.000000 0.954773 0.129425
0.000000 0.000000 0.127899
0.101013 0.000000 0.221313
0.277527 0.000000 0.227783
0.450592 0.000000 0.231689
0.618958 0.000000 0.234558
0.782501 0.000000 0.237030
0.942078 0.000000 0.239319
1.000000 0.000000 0.241425
0.000000 0.000000 0.214905
0.121704 0.000000 0.232513
0.297516 0.000000 0.241180
0.473389 0.000000 0.248474
0.646484 0.000000 0.256500
0.818787 0.000000 0.267242
0.990631 0.000000 0.281067
1.000000 0.000000 0.302887
0.000000 0.076050 0.215271
0.134918 0.095459 0.234161
0.305542 0.103363 0.242645
0.477722 0.106995 0.248596
0.646820 0.109009 0.254028
0.812714 0.109894 0.259766
0.976135 0.109741 0.266418
1.000000 0.108612 0.273773
0.017670 0.220764 0.213470
0.154510 0.244446 0.234802
0.319122 0.254639 0.244720
0.487762 0.259918 0.250610
0.654327 0.263214 0.255554
0.817963 0.265350 0.260315
0.978821 0.266693 0.265289
1.000000 0.267426 0.270569
0.053528 0.372162 0.209869
0.178833 0.400238 0.233856
0.336060 0.413269 0.245331
0.500641 0.420166 0.252075
0.664917 0.424561 0.257080
0.826691 0.427704 0.261627
0.985809 0.430054 0.266052
1.000000 0.431702 0.270538
0.092590 0.528625 0.204468
0.207001 0.560913 0.230835
0.355957 0.577240 0.244537
0.515991 0.586029 0.252289
0.677399 0.591644 0.257843
0.837128 0.595795 0.262573
0.994843 0.598846 0.266754
1.000000 0.601318 0.270996
0.132690 0.689728 0.197449
0.238434 0.725739 0.225983
0.378754 0.745453 0.241882
0.533600 0.756348 0.250977
0.691589 0.763519 0.257355
0.849274 0.768585 0.262360
1.000000 0.772491 0.266785
1.000000 0.775635 0.270844
0.173737 0.854950 0.189117
0.272064 0.894073 0.219360
0.404205 0.917297 0.237457
0.553253 0.930695 0.248169
0.707703 0.939453 0.255402
0.863129 0.945526 0.260925
1.000000 0.950378 0.265533
1.000000 0.954193 0.269775
0.000000 0.000000 0.203094
0.121246 0.000000 0.328644
0.291077 0.000000 0.353821
0.459869 0.000000 0.359009
0.625793 0.000000 0.362793
0.788055 0.000000 0.365784
0.946869 0.000000 0.368530
1.000000 0.000000 0.370941
0.011932 0.000000 0.335663
0.148804 0.000000 0.358429
0.314209 0.000000 0.369995
0.485626 0.000000 0.378876
0.656891 0.000000 0.388000
0.827637 0.000000 0.399323
0.999664 0.000000 0.414734
1.000000 0.000000 0.438629
0.028229 0.066315 0.335693
0.159271 0.089905 0.359100
0.320129 0.100555 0.370453
0.488098 0.105560 0.377716
0.654999 0.108246 0.384003
0.819519 0.109497 0.390381
0.982208 0.109558 0.397522
1.000000 0.108459 0.405487
0.053070 0.211945 0.335388
0.176300 0.239410 0.360229
0.332855 0.252106 0.372498
0.497559 0.258636 0.379852
0.661835 0.262695 0.385559
0.824188 0.265259 0.390839
0.984283 0.266846 0.396240
1.000000 0.267761 0.401978
0.082336 0.364868 0.333557
0.198975 0.395325 0.360077
0.348877 0.410797 0.373840
0.509949 0.418915 0.381714
0.671875 0.424164 0.387665
0.832428 0.427704 0.392700
0.990753 0.430359 0.397552
1.000000 0.432190 0.402435
0.116425 0.522430 0.330017
0.225037 0.556458 0.358337
0.368256 0.574738 0.373962
0.524750 0.584778 0.382904
0.683990 0.591217 0.389191
0.842682 0.595703 0.394379
0.999542 0.599121 0.399048
1.000000 0.601807 0.403595
0.152466 0.684540 0.325226
0.254242 0.721619 0.355133
0.389954 0.743011 0.372650
0.541718 0.755219 0.382965
0.698120 0.762878 0.389923
0.854614 0.768402 0.395447
1.000000 0.772644 0.400238
1.000000 0.775970 0.404694
0.190460 0.850250 0.318939
0.285919 0.890381 0.350555
0.414368 0.914856 0.369934
0.560852 0.929291 0.381622
0.713715 0.938629 0.389526
0.867920 0.945221 0.395538
1.000000 0.950287 0.400635
1.000000 0.954315 0.405212
0.014099 0.000000 0.279144
0.144745 0.000000 0.428040
0.308014 0.000000 0.480286
0.471375 0.000000 0.487213
0.634460 0.000000 0.491943
0.794922 0.000000 0.495636
0.952637 0.000000 0.498718
1.000000 0.000000 0.501526
0.060883 0.000000 0.458771
0.180786 0.000000 0.485565
0.335938 0.000000 0.500580
0.501923 0.000000 0.511169
0.670563 0.000000 0.521851
0.840027 0.000000 0.534515
1.000000 0.000000 0.552063
1.000000 0.000000 0.577972
0.070221 0.055939 0.457581
0.187988 0.082764 0.484680
0.339050 0.096130 0.499023
0.501556 0.102905 0.507996
0.665314 0.106567 0.515259
0.828308 0.108307 0.522369
0.989838 0.108673 0.529999
1.000000 0.107849 0.538483
0.089844 0.202484 0.457977
0.203125 0.232422 0.485840
0.350494 0.247986 0.500824
0.509674 0.256439 0.509674
0.671478 0.261261 0.516479
0.832092 0.264496 0.522461
0.990936 0.266479 0.528290
1.000000 0.267639 0.534424
0.115540 0.355835 0.457184
0.222931 0.389069 0.486298
0.365326 0.406952 0.502380
0.521576 0.416748 0.511871
0.680969 0.422882 0.518677
0.839752 0.427063 0.524384
0.997223 0.430054 0.529724
1.000000 0.432220 0.535004
0.144592 0.514740 0.455200
0.246857 0.550629 0.485474
0.383545 0.571136 0.503052
0.535919 0.582703 0.513458
0.692810 0.590027 0.520691
0.849854 0.595093 0.526489
1.000000 0.598969 0.531647
1.000000 0.601898 0.536621
0.177216 0.677612 0.451752
0.273865 0.716339 0.483459
0.404541 0.739502 0.502533
0.552551 0.753052 0.514130
0.706360 0.761780 0.521973
0.861450 0.767883 0.528168
1.000000 0.772491 0.533356
1.000000 0.776093 0.538208
0.212036 0.844116 0.447113
0.303589 0.885437 0.480011
0.427917 0.911438 0.500885
0.571075 0.927155 0.513763
0.721832 0.937378 0.522491
0.874512 0.944550 0.529114
1.000000 0.950073 0.534698
1.000000 0.954407 0.539551
0.050446 0.000000 0.357452
0.171265 0.000000 0.522034
0.326019 0.000000 0.601044
0.485291 0.000000 0.615936
0.644745 0.000000 0.621857
0.803070 0.000000 0.626282
0.959442 0.000000 0.629944
1.000000 0.000000 0.633087
0.109161 0.000000 0.584351
0.217285 0.000000 0.614380
0.361481 0.000000 0.632324
0.521942 0.000000 0.645508
0.687561 0.000000 0.657959
0.856232 0.000000 0.672791
1.000000 0.000000 0.692932
1.000000 0.000000 0.720001
0.113068 0.044983 0.580872
0.219940 0.074341 0.611023
0.361206 0.090576 0.628265
0.517731 0.099091 0.639191
0.678345 0.103638 0.647797
0.839081 0.106140 0.655731
0.999084 0.106995 0.663879
1.000000 0.106415 0.672913
0.129089 0.191895 0.581299
0.232758 0.224365 0.611755
0.371124 0.242767 0.629578
0.524872 0.252869 0.640259
0.683075 0.259033 0.648193
0.841644 0.262909 0.654877
0.999329 0.265350 0.661469
1.000000 0.266846 0.667938
0.150543 0.346100 0.581238
0.250702 0.381287 0.612518
0.384888 0.401886 0.631134
0.535828 0.413574 0.642365
0.692078 0.420776 0.650299
0.848846 0.425751 0.656769
1.000000 0.429321 0.662628
1.000000 0.431793 0.668304
0.176178 0.505646 0.580261
0.272461 0.543335 0.612335
0.402191 0.566223 0.632172
0.549622 0.579529 0.644165
0.703400 0.588043 0.652527
0.858398 0.593933 0.659027
1.000000 0.598297 0.664703
1.000000 0.601624 0.670074
0.205170 0.669464 0.578033
0.297028 0.709656 0.611206
0.422058 0.734833 0.632172
0.565613 0.750061 0.645325
0.716614 0.759796 0.654175
0.869690 0.766754 0.661011
1.000000 0.771820 0.666748
1.000000 0.775879 0.672028
0.236633 0.836823 0.574646
0.324646 0.879333 0.608826
0.444244 0.907013 0.631256
0.583496 0.924255 0.645508
0.731598 0.935486 0.655182
0.882538 0.943451 0.662537
1.000000 0.949432 0.668549
1.000000 0.954193 0.673859
0.085876 0.000000 0.436401
0.199188 0.000000 0.612762
0.344269 0.000000 0.709930
0.501251 0.000000 0.744965
0.656891 0.000000 0.752167
0.812714 0.000000 0.757477
0.967316 0.000000 0.761749
1.000000 0.000000 0.765350
0.158630 0.000000 0.712677
0.258453 0.000000 0.745422
0.393005 0.000000 0.766846
0.546814 0.000000 0.782227
0.709045 0.000000 0.796967
0.876587 0.000000 0.814148
1.000000 0.000000 0.837646
1.000000 0.000000 0.853729
0.156555 0.033447 0.705627
0.254425 0.064880 0.738159
0.386688 0.083527 0.758270
0.536987 0.093903 0.771332
0.693390 0.099915 0.781158
0.851624 0.103180 0.790070
1.000000 0.104401 0.799072
1.000000 0.104187 0.808716
0.168793 0.180817 0.705475
0.264801 0.215271 0.738220
0.394775 0.236237 0.758698
0.542328 0.248413 0.771332
0.696808 0.255798 0.780609
0.852966 0.260529 0.788300
1.000000 0.263672 0.795380
1.000000 0.265503 0.802460
0.187042 0.335541 0.705841
0.280945 0.372498 0.739105
0.407501 0.395538 0.760132
0.552551 0.409302 0.773285
0.705017 0.417908 0.782410
0.859344 0.423737 0.789703
1.000000 0.427856 0.796265
1.000000 0.430786 0.802429
0.209534 0.495758 0.705597
0.300323 0.535034 0.739380
0.423523 0.560150 0.761383
0.565582 0.575500 0.775116
0.715912 0.585266 0.784607
0.868591 0.592072 0.792023
1.000000 0.596985 0.798279
1.000000 0.600800 0.804108
0.235565 0.660217 0.704224
0.323181 0.701752 0.738892
0.442108 0.729065 0.761780
0.580872 0.746063 0.776459
0.728668 0.757141 0.786499
0.879578 0.764954 0.794250
1.000000 0.770721 0.800568
1.000000 0.775177 0.806244
0.264069 0.828369 0.701904
0.348541 0.872009 0.737274
0.463165 0.901520 0.761414
0.598328 0.920410 0.777100
0.743195 0.932861 0.787903
0.891998 0.941711 0.795990
1.000000 0.948303 0.802612
1.000000 0.953491 0.808350
