Deploy/Assets/LUTs/Cool.CUBE
#Created by: Adobe Photoshop Export Color Lookup Plugin
TITLE "Untitled-1"
#LUT size
LUT_3D_SIZE 8
#data domain
#LUT data points
DOMAIN_MIN 0.000000 0.000000 0.000000
DOMAIN_MAX 0.903226 0.903226 0.903226
0.000000 0.000000 0.000000
0.050964 0.006531 0.015656
0.135864 0.010559 0.032959
0.239807 0.014038 0.054565
0.358185 0.017151 0.080963
0.488373 0.019653 0.111450
0.628632 0.021790 0.141663
0.778412 0.023865 0.168121
0.001526 0.136261 0.045471
0.056458 0.141418 0.062164
0.143768 0.144257 0.077667
0.249756 0.146820 0.097717
0.370728 0.148468 0.122284
0.504028 0.149475 0.149353
0.648468 0.149872 0.176331
0.803284 0.149811 0.203217
0.002747 0.262390 0.107330
0.058685 0.268158 0.119812
0.147034 0.270660 0.131866
0.253357 0.273285 0.146057
0.374176 0.275452 0.163330
0.507172 0.277344 0.181549
0.650726 0.278931 0.202209
0.803833 0.280212 0.223206
0.003693 0.383667 0.169830
0.059845 0.389923 0.180176
0.149200 0.392334 0.187439
0.256256 0.395081 0.197021
0.377686 0.397583 0.208801
0.510986 0.399872 0.222626
0.654785 0.401947 0.237793
0.808105 0.403809 0.254303
0.004700 0.502563 0.223083
0.060150 0.510071 0.233429
0.150970 0.511780 0.238342
0.258820 0.514404 0.245697
0.380890 0.517029 0.254791
0.514648 0.519592 0.265106
0.658844 0.521942 0.277039
0.812469 0.524109 0.290100
0.005798 0.619812 0.271637
0.059906 0.628754 0.283356
0.152374 0.629700 0.285919
0.261108 0.632172 0.291748
0.383850 0.634735 0.298889
0.518127 0.637360 0.307495
0.662781 0.639832 0.317017
0.816772 0.642181 0.327881
0.006927 0.735687 0.317047
0.058502 0.746918 0.330444
0.153015 0.746613 0.331360
0.263062 0.748627 0.335632
0.386322 0.751129 0.341797
0.521301 0.753723 0.348846
0.666504 0.756226 0.356995
0.820862 0.758698 0.365967
0.008118 0.850525 0.359924
0.055786 0.864777 0.376312
0.153351 0.862610 0.374817
0.264557 0.864166 0.378082
0.388824 0.866425 0.383026
0.524261 0.868958 0.389130
0.669983 0.871521 0.395996
0.824768 0.874084 0.403961
0.000000 0.001862 0.220520
0.046051 0.009369 0.249908
0.132660 0.011536 0.253815
0.237671 0.014862 0.259796
0.357147 0.018402 0.267273
0.488647 0.021820 0.275940
0.630676 0.025177 0.285767
0.782135 0.028381 0.296478
0.001343 0.136108 0.255432
0.051666 0.144684 0.266388
0.140533 0.146179 0.270386
0.247925 0.148407 0.277008
0.369781 0.150635 0.285370
0.504761 0.152283 0.296021
0.650391 0.153748 0.307922
0.807251 0.154327 0.321594
0.003021 0.263824 0.273285
0.055084 0.272705 0.284149
0.145508 0.273895 0.287537
0.253204 0.276398 0.293457
0.375214 0.278992 0.300842
0.509583 0.281250 0.309662
0.654297 0.283569 0.319702
0.808990 0.285431 0.331207
0.004791 0.387421 0.295990
0.057373 0.396942 0.307617
0.149414 0.397827 0.309937
0.258179 0.400116 0.315125
0.380707 0.402771 0.321747
0.515137 0.405304 0.329681
0.660187 0.407654 0.338837
0.814606 0.409973 0.348907
0.006500 0.508179 0.322693
0.058899 0.518799 0.335358
0.152802 0.518890 0.336700
0.262421 0.521088 0.341339
0.385620 0.523682 0.347290
0.520599 0.526276 0.354401
0.665863 0.528809 0.362488
0.820557 0.531189 0.371582
0.008209 0.626740 0.352753
0.058899 0.639313 0.366974
0.155304 0.638184 0.366608
0.266083 0.640045 0.370544
0.390015 0.642517 0.375824
0.525421 0.645142 0.382263
0.671265 0.647614 0.389587
0.826141 0.650177 0.397736
0.009888 0.743652 0.384338
0.058014 0.758575 0.400818
0.157074 0.755981 0.398895
0.268982 0.757477 0.402069
0.393768 0.759827 0.406738
0.529846 0.762299 0.412384
0.676117 0.764893 0.419006
0.831390 0.767426 0.426300
0.011597 0.859222 0.417175
0.054810 0.877869 0.437073
0.157928 0.872803 0.432556
0.271301 0.873810 0.434753
0.397125 0.875824 0.438843
0.533844 0.878235 0.443939
0.680450 0.880798 0.449921
0.836334 0.883392 0.456512
0.000000 0.006073 0.352142
0.031891 0.022064 0.408081
0.124115 0.016663 0.405396
0.232178 0.017090 0.409241
0.352936 0.019958 0.413300
0.485413 0.023132 0.418182
0.628265 0.026520 0.423859
0.780487 0.029999 0.430206
0.001068 0.136169 0.402649
0.037537 0.155212 0.421478
0.132355 0.150482 0.418121
0.241730 0.151184 0.421356
0.364746 0.152863 0.426392
0.500305 0.154541 0.432892
0.647278 0.155731 0.440979
0.804321 0.156769 0.449829
0.002899 0.264069 0.414398
0.040955 0.283142 0.433502
0.137726 0.278320 0.429657
0.247864 0.279175 0.432312
0.371155 0.281219 0.436676
0.506287 0.283417 0.442230
0.652191 0.285553 0.448761
0.807495 0.287628 0.456177
0.004883 0.388306 0.428162
0.043121 0.408142 0.448364
0.142517 0.402557 0.443634
0.253571 0.403442 0.445801
0.377472 0.405487 0.449921
0.513062 0.407745 0.455017
0.658691 0.410187 0.460907
0.814056 0.412537 0.467682
0.006958 0.509827 0.444580
0.043854 0.531555 0.466522
0.146362 0.524536 0.460236
0.258698 0.525116 0.462097
0.383392 0.527130 0.465851
0.519287 0.529480 0.470551
0.665649 0.531921 0.476196
0.821045 0.534393 0.482513
0.009094 0.629303 0.463348
0.043304 0.653564 0.487732
0.149445 0.644714 0.479492
0.263245 0.644958 0.480927
0.388763 0.646790 0.484283
0.525421 0.649109 0.488831
0.671997 0.651581 0.494080
0.827789 0.654114 0.499969
0.011230 0.747131 0.484344
0.040466 0.775543 0.512482
0.151978 0.763458 0.501282
0.267090 0.763306 0.502136
0.393616 0.764923 0.505157
0.530853 0.767181 0.509277
0.678040 0.769623 0.514221
0.834229 0.772125 0.519806
0.013367 0.863586 0.507263
0.035950 0.897186 0.540131
0.153412 0.881226 0.525177
0.270264 0.880463 0.525299
0.397827 0.881836 0.527985
0.535797 0.883972 0.531769
0.683533 0.886322 0.536438
0.840302 0.888794 0.541595
0.000000 0.011444 0.460541
0.007629 0.048798 0.552979
0.107330 0.027832 0.539001
0.219452 0.024200 0.539337
0.344635 0.023285 0.543518
0.479218 0.025177 0.547211
0.622986 0.028137 0.551178
0.776062 0.031342 0.555542
0.000671 0.136658 0.531097
0.013000 0.177368 0.566467
0.116791 0.159088 0.551788
0.230225 0.156403 0.551239
0.355408 0.156616 0.554047
0.492462 0.157440 0.558777
0.639709 0.158661 0.564392
0.797546 0.159363 0.571411
0.002563 0.264130 0.541229
0.016632 0.303497 0.576324
0.122528 0.286346 0.561737
0.237274 0.283783 0.560669
0.363007 0.284302 0.562988
0.499512 0.285828 0.566742
0.646057 0.287750 0.571381
0.802246 0.289581 0.576874
0.004669 0.388397 0.551910
0.019958 0.426910 0.586731
0.127319 0.410675 0.572693
0.243408 0.408020 0.571198
0.369720 0.408661 0.573181
0.506683 0.410309 0.576569
0.653412 0.412323 0.580811
0.809540 0.414490 0.585785
0.006927 0.510254 0.563965
0.023254 0.548157 0.598511
0.131653 0.532715 0.585083
0.248962 0.529968 0.583344
0.376251 0.530518 0.585114
0.513641 0.532227 0.588226
0.660828 0.534363 0.592285
0.817200 0.536591 0.596985
0.009277 0.630127 0.577637
0.026428 0.667572 0.611847
0.134827 0.653381 0.599396
0.253937 0.650146 0.597198
0.382111 0.650635 0.598694
0.520264 0.652283 0.601685
0.667908 0.654358 0.605438
0.824646 0.656677 0.609894
0.011658 0.748474 0.592896
0.029602 0.785583 0.626740
0.137360 0.772736 0.615509
0.258301 0.768982 0.612762
0.387482 0.769287 0.614014
0.526398 0.770782 0.616669
0.674683 0.772888 0.620331
0.831818 0.775146 0.624542
0.014099 0.865509 0.609589
0.032715 0.902283 0.643127
0.138855 0.891205 0.633484
0.262024 0.886658 0.630035
0.392395 0.886658 0.630920
0.532135 0.888031 0.633453
0.681122 0.890015 0.636841
0.838654 0.892334 0.640900
0.000000 0.020172 0.545471
0.005615 0.052185 0.665985
0.078827 0.048065 0.664917
0.199127 0.036163 0.658508
0.327271 0.032532 0.660248
0.466888 0.030487 0.664978
0.615021 0.030579 0.669769
0.769135 0.033203 0.672913
0.000183 0.137726 0.647888
0.011841 0.178284 0.680878
0.089752 0.175385 0.679230
0.212616 0.164917 0.672119
0.341492 0.162506 0.672638
0.480072 0.162262 0.675446
0.628510 0.162720 0.679688
0.787384 0.163025 0.685364
0.002106 0.264404 0.657715
0.015900 0.303711 0.690430
0.095947 0.301300 0.688873
0.220642 0.291199 0.681396
0.349854 0.289429 0.681213
0.488556 0.289642 0.683411
0.636597 0.290833 0.686768
0.793945 0.292145 0.691040
0.004333 0.388428 0.667084
0.019409 0.426941 0.699432
0.100586 0.425293 0.698486
0.227295 0.415039 0.690643
0.357361 0.413361 0.690277
0.496460 0.413818 0.692047
0.644684 0.415161 0.695099
0.801819 0.416901 0.698853
0.006653 0.510345 0.677032
0.022858 0.548248 0.709290
0.104340 0.547546 0.709045
0.232941 0.537018 0.700714
0.364136 0.535248 0.700104
0.503937 0.535706 0.701752
0.652649 0.537140 0.704559
0.810028 0.538971 0.708160
0.009125 0.630432 0.688049
0.026245 0.667908 0.720032
0.106842 0.668671 0.721008
0.238098 0.657349 0.711975
0.370453 0.655457 0.711182
0.510895 0.655914 0.712646
0.660217 0.657288 0.715271
0.817963 0.659210 0.718567
0.011719 0.749084 0.700134
0.029663 0.786133 0.731964
0.108704 0.788574 0.734283
0.242645 0.776459 0.724457
0.376160 0.774323 0.723358
0.517456 0.774719 0.724701
0.667389 0.776031 0.727142
0.825684 0.777893 0.730377
0.014343 0.866394 0.713379
0.032990 0.903137 0.744995
0.109161 0.907928 0.749268
0.246582 0.894409 0.738251
0.381439 0.892029 0.736908
0.523682 0.892212 0.737976
0.674255 0.893555 0.740295
0.833069 0.895386 0.743378
0.000000 0.030273 0.619171
0.003082 0.057404 0.769989
0.020203 0.096802 0.800049
0.170074 0.053772 0.771423
0.303467 0.045349 0.769684
0.445160 0.041443 0.772278
0.597229 0.038574 0.777405
0.759430 0.036072 0.783966
0.000000 0.139557 0.751740
0.010315 0.179901 0.787445
0.029755 0.218323 0.817017
0.187286 0.177582 0.787720
0.321747 0.171173 0.784637
0.463013 0.169159 0.785492
0.613434 0.168365 0.788483
0.773163 0.168182 0.792755
0.001587 0.264832 0.766632
0.014923 0.304199 0.797394
0.034576 0.342529 0.827393
0.196320 0.302521 0.797363
0.331909 0.296539 0.793793
0.473541 0.295105 0.794159
0.623688 0.295074 0.796265
0.782074 0.295868 0.799408
0.003876 0.388580 0.775360
0.018707 0.427063 0.805969
0.038483 0.465332 0.836243
0.203003 0.426025 0.805939
0.339874 0.420105 0.802185
0.482117 0.418732 0.802246
0.632538 0.418976 0.804047
0.791077 0.420105 0.806824
0.006287 0.510406 0.784210
0.022339 0.548309 0.814728
0.042847 0.586029 0.844849
0.208771 0.547760 0.815033
0.346863 0.541870 0.811035
0.489990 0.540497 0.810883
0.640869 0.540894 0.812469
0.799744 0.542053 0.815033
0.008820 0.630554 0.793701
0.025848 0.667969 0.824036
0.047058 0.705292 0.854034
0.213837 0.668152 0.824799
0.353363 0.662048 0.820526
0.497375 0.660645 0.820282
0.648834 0.661011 0.821747
0.808105 0.662292 0.824127
0.011505 0.749329 0.803925
0.029388 0.786377 0.834106
0.051178 0.823303 0.863953
0.218292 0.787323 0.835510
0.359283 0.780975 0.830963
0.504272 0.779480 0.830566
0.656372 0.779846 0.831879
0.816193 0.781067 0.834106
0.014252 0.866791 0.815033
0.032928 0.903564 0.845032
0.055267 0.940216 0.874756
0.222046 0.905548 0.847198
0.364777 0.898834 0.842285
0.510651 0.897247 0.841705
0.663605 0.897491 0.842926
0.823883 0.898712 0.845032
0.000000 0.042480 0.680420
0.000763 0.063843 0.867523
0.013428 0.105652 0.897339
0.129089 0.079437 0.881622
0.271698 0.062927 0.873535
0.417023 0.055847 0.873749
0.571442 0.051025 0.877594
0.734741 0.047455 0.882965
0.000000 0.142883 0.839874
0.008636 0.181946 0.888245
0.025604 0.222046 0.917480
0.149231 0.197968 0.901215
0.295319 0.183167 0.892181
0.441254 0.178040 0.890869
0.594208 0.175781 0.892303
0.755035 0.174835 0.895264
0.001007 0.265686 0.869568
0.013763 0.304962 0.898865
0.032349 0.343933 0.927948
0.159332 0.320953 0.911713
0.307404 0.306732 0.902252
0.453888 0.302338 0.900330
0.606812 0.300842 0.901062
0.766907 0.300720 0.903076
0.003296 0.388916 0.878113
0.017853 0.427368 0.907288
0.037476 0.465637 0.936279
0.166321 0.443512 0.920227
0.315948 0.429626 0.910522
0.463287 0.425415 0.908356
0.616608 0.424164 0.908752
0.776917 0.424347 0.910431
0.005798 0.510498 0.886414
0.021637 0.548431 0.915466
0.042023 0.586151 0.944305
0.171783 0.565063 0.928711
0.323181 0.551086 0.918732
0.471558 0.546875 0.916382
0.625427 0.545776 0.916626
0.786194 0.546051 0.918121
0.008453 0.630615 0.894928
0.025299 0.668030 0.923920
0.046417 0.705353 0.952637
0.176544 0.685333 0.937714
0.329773 0.671173 0.927399
0.479187 0.666962 0.924866
0.633575 0.665863 0.924896
0.795013 0.666168 0.926361
0.011200 0.749359 0.904022
0.028961 0.786469 0.932861
0.050690 0.823395 0.961426
0.180450 0.804688 0.947418
0.335724 0.790100 0.936646
0.486206 0.785828 0.933990
0.641479 0.784668 0.933960
0.803345 0.784943 0.935211
0.014008 0.866943 0.913666
0.032623 0.903748 0.942413
0.054932 0.940369 0.970856
0.183289 0.923279 0.957977
0.341187 0.908081 0.946625
0.492798 0.903564 0.943756
0.648926 0.902405 0.943634
0.811432 0.902618 0.944794
0.000000 0.054260 0.740784
0.000000 0.073578 0.940338
0.009369 0.112061 0.989410
0.062592 0.124420 0.999176
0.232941 0.084259 0.975433
0.383240 0.073029 0.971619
0.539429 0.066589 0.972961
0.703613 0.061981 0.976776
0.000000 0.147064 0.921448
0.006744 0.184570 0.984253
0.025208 0.225616 1.000000
0.087097 0.239838 1.000000
0.260803 0.199310 0.997345
0.413635 0.189667 0.992493
0.570313 0.185120 0.992218
0.732788 0.183105 0.993774
0.000458 0.266693 0.967804
0.012482 0.306061 0.995911
0.037018 0.345215 1.000000
0.102417 0.359741 1.000000
0.274658 0.323120 1.000000
0.427734 0.313293 1.000000
0.584167 0.309448 1.000000
0.744873 0.309021 1.000000
0.002716 0.389374 0.976410
0.018250 0.427429 1.000000
0.048889 0.463318 1.000000
0.116821 0.478180 1.000000
0.286865 0.445709 1.000000
0.437866 0.437744 1.000000
0.591583 0.435516 1.000000
0.749176 0.436462 1.000000
0.005249 0.510681 0.984314
0.026367 0.546112 1.000000
0.063568 0.578125 1.000000
0.134491 0.593292 1.000000
0.301514 0.565125 1.000000
0.450134 0.559143 1.000000
0.601074 0.558533 1.000000
0.755066 0.561157 1.000000
0.007935 0.630676 0.992279
0.037628 0.661011 1.000000
0.083496 0.688538 1.000000
0.158508 0.703644 1.000000
0.321747 0.680389 1.000000
0.467682 0.676697 1.000000
0.615387 0.677979 1.000000
0.764771 0.682739 1.000000
0.011139 0.749115 1.000000
0.054504 0.771118 1.000000
0.112183 0.793060 1.000000
0.193695 0.807343 1.000000
0.352112 0.789886 1.000000
0.495422 0.788727 1.000000
0.639587 0.792267 1.000000
0.782990 0.799744 1.000000
0.022675 0.859711 1.000000
0.081146 0.874512 1.000000
0.155975 0.889221 1.000000
0.249481 0.900513 1.000000
0.401398 0.890320 1.000000
0.543182 0.891693 1.000000
0.685516 0.897308 1.000000
0.822845 0.907867 1.000000
