Deploy/Assets/LUTs/Cool.CUBE
#Created by: Adobe Photoshop Export Color Lookup Plugin
TITLE "Untitled-1"
#LUT size
LUT_3D_SIZE 5
#data domain
#LUT data points
DOMAIN_MIN 0.000000 0.000000 0.000000
DOMAIN_MAX 0.903226 0.903226 0.903226
0.000000 0.000000 0.000000
0.112549 0.009644 0.028229
0.297333 0.015625 0.067688
0.522552 0.020203 0.119080
0.778412 0.023865 0.168121
0.002441 0.231415 0.090973
0.122406 0.239044 0.113007
0.311279 0.243378 0.142212
0.541046 0.246552 0.177582
0.803375 0.248383 0.216980
0.004181 0.443359 0.197113
0.125854 0.451630 0.211487
0.316772 0.456299 0.226471
0.547913 0.460571 0.246857
0.810211 0.464264 0.272003
0.006042 0.648895 0.283325
0.127563 0.658661 0.296539
0.321442 0.662689 0.306122
0.554260 0.667206 0.320160
0.817841 0.671478 0.337372
0.008118 0.850525 0.359924
0.127808 0.862518 0.374359
0.325104 0.865234 0.380371
0.559753 0.869598 0.390869
0.824768 0.874084 0.403961
0.000000 0.004395 0.324310
0.102631 0.014893 0.369019
0.292511 0.017822 0.375916
0.521271 0.023651 0.385468
0.781250 0.029663 0.397552
0.002472 0.232513 0.377197
0.114166 0.245331 0.391479
0.308197 0.247772 0.397797
0.541595 0.251648 0.408691
0.807159 0.255127 0.422638
0.005890 0.449127 0.404572
0.121185 0.462494 0.419220
0.318237 0.464630 0.424042
0.552612 0.468903 0.433411
0.817993 0.473206 0.445313
0.009460 0.658447 0.440308
0.125977 0.673157 0.455994
0.326599 0.674438 0.459503
0.563049 0.678497 0.467651
0.829529 0.682922 0.478180
0.013062 0.862793 0.482849
0.128052 0.879852 0.500458
0.333405 0.879578 0.502014
0.571930 0.883362 0.509033
0.839874 0.887695 0.518341
0.000000 0.015594 0.504700
0.066101 0.041595 0.605072
0.272095 0.028168 0.601135
0.510162 0.027252 0.608856
0.772888 0.032166 0.615112
0.001831 0.232758 0.598206
0.080048 0.265259 0.626312
0.290436 0.255035 0.619781
0.528412 0.256378 0.624695
0.796722 0.258972 0.632965
0.005646 0.449646 0.615631
0.086853 0.482452 0.644714
0.302094 0.471832 0.636932
0.541809 0.473511 0.640930
0.809906 0.476959 0.647827
0.009827 0.660095 0.636597
0.090759 0.694824 0.667542
0.312073 0.682648 0.657990
0.554047 0.684143 0.661438
0.823639 0.687683 0.667725
0.014282 0.866058 0.661621
0.090698 0.904694 0.695953
0.320313 0.889374 0.683563
0.565002 0.890472 0.686340
0.836243 0.893829 0.692047
0.000000 0.033386 0.634521
0.012695 0.090210 0.818359
0.228668 0.052765 0.796783
0.476135 0.043701 0.799255
0.753571 0.038757 0.809143
0.000916 0.233856 0.790588
0.027161 0.302795 0.843658
0.255096 0.270386 0.820465
0.503632 0.265198 0.819397
0.776337 0.265472 0.824036
0.004944 0.449738 0.805847
0.035126 0.516388 0.858429
0.268280 0.485748 0.835388
0.519073 0.481171 0.833527
0.792267 0.482239 0.836975
0.009399 0.660370 0.821777
0.042267 0.725616 0.873932
0.278564 0.696564 0.851654
0.532440 0.691803 0.849274
0.807251 0.692963 0.852325
0.014221 0.866852 0.839966
0.049316 0.931122 0.891693
0.287323 0.903717 0.870483
0.544464 0.898499 0.867523
0.821106 0.899628 0.870148
0.000000 0.054260 0.740784
0.005798 0.101959 0.982086
0.155457 0.095795 0.981445
0.421722 0.071014 0.971741
0.703613 0.061981 0.976776
0.000031 0.235992 0.965210
0.027466 0.305389 1.000000
0.192535 0.303131 1.000000
0.464172 0.280243 1.000000
0.743835 0.276733 1.000000
0.003967 0.450195 0.980408
0.046509 0.512695 1.000000
0.216827 0.514191 1.000000
0.481354 0.498077 1.000000
0.751892 0.499115 1.000000
0.008667 0.660492 0.994354
0.076599 0.708740 1.000000
0.253815 0.713837 1.000000
0.509796 0.705475 1.000000
0.768097 0.712463 1.000000
0.022675 0.859711 1.000000
0.136017 0.885529 1.000000
0.330017 0.892029 1.000000
0.578888 0.892670 1.000000
0.822845 0.907867 1.000000
