Deploy/Assets/LUTs/Cool.CUBE
#Created by: Adobe Photoshop Export Color Lookup Plugin
TITLE "Untitled-1"
#LUT size
LUT_3D_SIZE 32
#data domain
DOMAIN_MIN 0.0 0.0 0.0
DOMAIN_MAX 1.0 1.0 1.0
#LUT data points
0.000000 0.000000 0.000000
0.006805 0.002899 0.005341
0.018860 0.004211 0.008759
0.033539 0.005646 0.012817
0.050964 0.006531 0.015656
0.069855 0.007782 0.019012
0.090454 0.008759 0.023499
0.112549 0.009644 0.028229
0.135864 0.010559 0.032959
0.160309 0.011475 0.038055
0.185699 0.012421 0.043182
0.212341 0.013245 0.048187
0.239807 0.014038 0.054565
0.268158 0.014862 0.060944
0.297333 0.015625 0.067688
0.327362 0.016418 0.073578
0.358185 0.017151 0.080963
0.389587 0.017761 0.089111
0.421967 0.018402 0.096100
0.454834 0.019043 0.103516
0.488373 0.019653 0.111450
0.522552 0.020203 0.119080
0.557312 0.020752 0.126923
0.592712 0.021271 0.134369
0.628632 0.021790 0.141663
0.665253 0.022339 0.148193
0.702454 0.022888 0.154938
0.740143 0.023346 0.161591
0.778412 0.023865 0.168121
0.817200 0.024384 0.174744
0.856476 0.024933 0.180786
0.896332 0.025421 0.187073
0.000488 0.035675 0.014557
0.008301 0.037964 0.018921
0.020294 0.039520 0.024872
0.035736 0.040405 0.027222
0.053406 0.041138 0.030365
0.072662 0.041962 0.034912
0.093567 0.042847 0.038361
0.116333 0.043121 0.044495
0.139679 0.044128 0.049042
0.164734 0.044525 0.055054
0.190826 0.045044 0.060883
0.218140 0.045410 0.067047
0.246216 0.045898 0.073242
0.275604 0.045929 0.081482
0.305420 0.046295 0.088989
0.335968 0.046692 0.095886
0.368103 0.046692 0.103027
0.400665 0.046631 0.111938
0.433990 0.046753 0.119537
0.468628 0.046265 0.129120
0.503601 0.046051 0.136963
0.539276 0.045715 0.145477
0.575745 0.045288 0.153748
0.612976 0.044800 0.162140
0.650391 0.044617 0.170013
0.688843 0.044250 0.177246
0.726318 0.044678 0.183838
0.764374 0.045197 0.190033
0.803009 0.045715 0.195709
0.842102 0.046204 0.202240
0.881805 0.046753 0.207947
0.921967 0.047272 0.213501
0.000916 0.069580 0.025787
0.009094 0.071838 0.031281
0.021484 0.073334 0.034973
0.037140 0.074219 0.037292
0.054901 0.074951 0.041382
0.074707 0.075500 0.044952
0.095642 0.076355 0.049347
0.118195 0.076965 0.053894
0.141632 0.077972 0.058319
0.166962 0.078186 0.064331
0.193085 0.078735 0.069946
0.220123 0.079346 0.075531
0.248444 0.079590 0.082550
0.277313 0.080139 0.088715
0.307434 0.080383 0.096283
0.338501 0.080444 0.103943
0.370056 0.080780 0.110535
0.402710 0.080811 0.118317
0.436401 0.080536 0.126953
0.470215 0.080658 0.134125
0.504883 0.080658 0.141754
0.540894 0.080200 0.149994
0.577789 0.079620 0.158356
0.614471 0.079468 0.166534
0.653229 0.078552 0.175110
0.691406 0.078278 0.182922
0.730621 0.077759 0.190735
0.770599 0.077179 0.198608
0.811340 0.076569 0.206238
0.853027 0.075592 0.214600
0.895111 0.074768 0.222626
0.938049 0.073914 0.230072
0.001221 0.103333 0.034515
0.009796 0.105255 0.040802
0.022003 0.107147 0.044891
0.037750 0.107910 0.046906
0.055695 0.108673 0.049835
0.075165 0.109467 0.053894
0.096161 0.110291 0.058105
0.119049 0.110779 0.062500
0.142487 0.111664 0.066895
0.167755 0.112030 0.072540
0.193848 0.112610 0.077820
0.220856 0.113281 0.082947
0.248810 0.113800 0.089050
0.278076 0.114075 0.095398
0.307770 0.114563 0.102051
0.338776 0.114685 0.109161
0.370056 0.115295 0.115143
0.402405 0.115540 0.122345
0.435699 0.115540 0.130127
0.469513 0.115662 0.137085
0.503906 0.115906 0.143585
0.539337 0.115753 0.151489
0.575012 0.115936 0.158325
0.611664 0.115753 0.166351
0.649658 0.115265 0.174011
0.687469 0.115234 0.181305
0.726563 0.114960 0.188416
0.765991 0.114655 0.195709
0.806030 0.114288 0.203156
0.847229 0.113678 0.210968
0.888733 0.113159 0.218506
0.930847 0.112671 0.225281
0.001526 0.136261 0.045471
0.010040 0.138550 0.052246
0.022797 0.139923 0.054779
0.038452 0.140717 0.059540
0.056458 0.141418 0.062164
0.076019 0.142212 0.066193
0.097168 0.143005 0.069336
0.119751 0.143738 0.072815
0.143768 0.144257 0.077667
0.168793 0.144836 0.082672
0.194641 0.145691 0.087006
0.221893 0.146179 0.092316
0.249756 0.146820 0.097717
0.278992 0.147125 0.103943
0.308655 0.147644 0.110168
0.339294 0.148071 0.116241
0.370728 0.148468 0.122284
0.402832 0.148834 0.129303
0.436035 0.149017 0.135956
0.469818 0.149170 0.142731
0.504028 0.149475 0.149353
0.539215 0.149506 0.156555
0.574921 0.149689 0.163055
0.611328 0.149902 0.169250
0.648468 0.149872 0.176331
0.686554 0.149719 0.183350
0.724609 0.149933 0.189606
0.763977 0.149658 0.196716
0.803284 0.149811 0.203217
0.843719 0.149536 0.210205
0.884674 0.149414 0.216766
0.926392 0.149078 0.223999
0.001862 0.168365 0.059448
0.010315 0.170959 0.066345
0.023102 0.172272 0.069672
0.039368 0.172760 0.071869
0.057251 0.173737 0.073975
0.077087 0.174286 0.078156
0.098114 0.175323 0.080688
0.120880 0.175842 0.085205
0.144501 0.176697 0.089294
0.169739 0.177155 0.094330
0.195618 0.177948 0.098389
0.222992 0.178345 0.103394
0.250702 0.179138 0.108337
0.279877 0.179504 0.114105
0.309753 0.179993 0.120087
0.340179 0.180511 0.125549
0.371674 0.180847 0.131989
0.403625 0.181366 0.137787
0.436707 0.181610 0.143768
0.470276 0.181946 0.149658
0.504608 0.182098 0.156677
0.539795 0.182343 0.162415
0.575165 0.182831 0.168182
0.611633 0.182861 0.175171
0.648529 0.183075 0.181213
0.686127 0.183167 0.187866
0.724274 0.183411 0.193512
0.763306 0.183411 0.200012
0.802643 0.183441 0.206726
0.842865 0.183411 0.212860
0.883301 0.183472 0.219269
0.924622 0.183441 0.225464
0.002167 0.200134 0.074799
0.010681 0.202850 0.080963
0.023865 0.203827 0.084167
0.039764 0.204773 0.085693
0.057892 0.205444 0.088837
0.077667 0.206238 0.091492
0.099060 0.206879 0.095459
0.121765 0.207611 0.098511
0.145630 0.208313 0.102722
0.170502 0.209076 0.106628
0.196625 0.209717 0.110870
0.223633 0.210419 0.114990
0.251678 0.210876 0.120819
0.280701 0.211487 0.124939
0.310364 0.212006 0.130432
0.341095 0.212372 0.135925
0.372284 0.212952 0.141449
0.404724 0.213165 0.147339
0.437561 0.213593 0.152466
0.470978 0.214050 0.158447
0.505341 0.214325 0.164368
0.540253 0.214752 0.169250
0.575989 0.214996 0.175140
0.612244 0.215179 0.181671
0.649078 0.215485 0.187225
0.686523 0.215729 0.193268
0.724823 0.215912 0.199341
0.763367 0.216156 0.205139
0.802643 0.216309 0.211060
0.842651 0.216400 0.216980
0.883087 0.216492 0.223053
0.924103 0.216553 0.229156
0.002441 0.231415 0.090973
0.010773 0.234589 0.097260
0.024048 0.235474 0.100159
0.040314 0.236145 0.101624
0.058594 0.236816 0.103638
0.078369 0.237549 0.106934
0.099640 0.238281 0.110229
0.122406 0.239044 0.113007
0.146484 0.239594 0.116852
0.171387 0.240356 0.120422
0.197510 0.240997 0.124573
0.224579 0.241730 0.128204
0.252716 0.242218 0.133118
0.281647 0.242767 0.137512
0.311279 0.243378 0.142212
0.341919 0.243866 0.147064
0.373383 0.244263 0.152283
0.405579 0.244751 0.156830
0.438324 0.245209 0.162079
0.471832 0.245728 0.167023
0.506226 0.246155 0.172058
0.541046 0.246552 0.177582
0.576721 0.246796 0.183075
0.612823 0.247162 0.188904
0.649780 0.247467 0.194305
0.687347 0.247650 0.200226
0.725311 0.248047 0.205139
0.763916 0.248352 0.210632
0.803375 0.248383 0.216980
0.842987 0.248718 0.222168
0.883331 0.248901 0.227966
0.924194 0.249146 0.233185
0.002747 0.262390 0.107330
0.011139 0.265625 0.113190
0.024200 0.266724 0.116577
0.040497 0.267395 0.118256
0.058685 0.268158 0.119812
0.078735 0.268707 0.122925
0.100159 0.269440 0.125153
0.122894 0.270111 0.128357
0.147034 0.270660 0.131866
0.172119 0.271271 0.135345
0.198120 0.272034 0.138672
0.225403 0.272614 0.142090
0.253357 0.273285 0.146057
0.282471 0.273773 0.149933
0.312164 0.274353 0.154419
0.342712 0.274994 0.158630
0.374176 0.275452 0.163330
0.406219 0.276062 0.167206
0.439331 0.276428 0.172333
0.472961 0.276855 0.177124
0.507172 0.277344 0.181549
0.542175 0.277710 0.186859
0.577606 0.278229 0.191589
0.613831 0.278564 0.197235
0.650726 0.278931 0.202209
0.688202 0.279236 0.207581
0.726318 0.279541 0.212433
0.764923 0.279877 0.217712
0.803833 0.280212 0.223206
0.843719 0.280457 0.228424
0.884003 0.280701 0.233948
0.924957 0.280914 0.238953
0.002960 0.293030 0.124725
0.011078 0.296539 0.131500
0.024353 0.297668 0.133026
0.040710 0.298096 0.135254
0.058899 0.298859 0.136810
0.079132 0.299347 0.139099
0.100647 0.300079 0.140320
0.123444 0.300781 0.143341
0.147491 0.301483 0.146057
0.172791 0.302002 0.149170
0.198853 0.302734 0.152130
0.225983 0.303467 0.155212
0.254303 0.303925 0.158813
0.283142 0.304626 0.162262
0.313019 0.305176 0.166321
0.343781 0.305786 0.169830
0.375153 0.306366 0.174011
0.407257 0.306854 0.178741
0.440277 0.307312 0.182861
0.473785 0.307892 0.187073
0.507996 0.308411 0.191559
0.542999 0.308838 0.196106
0.578705 0.309204 0.201141
0.614868 0.309662 0.205505
0.651703 0.310028 0.210419
0.689148 0.310425 0.215149
0.727173 0.310852 0.220032
0.765778 0.311249 0.225006
0.804932 0.311554 0.230103
0.844696 0.311829 0.235260
0.884979 0.312134 0.240143
0.925659 0.312439 0.245331
0.003204 0.323425 0.140808
0.010834 0.327545 0.147675
0.024384 0.328339 0.148926
0.040955 0.328735 0.150177
0.059479 0.329193 0.151855
0.079559 0.329865 0.153473
0.101288 0.330383 0.155609
0.123901 0.331360 0.157135
0.148102 0.331909 0.159760
0.173462 0.332489 0.162506
0.199554 0.333252 0.165070
0.226715 0.333923 0.168457
0.254913 0.334534 0.171661
0.283936 0.335083 0.175507
0.313782 0.335785 0.178223
0.344452 0.336365 0.182129
0.376007 0.336914 0.185669
0.408203 0.337463 0.189575
0.441101 0.338013 0.193634
0.474640 0.338623 0.197571
0.509033 0.339081 0.201843
0.544006 0.339539 0.206299
0.579712 0.339966 0.210602
0.616028 0.340424 0.214813
0.652802 0.340912 0.218964
0.690216 0.341339 0.223846
0.728058 0.341797 0.228516
0.766693 0.342224 0.232941
0.805969 0.342529 0.237823
0.845612 0.342926 0.242310
0.885834 0.343262 0.247192
0.926758 0.343536 0.252319
0.003448 0.353577 0.155853
0.010834 0.358154 0.162323
0.024048 0.359131 0.164581
0.041077 0.359161 0.165009
0.059631 0.359741 0.165985
0.079895 0.360199 0.167969
0.101563 0.360870 0.169556
0.124451 0.361542 0.171692
0.148804 0.362152 0.173615
0.174042 0.362823 0.176147
0.200195 0.363556 0.178619
0.227509 0.364166 0.181549
0.255585 0.364838 0.184540
0.284698 0.365448 0.187469
0.314606 0.366058 0.190857
0.345276 0.366760 0.194061
0.376892 0.367310 0.197357
0.408997 0.367981 0.200745
0.442047 0.368500 0.204193
0.475708 0.369019 0.208313
0.510040 0.369598 0.211853
0.545013 0.370056 0.216064
0.580627 0.370575 0.219940
0.616913 0.371155 0.223877
0.653687 0.371552 0.228516
0.691315 0.372009 0.232483
0.729309 0.372437 0.237061
0.767853 0.372864 0.241425
0.807037 0.373322 0.245605
0.846558 0.373688 0.250366
0.886963 0.373993 0.255188
0.927612 0.374481 0.259277
0.003693 0.383667 0.169830
0.010925 0.388458 0.176819
0.024445 0.389191 0.178345
0.041016 0.389587 0.179382
0.059845 0.389923 0.180176
0.080109 0.390503 0.181458
0.101776 0.391113 0.183289
0.124878 0.391785 0.185303
0.149200 0.392334 0.187439
0.174347 0.393066 0.189606
0.200684 0.393738 0.192017
0.227997 0.394470 0.194183
0.256256 0.395081 0.197021
0.285522 0.395660 0.199677
0.315308 0.396423 0.202301
0.346100 0.397003 0.205353
0.377686 0.397583 0.208801
0.409912 0.398163 0.212372
0.442993 0.398743 0.215576
0.476593 0.399353 0.218903
0.510986 0.399872 0.222626
0.545929 0.400452 0.226105
0.581604 0.400970 0.229919
0.617889 0.401489 0.233795
0.654785 0.401947 0.237793
0.692261 0.402435 0.241821
0.730286 0.402924 0.245758
0.768890 0.403412 0.249939
0.808105 0.403809 0.254303
0.847748 0.404236 0.258575
0.888031 0.404663 0.262756
0.928711 0.405090 0.267151
0.003937 0.413544 0.183868
0.010742 0.418884 0.191345
0.023682 0.420166 0.193268
0.041229 0.419739 0.192810
0.060150 0.420013 0.193909
0.080505 0.420563 0.195068
0.102234 0.421173 0.196716
0.125488 0.421692 0.198242
0.149597 0.422455 0.200195
0.174957 0.423065 0.202301
0.201355 0.423737 0.204468
0.228821 0.424377 0.206970
0.256989 0.425049 0.209473
0.286072 0.425812 0.211700
0.316193 0.426361 0.214508
0.347046 0.426971 0.217377
0.378448 0.427643 0.220398
0.410828 0.428223 0.223419
0.443817 0.428833 0.226471
0.477570 0.429443 0.229919
0.511902 0.430023 0.233276
0.547028 0.430634 0.236328
0.582581 0.431183 0.240051
0.618896 0.431702 0.243713
0.655914 0.432159 0.247406
0.693268 0.432678 0.251251
0.731384 0.433167 0.255096
0.769989 0.433655 0.259033
0.809235 0.434082 0.263062
0.848938 0.434540 0.266907
0.889130 0.434967 0.271088
0.929871 0.435425 0.275269
0.004181 0.443359 0.197113
0.010498 0.449280 0.205261
0.023712 0.450165 0.206970
0.041138 0.449890 0.206726
0.060242 0.450104 0.207245
0.080658 0.450592 0.208588
0.102570 0.451111 0.209717
0.125854 0.451630 0.211487
0.150024 0.452362 0.213318
0.175446 0.453003 0.215240
0.201874 0.453674 0.217194
0.229279 0.454346 0.219147
0.257599 0.454987 0.221527
0.286835 0.455627 0.223877
0.316772 0.456299 0.226471
0.347778 0.456909 0.229187
0.379211 0.457581 0.231934
0.411652 0.458191 0.234497
0.444763 0.458771 0.237640
0.478455 0.459381 0.240570
0.512787 0.460022 0.243713
0.547913 0.460571 0.246857
0.583679 0.461121 0.250183
0.620026 0.461670 0.253937
0.656952 0.462219 0.257324
0.694366 0.462738 0.260956
0.732574 0.463257 0.264313
0.771118 0.463776 0.267975
0.810211 0.464264 0.272003
0.850067 0.464722 0.275665
0.890259 0.465149 0.279663
0.931091 0.465607 0.283447
0.004456 0.472992 0.210327
0.010223 0.479614 0.219055
0.023254 0.480591 0.220978
0.040924 0.480072 0.220337
0.060028 0.480255 0.220673
0.080750 0.480469 0.221741
0.102753 0.481018 0.222809
0.126099 0.481476 0.224335
0.150360 0.482208 0.226013
0.175842 0.482788 0.227783
0.202515 0.483368 0.229645
0.229919 0.484100 0.231506
0.258240 0.484772 0.233398
0.287567 0.485352 0.235840
0.317566 0.486053 0.238312
0.348450 0.486694 0.240753
0.380066 0.487366 0.243408
0.412384 0.488068 0.245789
0.445618 0.488586 0.248718
0.479431 0.489197 0.251556
0.513824 0.489838 0.254303
0.548920 0.490387 0.257507
0.584564 0.491028 0.260529
0.620941 0.491608 0.263733
0.657898 0.492126 0.267120
0.695435 0.492645 0.270416
0.733582 0.493164 0.273834
0.772247 0.493713 0.277344
0.811401 0.494293 0.280731
0.851196 0.494690 0.284668
0.891510 0.495178 0.288300
0.932190 0.495697 0.291901
0.004700 0.502563 0.223083
0.009674 0.510132 0.232849
0.022736 0.510956 0.234344
0.040894 0.510010 0.233276
0.060150 0.510071 0.233429
0.080994 0.510315 0.234436
0.103088 0.510773 0.235413
0.126434 0.511292 0.236786
0.150970 0.511780 0.238342
0.176514 0.512390 0.240021
0.202820 0.513184 0.241699
0.230530 0.513733 0.243500
0.258820 0.514404 0.245697
0.288177 0.515106 0.247620
0.318298 0.515686 0.249939
0.349152 0.516418 0.251984
0.380890 0.517029 0.254791
0.413239 0.517731 0.257172
0.446381 0.518341 0.259674
0.480164 0.518921 0.262543
0.514648 0.519592 0.265106
0.549805 0.520172 0.267914
0.585541 0.520782 0.270752
0.621857 0.521393 0.273834
0.658844 0.521942 0.277039
0.696533 0.522461 0.280212
0.734619 0.523041 0.283417
0.773346 0.523529 0.286774
0.812469 0.524109 0.290100
0.852234 0.524597 0.293640
0.892487 0.525116 0.297028
0.933258 0.525665 0.300629
0.004974 0.532013 0.235718
0.009277 0.540314 0.246216
0.022461 0.540955 0.247589
0.040649 0.539917 0.246307
0.060272 0.539764 0.246307
0.081055 0.539978 0.247101
0.103271 0.540405 0.247925
0.126801 0.540833 0.249237
0.151215 0.541473 0.250427
0.176849 0.542114 0.251984
0.203461 0.542725 0.253601
0.231079 0.543304 0.255463
0.259460 0.543976 0.257385
0.288788 0.544647 0.259308
0.318970 0.545258 0.261505
0.349945 0.545929 0.263672
0.381622 0.546600 0.265717
0.414093 0.547272 0.268127
0.447266 0.547913 0.270477
0.481079 0.548523 0.273193
0.515533 0.549225 0.275635
0.550812 0.549744 0.278503
0.586456 0.550446 0.281158
0.622864 0.550995 0.283905
0.659821 0.551575 0.287079
0.697540 0.552124 0.289917
0.735626 0.552704 0.293091
0.774384 0.553223 0.296265
0.813690 0.553802 0.299377
0.853455 0.554291 0.302948
0.893707 0.554810 0.306122
0.934509 0.555359 0.309418
0.005219 0.561340 0.247894
0.008881 0.570435 0.259369
0.021759 0.571289 0.260559
0.040466 0.569824 0.258850
0.060059 0.569611 0.258881
0.081055 0.569733 0.259308
0.103363 0.570068 0.260223
0.127014 0.570435 0.261139
0.151459 0.571075 0.262482
0.177155 0.571625 0.263947
0.203827 0.572235 0.265411
0.231628 0.572754 0.267029
0.259979 0.573517 0.268860
0.289490 0.574127 0.270660
0.319672 0.574768 0.272766
0.350586 0.575439 0.274750
0.382385 0.576050 0.277008
0.414825 0.576782 0.279083
0.447998 0.577362 0.281433
0.481934 0.578003 0.283783
0.516388 0.578644 0.286316
0.551727 0.579254 0.288879
0.587494 0.579895 0.291412
0.623871 0.580475 0.294373
0.660858 0.581085 0.297028
0.698456 0.581696 0.299988
0.736664 0.582245 0.302917
0.775360 0.582794 0.305939
0.814636 0.583344 0.309021
0.854492 0.583893 0.312042
0.894714 0.584412 0.315247
0.935608 0.584961 0.318542
0.005493 0.590668 0.259796
0.008850 0.600037 0.271515
0.021454 0.601105 0.273041
0.039856 0.599792 0.271545
0.059967 0.599243 0.271088
0.081146 0.599304 0.271362
0.103668 0.599518 0.272186
0.127106 0.600037 0.273315
0.151886 0.600433 0.274475
0.177673 0.600983 0.275726
0.204376 0.601563 0.277222
0.231995 0.602203 0.278687
0.260620 0.602844 0.280426
0.289948 0.603516 0.282104
0.320099 0.604218 0.284027
0.351257 0.604797 0.285767
0.383148 0.605438 0.287994
0.415619 0.606110 0.290253
0.448853 0.606750 0.292297
0.482727 0.607391 0.294617
0.517242 0.608032 0.296967
0.552429 0.608673 0.299286
0.588348 0.609283 0.301819
0.624756 0.609924 0.304382
0.661865 0.610474 0.307098
0.699463 0.611145 0.309814
0.737732 0.611664 0.312592
0.776367 0.612305 0.315399
0.815643 0.612854 0.318329
0.855530 0.613403 0.321381
0.895905 0.613953 0.324341
0.936737 0.614471 0.327484
0.005798 0.619812 0.271637
0.009186 0.629181 0.283295
0.020416 0.631561 0.286102
0.039459 0.629608 0.283966
0.059906 0.628754 0.283356
0.081085 0.628784 0.283508
0.103760 0.628937 0.283997
0.127502 0.629272 0.284760
0.152374 0.629700 0.285919
0.178101 0.630310 0.287170
0.204895 0.630890 0.288605
0.232544 0.631531 0.290070
0.261108 0.632172 0.291748
0.290588 0.632843 0.293213
0.320923 0.633453 0.295044
0.351929 0.634064 0.297058
0.383850 0.634735 0.298889
0.416412 0.635376 0.300934
0.449615 0.636047 0.303040
0.483490 0.636719 0.305176
0.518127 0.637360 0.307495
0.553314 0.638000 0.309662
0.589233 0.638580 0.312195
0.625702 0.639221 0.314514
0.662781 0.639832 0.317017
0.700439 0.640442 0.319672
0.738647 0.641022 0.322266
0.777435 0.641632 0.325043
0.816772 0.642181 0.327881
0.856628 0.642792 0.330658
0.897003 0.643341 0.333557
0.937836 0.643890 0.336609
0.006042 0.648895 0.283325
0.009491 0.658295 0.294586
0.020264 0.661072 0.298248
0.039154 0.659271 0.296051
0.059692 0.658356 0.295288
0.081146 0.658203 0.295197
0.103912 0.658264 0.295837
0.127563 0.658661 0.296539
0.152557 0.659058 0.297577
0.178345 0.659607 0.298737
0.205292 0.660065 0.299957
0.232880 0.660767 0.301453
0.261749 0.661316 0.302856
0.291107 0.662048 0.304413
0.321442 0.662689 0.306122
0.352570 0.663330 0.307922
0.384460 0.663910 0.309845
0.417084 0.664581 0.311584
0.450317 0.665253 0.313782
0.484344 0.665894 0.315704
0.519012 0.666504 0.317871
0.554260 0.667206 0.320160
0.590118 0.667816 0.322388
0.626648 0.668427 0.324799
0.663727 0.669067 0.327057
0.701416 0.669708 0.329651
0.739594 0.670288 0.332184
0.778442 0.670837 0.334778
0.817841 0.671478 0.337372
0.857727 0.672028 0.340149
0.898010 0.672577 0.342896
0.938934 0.673157 0.345673
0.006317 0.677917 0.294708
0.009796 0.687256 0.305817
0.019012 0.691528 0.311066
0.038666 0.688965 0.308105
0.059448 0.687775 0.306976
0.081177 0.687561 0.306915
0.103912 0.687653 0.307404
0.127625 0.687958 0.308197
0.152740 0.688293 0.309082
0.178711 0.688751 0.309967
0.205627 0.689301 0.311340
0.233398 0.689911 0.312592
0.262115 0.690521 0.313812
0.291626 0.691132 0.315552
0.322052 0.691772 0.317078
0.353241 0.692413 0.318787
0.385101 0.693085 0.320587
0.417755 0.693756 0.322266
0.451019 0.694366 0.324310
0.485016 0.695068 0.326080
0.519745 0.695648 0.328217
0.555023 0.696320 0.330414
0.591034 0.696930 0.332581
0.627533 0.697540 0.334808
0.664673 0.698212 0.337006
0.702393 0.698822 0.339508
0.740662 0.699432 0.341858
0.779388 0.700104 0.344360
0.818878 0.700623 0.347046
0.858734 0.701202 0.349487
0.899078 0.701813 0.352173
0.940125 0.702362 0.354858
0.006653 0.706848 0.305817
0.010162 0.716125 0.317078
0.018219 0.721558 0.323303
0.037720 0.718872 0.320465
0.058838 0.717499 0.318939
0.080872 0.716949 0.318695
0.103699 0.716980 0.318817
0.127838 0.717102 0.319427
0.152802 0.717560 0.320190
0.178894 0.717987 0.321198
0.205872 0.718506 0.322296
0.233734 0.719086 0.323639
0.262543 0.719635 0.325012
0.292267 0.720184 0.326447
0.322632 0.720825 0.327820
0.353790 0.721466 0.329559
0.385651 0.722168 0.331116
0.418427 0.722809 0.332916
0.451874 0.723419 0.334686
0.485901 0.724030 0.336670
0.520538 0.724762 0.338470
0.555939 0.725372 0.340576
0.591888 0.725983 0.342682
0.628479 0.726624 0.344696
0.665588 0.727264 0.347107
0.703278 0.727875 0.349304
0.741669 0.728455 0.351593
0.780457 0.729095 0.353973
0.819824 0.729706 0.356506
0.859833 0.730316 0.358948
0.900238 0.730927 0.361450
0.941193 0.731506 0.364105
0.006927 0.735687 0.317047
0.010498 0.744965 0.327881
0.017365 0.751465 0.335571
0.036835 0.748749 0.332458
0.058502 0.746918 0.330444
0.080597 0.746338 0.330109
0.103760 0.746185 0.330109
0.128052 0.746246 0.330566
0.153015 0.746613 0.331360
0.179138 0.747040 0.332336
0.206238 0.747498 0.333374
0.234283 0.747986 0.334442
0.263062 0.748627 0.335632
0.292755 0.749237 0.337158
0.323212 0.749817 0.338623
0.354401 0.750488 0.340149
0.386322 0.751129 0.341797
0.419128 0.751709 0.343475
0.452515 0.752380 0.345154
0.486633 0.753052 0.346802
0.521301 0.753723 0.348846
0.556793 0.754333 0.350769
0.592621 0.755035 0.352722
0.629272 0.755676 0.354828
0.666504 0.756226 0.356995
0.704224 0.756897 0.359131
0.742584 0.757507 0.361328
0.781555 0.758087 0.363647
0.820862 0.758698 0.365967
0.860809 0.759308 0.368408
0.901306 0.759918 0.370880
0.942169 0.760529 0.373322
0.007233 0.764526 0.327881
0.010803 0.773743 0.338837
0.016266 0.781616 0.347717
0.035675 0.778717 0.344604
0.057800 0.776459 0.342133
0.080200 0.775635 0.341522
0.103546 0.775452 0.341431
0.128021 0.775391 0.341644
0.153290 0.775635 0.342316
0.179352 0.776093 0.343262
0.206512 0.776520 0.344177
0.234650 0.777008 0.345215
0.263397 0.777588 0.346558
0.293274 0.778137 0.347839
0.323700 0.778748 0.349152
0.354919 0.779388 0.350739
0.387054 0.780029 0.352203
0.419739 0.780670 0.353851
0.453339 0.781250 0.355438
0.487396 0.781921 0.357269
0.522156 0.782593 0.358948
0.557526 0.783234 0.360870
0.593475 0.783905 0.362793
0.630127 0.784546 0.364655
0.667358 0.785156 0.366791
0.705231 0.785828 0.368866
0.743561 0.786407 0.371063
0.782471 0.787048 0.373169
0.821899 0.787689 0.375458
0.861877 0.788239 0.377838
0.902344 0.788849 0.380127
0.943329 0.789429 0.382599
0.007507 0.793243 0.338745
0.011139 0.802490 0.349274
0.015289 0.811554 0.359650
0.034241 0.808899 0.356689
0.056946 0.806122 0.353729
0.079956 0.804901 0.352570
0.103546 0.804474 0.352417
0.127808 0.804565 0.352783
0.153351 0.804688 0.353210
0.179718 0.804962 0.353943
0.206879 0.805450 0.355042
0.234833 0.806000 0.356018
0.263885 0.806458 0.357178
0.293640 0.807068 0.358398
0.324127 0.807678 0.359680
0.355591 0.808228 0.361053
0.387695 0.808838 0.362549
0.420380 0.809509 0.364105
0.453857 0.810181 0.365753
0.488037 0.810822 0.367401
0.522827 0.811432 0.369141
0.558258 0.812103 0.370911
0.594360 0.812714 0.372711
0.630951 0.813385 0.374695
0.668274 0.813995 0.376556
0.706055 0.814606 0.378662
0.744446 0.815277 0.380707
0.783325 0.815918 0.382813
0.822784 0.816528 0.385010
0.862885 0.817139 0.387207
0.903381 0.817780 0.389526
0.944336 0.818359 0.391876
0.007813 0.821899 0.349426
0.011475 0.831085 0.359833
0.015472 0.840363 0.370239
0.033508 0.838440 0.368225
0.056458 0.835419 0.364990
0.079651 0.834106 0.363708
0.103271 0.833618 0.363434
0.127899 0.833496 0.363464
0.153351 0.833649 0.364014
0.179779 0.833954 0.364746
0.207001 0.834381 0.365540
0.235321 0.834747 0.366547
0.264191 0.835358 0.367737
0.294098 0.835846 0.368896
0.324768 0.836456 0.370087
0.356079 0.837067 0.371429
0.388245 0.837646 0.372894
0.421021 0.838318 0.374390
