Deploy/Assets/LUTs/Custom.CUBE
#Created by: Adobe Photoshop Export Color Lookup Plugin
TITLE "Untitled-1"
#LUT size
LUT_3D_SIZE 8
#data domain
#LUT data points
DOMAIN_MIN 0.000000 0.000000 0.000000
DOMAIN_MAX 0.903226 0.903226 0.903226
0.099976 0.099976 0.099976
0.190704 0.222290 0.061432
0.261993 0.327545 0.024780
0.313843 0.411621 0.000000
0.347076 0.466248 0.000000
0.382935 0.522125 0.000000
0.426178 0.585388 0.000000
0.480408 0.660095 0.000000
0.092255 0.123932 0.130249
0.153809 0.223755 0.063324
0.227905 0.330200 0.027008
0.289886 0.422394 0.000000
0.338470 0.485077 0.000000
0.386444 0.549408 0.000000
0.441742 0.622833 0.000000
0.507965 0.708893 0.000000
0.073517 0.172089 0.191833
0.077911 0.225189 0.066132
0.158081 0.333771 0.030640
0.232910 0.434448 0.000000
0.298584 0.503510 0.000000
0.365723 0.579956 0.000000
0.442657 0.671265 0.000000
0.531403 0.778778 0.000000
0.048035 0.238312 0.276337
0.051331 0.281799 0.166565
0.051788 0.335297 0.034302
0.132202 0.442078 0.000000
0.216003 0.514069 0.000000
0.297882 0.594910 0.000000
0.389679 0.692749 0.000000
0.491608 0.807709 0.000000
0.015381 0.322052 0.383636
0.020325 0.391846 0.312286
0.019806 0.392975 0.159668
0.003540 0.444122 0.012238
0.096893 0.521515 0.000000
0.195587 0.605499 0.000000
0.300842 0.707001 0.000000
0.415955 0.827454 0.000000
0.000000 0.407959 0.489868
0.000000 0.512421 0.489166
0.000000 0.508118 0.327881
0.000000 0.509369 0.190399
0.000000 0.527527 0.059387
0.058716 0.613373 0.000000
0.179596 0.717651 0.000000
0.308136 0.842010 0.000000
0.000000 0.508209 0.610809
0.000000 0.598267 0.663910
0.000000 0.641174 0.532684
0.000000 0.639709 0.403717
0.000000 0.641327 0.282623
0.000000 0.644135 0.146576
0.000000 0.726135 0.001770
0.142670 0.853180 0.000000
0.000000 0.662170 0.796082
0.000000 0.745117 0.895264
0.000000 0.853394 0.829437
0.000000 0.843567 0.694244
0.000000 0.842896 0.580109
0.000000 0.844971 0.456116
0.000000 0.848297 0.306732
0.000000 0.862122 0.129669
0.286957 0.037994 0.249084
0.288025 0.045929 0.099060
0.321289 0.137421 0.039856
0.418457 0.272034 0.014038
0.502686 0.401062 0.000000
0.578125 0.521393 0.000000
0.665955 0.651337 0.000000
0.743622 0.769348 0.000000
0.289429 0.039429 0.289429
0.280701 0.076416 0.136749
0.315094 0.161011 0.069427
0.414886 0.294952 0.041840
0.513275 0.429230 0.015167
0.606598 0.563507 0.000000
0.698090 0.697571 0.000000
0.765961 0.805908 0.000000
0.213623 0.041168 0.291840
0.265350 0.136414 0.211914
0.301666 0.205933 0.127289
0.405762 0.339600 0.096802
0.508972 0.474121 0.067108
0.623291 0.624023 0.033936
0.713837 0.755524 0.000000
0.788971 0.869659 0.000000
0.106995 0.043121 0.294464
0.197571 0.159546 0.262604
0.276794 0.269562 0.211853
0.363159 0.383392 0.179718
0.441711 0.490387 0.147736
0.529175 0.610809 0.111786
0.636078 0.758362 0.062775
0.763214 0.933594 0.003113
0.016083 0.071594 0.385193
0.124420 0.204041 0.360260
0.211151 0.331787 0.311676
0.226685 0.381226 0.195251
0.308655 0.491333 0.159210
0.401703 0.616821 0.117859
0.514740 0.769348 0.067078
0.649567 0.950989 0.006378
0.000000 0.179932 0.492310
0.067169 0.285950 0.504730
0.173553 0.444458 0.465729
0.172913 0.467285 0.338135
0.165161 0.492188 0.189758
0.236420 0.620178 0.123230
0.353668 0.776276 0.071777
0.493591 0.962708 0.010071
0.000000 0.309601 0.613800
0.000000 0.381989 0.693542
0.120270 0.570038 0.653809
0.118835 0.653168 0.577637
0.118011 0.655334 0.427338
0.117371 0.658691 0.258118
0.116302 0.779663 0.077576
0.259033 0.970032 0.014862
0.000000 0.486420 0.800140
0.000000 0.556427 0.899750
0.008057 0.772797 0.964508
0.030579 0.937317 0.947388
0.029419 0.947388 0.798340
0.028259 0.950378 0.624634
0.027069 0.954773 0.415039
0.021210 0.973297 0.162292
0.393707 0.002594 0.336792
0.408722 0.009399 0.206421
0.403351 0.015350 0.066223
0.413940 0.109863 0.018158
0.502625 0.245422 0.000000
0.578033 0.378784 0.000000
0.665771 0.518982 0.000000
0.769135 0.671478 0.000000
0.408539 0.000000 0.386505
0.402313 0.039307 0.243317
0.398132 0.044342 0.101440
0.411530 0.131714 0.045105
0.510529 0.266541 0.018005
0.606537 0.408997 0.000000
0.698090 0.556793 0.000000
0.805603 0.715515 0.000000
0.360870 0.000427 0.414093
0.389008 0.097961 0.317322
0.387146 0.101044 0.171448
0.403595 0.175049 0.099243
0.507263 0.310059 0.069214
0.622345 0.460724 0.035950
0.755707 0.637451 0.000000
0.869843 0.806335 0.000000
0.255737 0.002533 0.417358
0.344086 0.114227 0.389343
0.365479 0.184357 0.275848
0.381714 0.237946 0.181824
0.488770 0.373566 0.149780
0.609619 0.527130 0.113525
0.755676 0.712952 0.069275
0.925018 0.928589 0.016327
0.119659 0.004700 0.420624
0.201904 0.108337 0.398651
0.293121 0.228180 0.357117
0.348969 0.318085 0.290131
0.458466 0.454926 0.256622
0.555084 0.583038 0.218506
0.667938 0.734406 0.171906
0.802490 0.914368 0.115997
0.000000 0.030731 0.493408
0.061218 0.112976 0.510315
0.191742 0.274078 0.461731
0.298096 0.415405 0.427338
0.291351 0.449951 0.291016
0.387878 0.578217 0.248993
0.505371 0.734467 0.197632
0.645538 0.920868 0.136047
0.000000 0.179504 0.615295
0.000000 0.221313 0.693573
0.121307 0.401154 0.656433
0.240662 0.547729 0.614990
0.243622 0.615631 0.528900
0.242920 0.618896 0.359131
0.268463 0.737701 0.204102
0.411255 0.928284 0.141327
0.000000 0.370819 0.801910
0.000000 0.433105 0.901886
0.004333 0.603882 0.970398
0.135468 0.758118 0.916107
0.155304 0.908569 0.901764
0.154297 0.911346 0.727631
0.153198 0.915405 0.516998
0.148376 0.931427 0.264221
0.453339 0.000000 0.390350
0.493683 0.000000 0.302155
0.492523 0.000000 0.165924
0.492432 0.000000 0.036072
0.502136 0.102722 0.000000
0.577484 0.249420 0.000000
0.664978 0.399384 0.000000
0.768402 0.559784 0.000000
0.476410 0.000000 0.441620
0.509949 0.007782 0.344208
0.505280 0.011658 0.195435
0.499512 0.018250 0.060791
0.507050 0.121277 0.021149
0.606140 0.269043 0.000000
0.697662 0.429749 0.000000
0.805054 0.598480 0.000000
0.458557 0.000000 0.486481
0.499146 0.064880 0.416779
0.496368 0.067139 0.264771
0.493652 0.071411 0.125427
0.504333 0.163116 0.072021
0.619812 0.314026 0.038361
0.755402 0.493347 0.000000
0.869476 0.676727 0.000000
0.370728 0.000000 0.493011
0.472717 0.071014 0.504364
0.476227 0.149689 0.369080
0.475037 0.152557 0.226318
0.486694 0.225433 0.151947
0.607788 0.379181 0.115509
0.753815 0.565002 0.071198
0.926361 0.784271 0.018372
0.252441 0.000000 0.499023
0.331757 0.064209 0.515381
0.425385 0.188202 0.470551
0.446747 0.259308 0.361084
0.456787 0.305756 0.258636
0.581482 0.462067 0.220459
0.732819 0.651733 0.173676
0.912903 0.877167 0.117676
0.103760 0.000000 0.505371
0.150360 0.046509 0.534943
0.253571 0.183319 0.480621
0.341095 0.298584 0.441467
0.415466 0.403351 0.392303
0.524170 0.543182 0.352631
0.641571 0.698456 0.304260
0.781525 0.883759 0.246368
0.000000 0.062592 0.616425
0.000000 0.081604 0.693542
0.117462 0.247345 0.660919
0.238434 0.395905 0.618103
0.353607 0.538940 0.581238
0.356262 0.583099 0.451233
0.404663 0.699402 0.318207
0.547699 0.889862 0.255676
0.000000 0.266968 0.803497
0.000000 0.318115 0.903625
0.000000 0.447754 0.976563
0.132751 0.604889 0.920502
0.252533 0.752106 0.879272
0.268677 0.875977 0.821716
0.267639 0.879974 0.611023
0.263885 0.892822 0.358154
0.501129 0.000000 0.434937
0.570374 0.000000 0.391144
0.566223 0.000000 0.261139
0.564850 0.000000 0.141754
0.563904 0.000000 0.019135
0.576263 0.119995 0.000000
0.663910 0.281555 0.000000
0.767181 0.451202 0.000000
0.533539 0.000000 0.490173
0.595795 0.000000 0.436371
0.592194 0.000000 0.292633
0.591858 0.000000 0.160400
0.591919 0.000000 0.026306
0.605255 0.127228 0.000000
0.696655 0.302734 0.000000
0.803802 0.482544 0.000000
0.550507 0.000000 0.559113
0.615204 0.026459 0.523071
0.608490 0.032562 0.361877
0.605164 0.036469 0.219727
0.601013 0.041809 0.081543
0.616302 0.164551 0.041290
0.754364 0.345154 0.000366
0.868591 0.544983 0.000000
0.474579 0.000000 0.567383
0.606659 0.024292 0.625763
0.591217 0.113892 0.467102
0.589508 0.116455 0.321686
0.587585 0.120178 0.180206
0.605225 0.225525 0.117828
0.751221 0.411713 0.073517
0.923798 0.631409 0.020599
0.369812 0.000000 0.574646
0.468964 0.015717 0.640594
0.564178 0.145813 0.589874
0.563690 0.222260 0.457672
0.562897 0.224915 0.312714
0.579346 0.305389 0.222534
0.730804 0.495117 0.175659
0.910828 0.720551 0.119629
0.237610 0.000000 0.582092
0.290497 0.000000 0.660339
0.395264 0.140167 0.602478
0.483185 0.256836 0.561920
0.529053 0.356140 0.481232
0.541321 0.402618 0.354675
0.696655 0.595795 0.306213
0.882111 0.826385 0.248108
0.059235 0.000000 0.617493
0.062592 0.000000 0.694702
0.144836 0.112823 0.665955
0.238251 0.235413 0.621704
0.351410 0.376617 0.584076
0.477386 0.539398 0.544861
0.550201 0.657806 0.440582
0.693604 0.848419 0.378021
0.000000 0.157410 0.804871
0.000000 0.190948 0.905182
0.000000 0.278748 0.978394
0.129364 0.438354 0.925323
0.249969 0.586884 0.883301
0.383240 0.752655 0.840668
0.391266 0.841339 0.712341
0.388855 0.850616 0.460205
0.546356 0.000000 0.477386
0.656952 0.000000 0.487915
0.648010 0.000000 0.356110
0.644958 0.000000 0.243286
0.642792 0.000000 0.129456
0.641113 0.000000 0.005310
0.662537 0.149780 0.000000
0.765594 0.330658 0.000000
0.595032 0.000000 0.542145
0.684814 0.000000 0.534515
0.676483 0.000000 0.390747
0.674561 0.000000 0.268433
0.673462 0.000000 0.146484
0.672363 0.000000 0.010681
0.695435 0.159088 0.000000
0.802460 0.352448 0.000000
0.640015 0.000000 0.630646
0.724640 0.000000 0.627350
0.728943 0.000000 0.469635
0.728058 0.000000 0.326691
0.726044 0.002319 0.186432
0.719971 0.008636 0.033112
0.750427 0.177734 0.003357
0.867462 0.394989 0.000000
0.583649 0.000000 0.650879
0.731537 0.000000 0.736389
0.722595 0.072784 0.579010
0.719788 0.075287 0.430420
0.717377 0.078888 0.287140
0.714630 0.083130 0.127686
0.748291 0.237579 0.075867
0.920441 0.457733 0.023071
0.490204 0.000000 0.660034
0.602478 0.000000 0.745331
0.722992 0.097015 0.726685
0.697205 0.179871 0.568237
0.696075 0.182465 0.421967
0.694946 0.185638 0.257874
0.728516 0.316345 0.177704
0.908234 0.541870 0.121765
0.370972 0.000000 0.669098
0.440430 0.000000 0.752899
0.557770 0.090118 0.742767
0.646027 0.208984 0.699982
0.665161 0.312714 0.592438
0.664642 0.315308 0.424469
0.694427 0.413147 0.308319
0.879761 0.643555 0.250275
0.203369 0.000000 0.678375
0.231781 0.000000 0.761902
0.315582 0.076080 0.765503
0.409210 0.201935 0.716766
0.497559 0.319305 0.676361
0.596558 0.450684 0.632843
0.637695 0.549774 0.496948
0.827332 0.785217 0.437805
0.000000 0.032288 0.806152
0.000000 0.045837 0.906738
0.000000 0.088776 0.980164
0.125214 0.246185 0.930817
0.247162 0.397034 0.887299
0.380615 0.563263 0.844421
0.532837 0.765106 0.797119
0.531891 0.801941 0.576538
0.590179 0.000000 0.518555
0.756226 0.000000 0.595428
0.740509 0.000000 0.456665
0.735992 0.000000 0.346802
0.732513 0.000000 0.239471
0.729462 0.000000 0.124298
0.726532 0.014893 0.000000
0.763580 0.191071 0.000000
0.656708 0.000000 0.595459
0.787170 0.000000 0.642853
0.771942 0.000000 0.493408
0.768250 0.000000 0.376801
0.765961 0.000000 0.262939
0.763977 0.000000 0.138947
0.761688 0.012085 0.000000
0.800751 0.202148 0.000000
0.731201 0.000000 0.703888
0.819061 0.000000 0.722687
0.827972 0.000000 0.575714
0.825470 0.000000 0.442749
0.824738 0.000000 0.314514
0.824310 0.000000 0.171265
0.823700 0.004822 0.000000
0.865997 0.222839 0.000000
0.702484 0.000000 0.745239
0.834412 0.000000 0.827698
0.870789 0.026428 0.705048
0.866486 0.028717 0.552338
0.863373 0.032227 0.407410
0.859863 0.036621 0.247253
0.855774 0.041779 0.054291
0.916718 0.262238 0.025787
0.617706 0.000000 0.756165
0.729523 0.000000 0.846985
0.880890 0.042023 0.859589
0.847260 0.132111 0.692230
0.845551 0.134583 0.544556
0.843964 0.137756 0.379639
0.842133 0.141510 0.180176
0.905334 0.341278 0.124023
0.508331 0.000000 0.766632
0.586761 0.000000 0.860809
0.741394 0.033813 0.900787
0.828918 0.155060 0.854889
0.817749 0.263885 0.717133
0.816956 0.266266 0.548187
0.816345 0.269409 0.344177
0.877167 0.438690 0.252472
0.353394 0.000000 0.777405
0.405823 0.000000 0.873047
0.502777 0.017670 0.928711
0.595398 0.146790 0.875366
0.683502 0.265167 0.833679
0.782654 0.397003 0.789642
0.771149 0.454590 0.582642
0.824646 0.576599 0.440521
0.108032 0.000000 0.807465
0.118164 0.000000 0.908173
0.120819 0.000000 0.981964
0.211395 0.120758 0.936707
0.304108 0.243835 0.891815
0.405029 0.377808 0.848206
0.539154 0.551605 0.797729
0.690765 0.751617 0.706787
0.638367 0.000000 0.562775
0.871613 0.000000 0.716492
0.844055 0.000000 0.562561
0.836670 0.000000 0.453888
0.831573 0.000000 0.350616
0.827148 0.000000 0.241730
0.822998 0.000000 0.111725
0.818939 0.047791 0.000000
0.724701 0.000000 0.653564
0.899963 0.000000 0.761536
0.879364 0.000000 0.603485
0.872925 0.000000 0.488892
0.869110 0.000000 0.380035
0.865509 0.000000 0.263916
0.862030 0.000000 0.123962
0.858521 0.047150 0.000000
0.833588 0.000000 0.787384
0.931641 0.000000 0.835663
0.941559 0.000000 0.689850
0.936462 0.000000 0.562897
0.934204 0.000000 0.442932
0.932495 0.000000 0.311218
0.930695 0.000000 0.151093
0.928650 0.043304 0.000000
0.833221 0.000000 0.851929
0.954987 0.000000 0.938904
1.000000 0.015930 0.823669
1.000000 0.011169 0.680603
1.000000 0.010315 0.543579
1.000000 0.010376 0.391632
1.000000 0.010620 0.205078
1.000000 0.041687 0.010529
0.757843 0.000000 0.866119
0.879883 0.000000 0.978027
1.000000 0.040436 0.954773
1.000000 0.099579 0.823242
1.000000 0.099121 0.681091
1.000000 0.100159 0.523071
1.000000 0.101654 0.330200
1.000000 0.107971 0.103149
0.657806 0.000000 0.879089
0.772247 0.000000 0.998779
0.892761 0.057526 1.000000
1.000000 0.131012 0.992584
0.999634 0.205322 0.864655
0.998260 0.207916 0.695526
0.997406 0.210876 0.490845
0.996307 0.214325 0.246765
0.514862 0.000000 0.892456
0.607056 0.016235 1.000000
0.692780 0.076782 1.000000
0.788574 0.148468 1.000000
0.892426 0.224152 1.000000
0.979309 0.332062 0.950226
0.959137 0.394226 0.735168
0.958710 0.397919 0.486786
0.283264 0.000000 0.906464
0.357635 0.034790 1.000000
0.418335 0.103302 1.000000
0.481201 0.168640 1.000000
0.554016 0.243256 1.000000
0.644745 0.330994 1.000000
0.766327 0.485504 0.953827
0.890045 0.679810 0.867462
