Deploy/Assets/LUTs/Custom.CUBE
#Created by: Adobe Photoshop Export Color Lookup Plugin
TITLE "Untitled-1"
#LUT size
LUT_3D_SIZE 5
#data domain
#LUT data points
DOMAIN_MIN 0.000000 0.000000 0.000000
DOMAIN_MAX 0.903226 0.903226 0.903226
0.099976 0.099976 0.099976
0.245117 0.301727 0.034027
0.329681 0.438568 0.000000
0.393402 0.537476 0.000000
0.480408 0.660095 0.000000
0.078918 0.158173 0.174133
0.159912 0.306519 0.038574
0.282715 0.465820 0.000000
0.393188 0.595612 0.000000
0.529327 0.762634 0.000000
0.032593 0.277557 0.327026
0.036438 0.334900 0.122070
0.116089 0.481293 0.000000
0.274567 0.623718 0.000000
0.458008 0.818512 0.000000
0.000000 0.429321 0.515839
0.000000 0.536530 0.408936
0.000000 0.538147 0.174347
0.047607 0.639435 0.000000
0.273987 0.845032 0.000000
0.000000 0.662170 0.796082
0.000000 0.846283 0.859924
0.000000 0.842682 0.636536
0.000000 0.845673 0.421387
0.000000 0.862122 0.129669
0.369843 0.010529 0.316864
0.376648 0.022156 0.075043
0.462463 0.215729 0.004974
0.598602 0.446167 0.000000
0.769165 0.700623 0.000000
0.348053 0.009644 0.384583
0.362732 0.092255 0.161194
0.458771 0.268036 0.067535
0.654755 0.526917 0.011536
0.852631 0.812653 0.000000
0.156464 0.013153 0.389923
0.309906 0.211212 0.333221
0.420807 0.382477 0.215912
0.615448 0.632477 0.151825
0.830933 0.923676 0.062256
0.000000 0.099640 0.519318
0.147736 0.303741 0.512268
0.257080 0.477234 0.392944
0.329559 0.625031 0.208984
0.561432 0.933136 0.107513
0.000000 0.398224 0.801544
0.000000 0.592529 0.955505
0.126129 0.878052 0.917267
0.124298 0.921295 0.653931
0.118378 0.941437 0.239960
0.476837 0.000000 0.412567
0.528870 0.000000 0.245575
0.527588 0.000000 0.026672
0.597565 0.224518 0.000000
0.767883 0.506165 0.000000
0.519501 0.000000 0.519867
0.554932 0.032928 0.327332
0.548035 0.041351 0.083282
0.649567 0.269775 0.016174
0.851746 0.592010 0.000000
0.370392 0.000000 0.532532
0.533783 0.140015 0.524750
0.517700 0.186493 0.265167
0.629425 0.386414 0.155212
0.920715 0.753662 0.065369
0.130707 0.000000 0.544617
0.247253 0.128906 0.554901
0.402496 0.333923 0.483856
0.566193 0.558960 0.382233
0.805420 0.872681 0.286530
0.000000 0.213806 0.804230
0.000000 0.331543 0.959045
0.191406 0.597992 0.901276
0.328247 0.858276 0.822052
0.324463 0.872375 0.407654
0.556274 0.000000 0.487000
0.671600 0.000000 0.410736
0.665588 0.000000 0.213196
0.661652 0.000000 0.000793
0.765076 0.297729 0.000000
0.658386 0.000000 0.630249
0.739105 0.000000 0.506317
0.736603 0.000000 0.271179
0.736053 0.000000 0.015106
0.849609 0.342865 0.000000
0.570618 0.000000 0.678650
0.767883 0.055542 0.723022
0.744568 0.114349 0.452240
0.741058 0.120758 0.172241
0.915955 0.450012 0.069244
0.370392 0.000000 0.694946
0.527924 0.040558 0.799591
0.683777 0.252075 0.721497
0.691315 0.343445 0.457336
0.868896 0.624451 0.290161
0.001373 0.000000 0.806458
0.000000 0.027252 0.962738
0.185852 0.271149 0.909271
0.417358 0.559326 0.833649
0.569733 0.789948 0.607758
0.638367 0.000000 0.562775
0.847046 0.000000 0.592682
0.833954 0.000000 0.402313
0.826111 0.000000 0.211578
0.818939 0.047791 0.000000
0.812164 0.000000 0.756256
0.927673 0.000000 0.698242
0.917938 0.000000 0.482269
0.914032 0.000000 0.261749
0.909821 0.044861 0.000000
0.798279 0.000000 0.859100
1.000000 0.013672 0.920532
1.000000 0.052887 0.676971
1.000000 0.053802 0.409546
1.000000 0.074402 0.055267
0.627991 0.000000 0.882416
0.821106 0.044647 1.000000
1.000000 0.172607 0.982025
0.990753 0.247040 0.700409
0.989288 0.252808 0.297028
0.283264 0.000000 0.906464
0.411499 0.096161 1.000000
0.516510 0.205292 1.000000
0.672546 0.360657 0.995300
0.890045 0.679810 0.867462
