Deploy/Assets/LUTs/Custom.CUBE
#Created by: Adobe Photoshop Export Color Lookup Plugin
TITLE "Untitled-1"
#LUT size
LUT_3D_SIZE 32
#data domain
DOMAIN_MIN 0.0 0.0 0.0
DOMAIN_MAX 1.0 1.0 1.0
#LUT data points
0.099976 0.099976 0.099976
0.126404 0.134857 0.089935
0.149719 0.165741 0.080078
0.170410 0.194427 0.070648
0.190704 0.222290 0.061432
0.209320 0.249268 0.052155
0.227448 0.275635 0.043152
0.245117 0.301727 0.034027
0.261993 0.327545 0.024780
0.277069 0.351349 0.016663
0.289825 0.372833 0.009521
0.303619 0.395142 0.002136
0.313843 0.411621 0.000000
0.321991 0.425293 0.000000
0.329681 0.438568 0.000000
0.337891 0.452148 0.000000
0.347076 0.466248 0.000000
0.355652 0.479828 0.000000
0.363770 0.493225 0.000000
0.372772 0.507263 0.000000
0.382935 0.522125 0.000000
0.393402 0.537476 0.000000
0.403992 0.553040 0.000000
0.414795 0.568970 0.000000
0.426178 0.585388 0.000000
0.438629 0.602875 0.000000
0.452515 0.621552 0.000000
0.466034 0.640350 0.000000
0.480408 0.660095 0.000000
0.495605 0.680542 0.000000
0.511139 0.701385 0.000000
0.527252 0.723022 0.000000
0.098907 0.102600 0.103699
0.121704 0.135040 0.090057
0.145142 0.166016 0.080231
0.165894 0.194672 0.070709
0.186676 0.222473 0.061859
0.205719 0.249817 0.052460
0.222595 0.275787 0.043243
0.239838 0.301697 0.034119
0.256805 0.327484 0.024963
0.272125 0.351654 0.016541
0.287231 0.374908 0.008850
0.301147 0.397308 0.001404
0.308990 0.411865 0.000000
0.319397 0.426849 0.000000
0.327667 0.440460 0.000000
0.335510 0.453705 0.000000
0.345245 0.468079 0.000000
0.354126 0.481903 0.000000
0.362915 0.495667 0.000000
0.372406 0.509979 0.000000
0.382843 0.525146 0.000000
0.393219 0.540466 0.000000
0.403778 0.555939 0.000000
0.415985 0.572906 0.000000
0.428223 0.589996 0.000000
0.441040 0.607849 0.000000
0.454468 0.626343 0.000000
0.468628 0.645660 0.000000
0.483826 0.665924 0.000000
0.498871 0.686371 0.000000
0.515137 0.708038 0.000000
0.531799 0.729980 0.000000
0.097412 0.108185 0.110413
0.113831 0.135284 0.090790
0.137299 0.166290 0.080872
0.158081 0.195099 0.071320
0.177277 0.222595 0.061981
0.197052 0.250000 0.052887
0.215149 0.276428 0.043823
0.231873 0.302277 0.034515
0.249817 0.328430 0.025482
0.265991 0.353882 0.016205
0.281647 0.378235 0.007751
0.293304 0.398956 0.000854
0.303894 0.414642 0.000000
0.313721 0.429047 0.000000
0.323212 0.443359 0.000000
0.332855 0.457642 0.000000
0.342377 0.471863 0.000000
0.352264 0.486145 0.000000
0.362732 0.501099 0.000000
0.372803 0.515869 0.000000
0.383728 0.531372 0.000000
0.394531 0.547058 0.000000
0.405975 0.563324 0.000000
0.418243 0.580322 0.000000
0.431244 0.598145 0.000000
0.445496 0.617096 0.000000
0.459351 0.636078 0.000000
0.473724 0.655762 0.000000
0.489716 0.676758 0.000000
0.505249 0.697754 0.000000
0.522614 0.720245 0.000000
0.539215 0.742401 0.000000
0.095001 0.115204 0.119446
0.103333 0.136139 0.091095
0.126862 0.167114 0.081268
0.147949 0.195801 0.071960
0.167175 0.223358 0.062683
0.185181 0.250031 0.053406
0.204498 0.277069 0.044281
0.221527 0.302948 0.035126
0.238464 0.328857 0.025909
0.254364 0.354126 0.016693
0.270569 0.379608 0.007416
0.286041 0.402893 0.000000
0.296906 0.417908 0.000000
0.307892 0.432922 0.000000
0.318420 0.447754 0.000000
0.329620 0.462860 0.000000
0.340363 0.477783 0.000000
0.350037 0.492004 0.000000
0.360931 0.507141 0.000000
0.372406 0.522919 0.000000
0.383972 0.539001 0.000000
0.396301 0.555725 0.000000
0.409058 0.573029 0.000000
0.422729 0.591156 0.000000
0.435974 0.609253 0.000000
0.450043 0.628265 0.000000
0.465698 0.648804 0.000000
0.481506 0.669678 0.000000
0.497559 0.691071 0.000000
0.514465 0.713104 0.000000
0.531372 0.735535 0.000000
0.549530 0.759155 0.000000
0.092255 0.123932 0.130249
0.092133 0.135895 0.094849
0.113068 0.167267 0.081970
0.133270 0.195648 0.072601
0.153809 0.223755 0.063324
0.172699 0.250885 0.054077
0.191772 0.277740 0.045013
0.209961 0.304108 0.035919
0.227905 0.330200 0.027008
0.244019 0.355652 0.017731
0.261322 0.381470 0.008667
0.277252 0.406311 0.000000
0.289886 0.422394 0.000000
0.302460 0.438385 0.000000
0.314575 0.454010 0.000000
0.326385 0.469421 0.000000
0.338470 0.485077 0.000000
0.349792 0.500458 0.000000
0.361633 0.516296 0.000000
0.373657 0.532532 0.000000
0.386444 0.549408 0.000000
0.399658 0.567017 0.000000
0.413361 0.585052 0.000000
0.427460 0.603760 0.000000
0.441742 0.622833 0.000000
0.457916 0.643646 0.000000
0.473877 0.664734 0.000000
0.490479 0.686371 0.000000
0.507965 0.708893 0.000000
0.525330 0.731628 0.000000
0.543610 0.755310 0.000000
0.562347 0.779755 0.000000
0.088379 0.134094 0.143219
0.089783 0.145477 0.112183
0.096741 0.167297 0.082733
0.117462 0.195984 0.073303
0.137939 0.224243 0.063873
0.157776 0.251556 0.054871
0.177277 0.278564 0.045898
0.195984 0.305145 0.036896
0.214081 0.331360 0.027863
0.231323 0.357056 0.018890
0.249237 0.383057 0.009949
0.266449 0.408936 0.000793
0.280670 0.426239 0.000000
0.293945 0.442505 0.000000
0.307495 0.459015 0.000000
0.320862 0.475494 0.000000
0.333435 0.491638 0.000000
0.345978 0.507751 0.000000
0.359711 0.524902 0.000000
0.372894 0.542023 0.000000
0.386749 0.559753 0.000000
0.400482 0.577820 0.000000
0.415558 0.597015 0.000000
0.430695 0.616608 0.000000
0.446991 0.637512 0.000000
0.463776 0.658905 0.000000
0.481262 0.681366 0.000000
0.498444 0.703522 0.000000
0.517090 0.727325 0.000000
0.535645 0.751099 0.000000
0.555115 0.776031 0.000000
0.575714 0.802338 0.000000
0.083801 0.145660 0.158020
0.085602 0.160187 0.130920
0.083344 0.167358 0.088562
0.099854 0.196655 0.073853
0.120331 0.224670 0.064667
0.141113 0.252411 0.055664
0.160126 0.279358 0.046570
0.178925 0.305847 0.037720
0.197632 0.332184 0.028870
0.215942 0.358429 0.019897
0.234253 0.384521 0.011047
0.251526 0.410339 0.002014
0.267395 0.429169 0.000000
0.282501 0.446075 0.000000
0.296661 0.462708 0.000000
0.310852 0.479370 0.000000
0.324768 0.496155 0.000000
0.338623 0.513306 0.000000
0.353546 0.531403 0.000000
0.368805 0.550140 0.000000
0.384033 0.569122 0.000000
0.399231 0.588226 0.000000
0.415283 0.608368 0.000000
0.431946 0.629181 0.000000
0.449402 0.651123 0.000000
0.467834 0.674011 0.000000
0.486328 0.697235 0.000000
0.504883 0.720825 0.000000
0.524414 0.745300 0.000000
0.544159 0.770447 0.000000
0.566193 0.797791 0.000000
0.588074 0.825500 0.000000
0.078918 0.158173 0.174133
0.080811 0.176697 0.152344
0.080688 0.177368 0.110779
0.079254 0.196686 0.074554
0.100586 0.225128 0.065369
0.120483 0.252502 0.056366
0.140747 0.279907 0.047424
0.159912 0.306519 0.038574
0.179047 0.333069 0.029755
0.197662 0.359406 0.020874
0.216248 0.385681 0.011963
0.234436 0.411682 0.003113
0.251648 0.432007 0.000000
0.267609 0.449066 0.000000
0.282715 0.465820 0.000000
0.297638 0.482635 0.000000
0.312988 0.500000 0.000000
0.328064 0.517639 0.000000
0.343597 0.535919 0.000000
0.359894 0.555237 0.000000
0.376190 0.574951 0.000000
0.393188 0.595612 0.000000
0.411224 0.617462 0.000000
0.429901 0.640320 0.000000
0.449188 0.663757 0.000000
0.468292 0.687256 0.000000
0.488007 0.711609 0.000000
0.508728 0.737091 0.000000
0.529327 0.762634 0.000000
0.550903 0.789520 0.000000
0.574036 0.818115 0.000000
0.598267 0.848236 0.000000
0.073517 0.172089 0.191833
0.075958 0.194580 0.176270
0.075714 0.195068 0.133514
0.075562 0.196594 0.094269
0.077911 0.225189 0.066132
0.098694 0.252930 0.057159
0.119080 0.280365 0.048248
0.138184 0.306946 0.039429
0.158081 0.333771 0.030640
0.177094 0.360291 0.021820
0.196228 0.386841 0.012939
0.214325 0.412811 0.004089
0.232910 0.434448 0.000000
0.250244 0.451721 0.000000
0.266754 0.468933 0.000000
0.282318 0.485870 0.000000
0.298584 0.503510 0.000000
0.314575 0.521454 0.000000
0.331146 0.540161 0.000000
0.348389 0.559814 0.000000
0.365723 0.579956 0.000000
0.383606 0.601074 0.000000
0.402557 0.623383 0.000000
0.422241 0.646790 0.000000
0.442657 0.671265 0.000000
0.464142 0.696899 0.000000
0.485626 0.723053 0.000000
0.507935 0.750275 0.000000
0.531403 0.778778 0.000000
0.554535 0.807159 0.000000
0.579987 0.837982 0.000000
0.606140 0.869904 0.000000
0.067810 0.186890 0.210815
0.070557 0.214294 0.203369
0.070343 0.214325 0.158539
0.070221 0.214905 0.118988
0.067078 0.225159 0.080505
0.074188 0.252930 0.058014
0.094910 0.280579 0.049011
0.114807 0.307465 0.040253
0.134552 0.334351 0.031464
0.153870 0.360931 0.022644
0.173584 0.387726 0.013824
0.192139 0.413849 0.005127
0.211334 0.436554 0.000000
0.229645 0.453979 0.000000
0.247314 0.471405 0.000000
0.264526 0.488739 0.000000
0.281799 0.506714 0.000000
0.298706 0.524872 0.000000
0.316162 0.543915 0.000000
0.334015 0.563690 0.000000
0.352600 0.584473 0.000000
0.371521 0.606049 0.000000
0.391296 0.628754 0.000000
0.411926 0.652710 0.000000
0.433136 0.677673 0.000000
0.455109 0.703430 0.000000
0.477631 0.730255 0.000000
0.501038 0.758118 0.000000
0.525208 0.787140 0.000000
0.551178 0.818268 0.000000
0.578552 0.851196 0.000000
0.607941 0.886780 0.000000
0.061798 0.202972 0.231171
0.065063 0.235291 0.232391
0.064514 0.235046 0.185669
0.064331 0.235535 0.145416
0.064392 0.236145 0.108002
0.058868 0.253296 0.069122
0.069183 0.280792 0.049957
0.089203 0.307861 0.041138
0.108887 0.334686 0.032349
0.128784 0.361603 0.023560
0.148346 0.388214 0.014801
0.167694 0.414795 0.006012
0.187378 0.438568 0.000000
0.207153 0.456177 0.000000
0.225861 0.473724 0.000000
0.243958 0.491302 0.000000
0.261993 0.509308 0.000000
0.280243 0.527985 0.000000
0.298431 0.547180 0.000000
0.317108 0.567169 0.000000
0.336670 0.588318 0.000000
0.356537 0.610291 0.000000
0.377167 0.633392 0.000000
0.399048 0.658020 0.000000
0.421021 0.683228 0.000000
0.443756 0.709473 0.000000
0.467041 0.736633 0.000000
0.491180 0.764954 0.000000
0.516785 0.794861 0.000000
0.543457 0.826599 0.000000
0.571625 0.860168 0.000000
0.602692 0.897034 0.000000
0.055115 0.219788 0.253021
0.058868 0.251678 0.258087
0.058289 0.257568 0.216034
0.058044 0.257751 0.174530
0.058044 0.258240 0.135986
0.057983 0.258850 0.099030
0.050873 0.280853 0.060760
0.061615 0.308228 0.042053
0.081757 0.335266 0.033234
0.101715 0.362183 0.024445
0.121429 0.388916 0.015747
0.140778 0.415375 0.006989
0.160797 0.440247 0.000000
0.181854 0.458069 0.000000
0.201752 0.475769 0.000000
0.220825 0.493469 0.000000
0.240173 0.511810 0.000000
0.259369 0.530670 0.000000
0.278564 0.550171 0.000000
0.298248 0.570587 0.000000
0.318634 0.591888 0.000000
0.339539 0.614288 0.000000
0.361053 0.637726 0.000000
0.383484 0.662476 0.000000
0.406219 0.688141 0.000000
0.430298 0.714996 0.000000
0.454285 0.742523 0.000000
0.479309 0.771423 0.000000
0.505707 0.801910 0.000000
0.532959 0.833862 0.000000
0.562805 0.868591 0.000000
0.594696 0.906219 0.000000
0.048035 0.238312 0.276337
0.052795 0.264984 0.282410
0.051758 0.281494 0.248688
0.051483 0.281403 0.205444
0.051331 0.281799 0.166565
0.051239 0.282318 0.128967
0.051331 0.282898 0.092651
0.043030 0.308289 0.054413
0.051788 0.335297 0.034302
0.072021 0.362366 0.025482
0.092133 0.389282 0.016724
0.111725 0.415955 0.007935
0.132202 0.442078 0.000000
0.154266 0.459869 0.000000
0.175293 0.477692 0.000000
0.195770 0.495575 0.000000
0.216003 0.514069 0.000000
0.236267 0.533173 0.000000
0.256317 0.552826 0.000000
0.277069 0.573486 0.000000
0.297882 0.594910 0.000000
0.320007 0.617676 0.000000
0.342590 0.641632 0.000000
0.365936 0.666748 0.000000
0.389679 0.692749 0.000000
0.413940 0.719635 0.000000
0.439026 0.747711 0.000000
0.465088 0.777222 0.000000
0.491608 0.807709 0.000000
0.520569 0.840790 0.000000
0.550873 0.875946 0.000000
0.584167 0.914673 0.000000
0.040497 0.257324 0.301025
0.046051 0.280304 0.308075
0.044952 0.306976 0.283691
0.044373 0.306702 0.239258
0.044128 0.307007 0.199371
0.044159 0.307281 0.161072
0.044037 0.308014 0.124664
0.043945 0.308594 0.088593
0.035248 0.335632 0.050049
0.040649 0.362671 0.026459
0.060547 0.389526 0.017700
0.080658 0.416504 0.008911
0.100677 0.443329 0.000183
0.124420 0.461609 0.000000
0.146820 0.479553 0.000000
0.168213 0.497498 0.000000
0.189514 0.516083 0.000000
0.210693 0.535370 0.000000
0.231934 0.555237 0.000000
0.253632 0.576172 0.000000
0.275421 0.597870 0.000000
0.298309 0.620850 0.000000
0.321747 0.645081 0.000000
0.345825 0.670349 0.000000
0.370453 0.696655 0.000000
0.395630 0.724091 0.000000
0.421417 0.752472 0.000000
0.448120 0.782043 0.000000
0.476074 0.813538 0.000000
0.505463 0.846771 0.000000
0.537109 0.882813 0.000000
0.571625 0.922546 0.000000
0.032593 0.277557 0.327026
0.039276 0.293182 0.336151
0.037781 0.334290 0.322845
0.036896 0.333710 0.275818
0.036713 0.333588 0.234436
0.036530 0.333893 0.195740
0.036469 0.334320 0.158203
0.036438 0.334900 0.122070
0.036407 0.335541 0.086365
0.027649 0.362579 0.048431
0.027435 0.389893 0.018738
0.047729 0.416962 0.009979
0.067444 0.443695 0.001221
0.092041 0.463104 0.000000
0.116089 0.481293 0.000000
0.138641 0.499420 0.000000
0.160736 0.517975 0.000000
0.182861 0.537262 0.000000
0.205231 0.557465 0.000000
0.228149 0.578674 0.000000
0.251068 0.600677 0.000000
0.274567 0.623718 0.000000
0.298737 0.648132 0.000000
0.323730 0.673798 0.000000
0.349640 0.700623 0.000000
0.375458 0.728149 0.000000
0.401764 0.756622 0.000000
0.429535 0.786865 0.000000
0.458008 0.818512 0.000000
0.488373 0.852325 0.000000
0.521179 0.889130 0.000000
0.556763 0.929688 0.000000
0.024261 0.299622 0.354645
0.031555 0.309387 0.365265
0.030182 0.361755 0.363464
0.029114 0.362152 0.314758
0.028748 0.361908 0.272278
0.028534 0.362000 0.232300
0.028442 0.362396 0.194611
0.028381 0.362946 0.158081
0.028381 0.363434 0.121704
0.028259 0.364166 0.086334
0.019958 0.389832 0.048126
0.011993 0.416931 0.011108
0.032318 0.443970 0.002350
0.057526 0.464630 0.000000
0.082489 0.482697 0.000000
0.106415 0.501007 0.000000
0.130096 0.519897 0.000000
0.153412 0.539368 0.000000
0.176666 0.559662 0.000000
0.200256 0.580902 0.000000
0.224274 0.603149 0.000000
0.248840 0.626465 0.000000
0.273895 0.651093 0.000000
0.299866 0.677063 0.000000
0.325989 0.703857 0.000000
0.352875 0.731812 0.000000
0.380371 0.760712 0.000000
0.408539 0.791199 0.000000
0.438171 0.823273 0.000000
0.469391 0.857544 0.000000
0.502960 0.894928 0.000000
0.539551 0.936066 0.000000
0.015381 0.322052 0.383636
0.022644 0.332520 0.394531
0.022736 0.376434 0.394501
0.021149 0.392365 0.357208
0.020325 0.391846 0.312286
0.020111 0.391815 0.271667
0.019897 0.392090 0.233154
0.019867 0.392426 0.195770
0.019806 0.392975 0.159668
0.019745 0.393585 0.123779
0.019745 0.394073 0.087646
0.012329 0.416931 0.050262
0.003540 0.444122 0.012238
0.019897 0.465912 0.000000
0.046814 0.484222 0.000000
0.072021 0.502563 0.000000
0.096893 0.521515 0.000000
0.121277 0.541168 0.000000
0.145874 0.561615 0.000000
0.170532 0.583038 0.000000
0.195587 0.605499 0.000000
0.220795 0.628937 0.000000
0.246948 0.653809 0.000000
0.273743 0.679962 0.000000
0.300842 0.707001 0.000000
0.328491 0.735229 0.000000
0.356598 0.764343 0.000000
0.385468 0.795013 0.000000
0.415955 0.827454 0.000000
0.448212 0.862305 0.000000
0.482574 0.900116 0.000000
0.520538 0.942169 0.000000
0.005981 0.345734 0.414185
0.013275 0.356537 0.425232
0.014893 0.390472 0.427765
0.012665 0.424255 0.402252
0.011627 0.423401 0.355347
0.011322 0.423096 0.313507
0.010986 0.423187 0.273834
0.010864 0.423553 0.236450
0.010834 0.423950 0.199249
0.010773 0.424438 0.162964
0.010773 0.424927 0.126862
0.010712 0.425659 0.091553
0.004700 0.444214 0.053955
0.000000 0.467346 0.019623
0.008667 0.485657 0.000000
0.035431 0.504089 0.000000
0.061554 0.523193 0.000000
0.087219 0.542908 0.000000
0.112823 0.563507 0.000000
0.138702 0.585114 0.000000
0.164520 0.607605 0.000000
0.190796 0.631256 0.000000
0.218079 0.656342 0.000000
0.245667 0.682678 0.000000
0.273468 0.709808 0.000000
0.302063 0.738251 0.000000
0.330994 0.767700 0.000000
0.360718 0.798676 0.000000
0.391998 0.831512 0.000000
0.424835 0.866577 0.000000
0.460480 0.905060 0.000000
0.499603 0.947845 0.000000
0.000000 0.367920 0.442322
0.003387 0.381317 0.457489
0.007080 0.403473 0.463043
0.003967 0.458191 0.452087
0.002502 0.456665 0.401123
0.002136 0.456055 0.357758
0.001709 0.456116 0.317657
0.001495 0.456207 0.278931
0.001373 0.456573 0.241425
0.001404 0.456940 0.204468
0.001312 0.457458 0.168365
0.001312 0.458069 0.132782
0.001251 0.458740 0.097076
0.000000 0.468506 0.062347
0.000000 0.487030 0.031982
0.000000 0.505585 0.003571
0.023834 0.524719 0.000000
0.050781 0.544464 0.000000
0.077698 0.565338 0.000000
0.104462 0.586884 0.000000
0.131592 0.609680 0.000000
0.158966 0.633423 0.000000
0.187195 0.658752 0.000000
0.215668 0.685303 0.000000
0.244659 0.712708 0.000000
0.273590 0.741180 0.000000
0.303375 0.770874 0.000000
0.334320 0.802185 0.000000
0.366028 0.835205 0.000000
0.400116 0.870789 0.000000
0.436310 0.909485 0.000000
0.476501 0.953003 0.000000
0.000000 0.387756 0.465637
0.000000 0.403076 0.484314
0.000000 0.416168 0.499298
0.000000 0.477264 0.489319
0.000000 0.484955 0.445068
0.000000 0.483246 0.400055
0.000000 0.482605 0.359955
0.000000 0.482300 0.321228
0.000000 0.482361 0.284515
0.000000 0.482635 0.248505
0.000000 0.483032 0.213226
0.000000 0.483521 0.178375
0.000000 0.484009 0.143585
0.000000 0.484619 0.109314
0.000000 0.488342 0.075348
0.000000 0.506958 0.045288
0.000000 0.526154 0.016327
0.012146 0.546112 0.000000
0.040283 0.566956 0.000000
0.068268 0.588715 0.000000
0.096466 0.611572 0.000000
0.124908 0.635498 0.000000
0.154114 0.661011 0.000000
0.183685 0.687714 0.000000
0.213409 0.715302 0.000000
0.243378 0.743958 0.000000
0.273956 0.773895 0.000000
0.305573 0.805389 0.000000
0.338257 0.838654 0.000000
0.373016 0.874542 0.000000
0.410248 0.913727 0.000000
0.451782 0.957825 0.000000
0.000000 0.407959 0.489868
0.000000 0.423981 0.508972
0.000000 0.436584 0.524261
0.000000 0.486267 0.518829
0.000000 0.512421 0.489166
0.000000 0.509888 0.442535
0.000000 0.508728 0.401917
0.000000 0.508240 0.364166
0.000000 0.508118 0.327881
0.000000 0.508270 0.292847
0.000000 0.508514 0.258240
0.000000 0.508942 0.224274
0.000000 0.509369 0.190399
0.000000 0.509979 0.157135
0.000000 0.510498 0.123871
0.000000 0.511108 0.090454
0.000000 0.527527 0.059387
0.000000 0.547668 0.029297
0.000153 0.568604 0.000000
0.029419 0.590393 0.000000
0.058716 0.613373 0.000000
0.088409 0.637543 0.000000
0.118500 0.663086 0.000000
0.149078 0.690033 0.000000
0.179596 0.717651 0.000000
0.210510 0.746521 0.000000
0.242126 0.776642 0.000000
0.274323 0.808319 0.000000
0.308136 0.842010 0.000000
0.343445 0.878113 0.000000
0.381775 0.917725 0.000000
0.424072 0.962311 0.000000
0.000000 0.429321 0.515839
0.000000 0.445984 0.535706
0.000000 0.459106 0.551636
0.000000 0.495941 0.552612
0.000000 0.543121 0.538208
0.000000 0.539398 0.489105
0.000000 0.537537 0.447235
0.000000 0.536530 0.408936
0.000000 0.536255 0.373505
0.000000 0.536224 0.338806
0.000000 0.536316 0.304962
0.000000 0.536682 0.271881
0.000000 0.537109 0.239319
0.000000 0.537598 0.206848
0.000000 0.538147 0.174347
0.000000 0.538696 0.141907
0.000000 0.539398 0.108521
0.000000 0.549011 0.075592
0.000000 0.570099 0.044403
0.000000 0.592133 0.013733
0.016815 0.615143 0.000000
0.047607 0.639435 0.000000
0.079102 0.665192 0.000000
0.110504 0.692108 0.000000
0.142212 0.720001 0.000000
0.174103 0.749054 0.000000
0.206238 0.779236 0.000000
0.239441 0.811188 0.000000
0.273987 0.845032 0.000000
0.310364 0.881592 0.000000
0.349579 0.921448 0.000000
0.393250 0.966858 0.000000
0.000000 0.452789 0.544342
0.000000 0.470612 0.565125
0.000000 0.484344 0.581787
0.000000 0.506500 0.591919
0.000000 0.562378 0.577759
0.000000 0.572174 0.539337
0.000000 0.569458 0.496338
0.000000 0.568085 0.458099
0.000000 0.567413 0.422363
0.000000 0.567169 0.388123
0.000000 0.567139 0.354889
0.000000 0.567352 0.322449
0.000000 0.567688 0.290344
0.000000 0.568085 0.258667
0.000000 0.568604 0.227386
0.000000 0.569183 0.195801
0.000000 0.569794 0.163177
0.000000 0.570435 0.129517
0.000000 0.571533 0.094452
0.000000 0.593628 0.062164
0.000000 0.616852 0.030121
0.002045 0.641205 0.000000
0.034515 0.666992 0.000000
0.067291 0.694153 0.000000
0.099976 0.722137 0.000000
0.132782 0.751282 0.000000
0.166046 0.781708 0.000000
0.200073 0.813812 0.000000
0.235809 0.847992 0.000000
0.273010 0.884705 0.000000
0.313293 0.925232 0.000000
0.357941 0.970947 0.000000
0.000000 0.479279 0.575867
0.000000 0.497559 0.597656
0.000000 0.512054 0.615234
0.000000 0.525818 0.631775
0.000000 0.579254 0.617218
0.000000 0.608795 0.594391
0.000000 0.605316 0.550201
0.000000 0.603210 0.510712
0.000000 0.602142 0.474976
0.000000 0.601563 0.441040
0.000000 0.601288 0.408112
0.000000 0.601440 0.376343
0.000000 0.601685 0.345062
0.000000 0.601898 0.313721
0.000000 0.602386 0.283264
0.000000 0.602936 0.252594
0.000000 0.603546 0.221039
0.000000 0.604187 0.188080
0.000000 0.604889 0.154022
0.000000 0.605530 0.118256
0.000000 0.618408 0.083191
0.000000 0.642944 0.049438
0.000000 0.668762 0.015686
0.018524 0.696014 0.000000
0.052338 0.724152 0.000000
0.086456 0.753540 0.000000
0.120789 0.784119 0.000000
0.155640 0.816315 0.000000
0.192108 0.850677 0.000000
0.230621 0.887756 0.000000
0.272034 0.928497 0.000000
0.317688 0.974762 0.000000
0.000000 0.508209 0.610809
0.000000 0.527405 0.633881
0.000000 0.543396 0.652710
0.000000 0.557800 0.670227
0.000000 0.598267 0.663910
0.000000 0.644226 0.651367
0.000000 0.645752 0.609650
0.000000 0.643097 0.569763
0.000000 0.641174 0.532684
0.000000 0.640259 0.498810
0.000000 0.639679 0.465851
0.000000 0.639587 0.434570
0.000000 0.639709 0.403717
0.000000 0.639923 0.373383
0.000000 0.640350 0.343475
0.000000 0.640778 0.313507
0.000000 0.641327 0.282623
0.000000 0.641998 0.250946
0.000000 0.642700 0.217621
0.000000 0.643341 0.182831
0.000000 0.644135 0.146576
0.000000 0.644958 0.108185
0.000000 0.670471 0.072510
0.000000 0.697906 0.036987
0.000000 0.726135 0.001770
0.033386 0.755493 0.000000
0.068909 0.786285 0.000000
0.105133 0.818726 0.000000
0.142670 0.853180 0.000000
0.182190 0.890503 0.000000
0.224487 0.931580 0.000000
0.271851 0.978485 0.000000
0.000000 0.540649 0.649994
0.000000 0.561584 0.674744
0.000000 0.578247 0.694763
0.000000 0.594208 0.713531
0.000000 0.618988 0.721100
0.000000 0.669617 0.700043
0.000000 0.692383 0.677155
0.000000 0.688049 0.634125
0.000000 0.685577 0.596710
0.000000 0.684052 0.562134
0.000000 0.683258 0.529633
0.000000 0.682831 0.498291
0.000000 0.682739 0.467896
0.000000 0.682892 0.438141
0.000000 0.683167 0.408813
0.000000 0.683563 0.379486
0.000000 0.684113 0.349579
0.000000 0.684662 0.318268
0.000000 0.685333 0.285950
0.000000 0.686096 0.252441
0.000000 0.686829 0.216980
0.000000 0.687592 0.179626
0.000000 0.688416 0.140167
0.000000 0.699493 0.100586
0.000000 0.727966 0.063629
0.000000 0.757507 0.027191
0.009827 0.788422 0.000000
0.047302 0.821014 0.000000
0.085846 0.855682 0.000000
0.126709 0.893250 0.000000
0.170410 0.934479 0.000000
0.218811 0.981720 0.000000
0.000000 0.577515 0.694092
0.000000 0.598938 0.720062
0.000000 0.616516 0.740967
0.000000 0.632874 0.760651
0.000000 0.648895 0.779663
0.000000 0.698639 0.755646
0.000000 0.737335 0.744232
0.000000 0.738342 0.705170
0.000000 0.735046 0.666687
0.000000 0.732971 0.631500
0.000000 0.731628 0.598389
0.000000 0.730835 0.567047
0.000000 0.730652 0.537292
0.000000 0.730438 0.507538
0.000000 0.730621 0.478577
0.000000 0.730988 0.450073
0.000000 0.731384 0.420502
0.000000 0.731903 0.390259
0.000000 0.732513 0.358582
0.000000 0.733215 0.325623
0.000000 0.733887 0.291168
0.000000 0.734680 0.254883
0.000000 0.735504 0.216370
0.000000 0.736359 0.175812
0.000000 0.737213 0.134094
0.000000 0.759399 0.094727
0.000000 0.790344 0.056335
0.000000 0.823120 0.017273
0.022614 0.857971 0.000000
0.064941 0.895721 0.000000
0.109863 0.937408 0.000000
0.159912 0.984894 0.000000
0.000000 0.617279 0.742340
0.000000 0.640564 0.769897
0.000000 0.659119 0.792175
0.000000 0.676788 0.813171
0.000000 0.693695 0.833496
0.000000 0.731079 0.821320
0.000000 0.771545 0.803314
0.000000 0.794952 0.784088
0.000000 0.790253 0.743164
0.000000 0.787262 0.706726
0.000000 0.785492 0.673676
0.000000 0.784210 0.641754
0.000000 0.783661 0.611847
0.000000 0.783234 0.582275
0.000000 0.783203 0.553741
0.000000 0.783447 0.525604
0.000000 0.783722 0.496521
0.000000 0.784119 0.466705
